(POSITIVE)
(T6  D=12.7 CR=0. - ZMIN=-3.992 - FLAT END MILL)
(T11  D=1.5 CR=0. - ZMIN=-11.5 - FLAT END MILL)
(T26  D=6. CR=0. - ZMIN=-10. - FLAT END MILL)
G90 G94 G91.1 G40 G49 G17
G21

(ADAPTIVE4)
M5
T6 M6
S5000 M3
G54
G0 X38.478 Y-6.35
G43 Z25. H6
Z15.
Z3.28
G1 Z2.01 F500.
Z0.01
G2 X39.081 I0.302 J-8.641
G1 Y-6.215 F2000.
X39.039 Y-6.087
X38.924 Y-5.843
X38.784 Y-5.612
X38.54 Y-5.289
X38.268 Y-4.989
X37.973 Y-4.711
X37.661 Y-4.453
X37.224 Y-4.137
X36.767 Y-3.849
X36.294 Y-3.587
X35.687 Y-3.293
X35.066 Y-3.03
X34.433 Y-2.796
X33.637 Y-2.54
X32.862 Y-2.325
X31.947 Y-2.107
X31.081 Y-1.931
X30.054 Y-1.753
X28.799 Y-1.574
X27.642 Y-1.438
X26.206 Y-1.303
X24.322 Y-1.166
X22.641 Y-1.075
X20.366 Y-0.985
X17.915 Y-0.921
X14.237 Y-0.865
X9.333 Y-0.831
X6.268 Y-0.821
X5.962 Y-0.803
X5.66 Y-0.753
X5.364 Y-0.672
X5.079 Y-0.561
X3.988 Y-0.001
X3.107 Y0.851
X2.38 Y1.839
X1.784 Y2.91
X1.297 Y4.035
X0.9 Y5.195
X0.577 Y6.378
X0.315 Y7.576
X0.103 Y8.783
X-0.069 Y9.997
X-0.208 Y11.215
X-0.32 Y12.436
X-0.411 Y13.658
X-0.574 Y14.874
X-0.705 Y16.093
X-0.811 Y17.314
X-0.896 Y18.537
X-0.965 Y19.761
X-1.021 Y20.986
X-1.102 Y23.436
X-1.155 Y25.888
X-1.202 Y29.565
X-1.236 Y35.695
X-1.258 Y51.633
X-1.263 Y62.667
Y63.893
X-1.234 Y64.198
X-1.174 Y64.499
X-0.809 Y65.669
X-0.091 Y66.663
X0.807 Y67.497
X1.818 Y68.191
X2.903 Y68.762
X4.035 Y69.231
X5.2 Y69.615
X6.386 Y69.927
X7.585 Y70.18
X8.794 Y70.386
X10.009 Y70.552
X11.227 Y70.686
X12.448 Y70.795
X13.671 Y70.882
X14.895 Y70.953
X16.12 Y71.01
X18.57 Y71.093
X21.022 Y71.146
X24.699 Y71.194
X30.829 Y71.229
X45.541 Y71.249
X83.853 Y71.263
X84.159 Y71.241
X84.461 Y71.188
X85.64 Y70.852
X86.639 Y70.14
X87.478 Y69.246
X88.175 Y68.238
X88.75 Y67.155
X89.222 Y66.024
X89.608 Y64.86
X89.922 Y63.675
X90.177 Y62.476
X90.384 Y61.267
X90.551 Y60.053
X90.686 Y58.834
X90.796 Y57.613
X90.884 Y56.39
X90.955 Y55.166
X91.012 Y53.942
X91.096 Y51.491
X91.15 Y49.04
X91.198 Y45.362
X91.234 Y39.232
X91.255 Y24.521
X91.261 Y11.035
X91.263 Y6.131
X91.238 Y5.825
X91.182 Y5.524
X90.833 Y4.349
X90.118 Y3.352
X89.222 Y2.515
X88.213 Y1.82
X87.129 Y1.246
X85.997 Y0.776
X84.833 Y0.391
X83.648 Y0.078
X82.448 Y-0.176
X81.24 Y-0.382
X80.025 Y-0.549
X78.807 Y-0.684
X77.586 Y-0.793
X76.363 Y-0.881
X75.139 Y-0.952
X73.914 Y-1.009
X71.464 Y-1.092
X69.012 Y-1.146
X65.334 Y-1.194
X59.205 Y-1.229
X48.171 Y-1.247
X46.945 Y-1.21
X45.733 Y-1.026
X44.54 Y-0.745
X43.362 Y-0.404
X42.194 Y-0.031
X39.868 Y0.743
X38.7 Y1.118
X37.527 Y1.473
X36.347 Y1.805
X35.159 Y2.11
X33.965 Y2.387
X32.765 Y2.636
X31.559 Y2.858
X30.349 Y3.055
X29.135 Y3.228
X27.919 Y3.38
X26.7 Y3.513
X25.479 Y3.627
X24.257 Y3.726
X23.034 Y3.812
X21.81 Y3.884
X19.361 Y3.999
X16.91 Y4.082
X13.233 Y4.162
X12.019 Y4.331
X10.886 Y4.798
X9.871 Y5.487
X8.984 Y6.333
X8.22 Y7.292
X7.568 Y8.33
X7.014 Y9.424
X6.531 Y10.551
X6.113 Y11.703
X5.754 Y12.875
X5.447 Y14.062
X5.186 Y15.26
X4.964 Y16.466
X4.777 Y17.678
X4.619 Y18.893
X4.487 Y20.112
X4.376 Y21.333
X4.283 Y22.556
X4.205 Y23.779
X4.14 Y25.003
X4.041 Y27.453
X3.973 Y29.904
X3.908 Y33.582
X3.863 Y38.486
X3.832 Y47.067
X3.821 Y56.875
X3.914 Y58.098
X4.315 Y59.256
X4.952 Y60.304
X5.761 Y61.225
X6.692 Y62.023
X7.711 Y62.705
X8.791 Y63.284
X9.916 Y63.773
X11.071 Y64.183
X12.248 Y64.526
X13.44 Y64.811
X14.643 Y65.049
X15.853 Y65.246
X17.068 Y65.409
X18.287 Y65.543
X19.508 Y65.654
X20.73 Y65.746
X21.954 Y65.822
X23.178 Y65.884
X25.629 Y65.977
X28.08 Y66.04
X31.757 Y66.098
X36.661 Y66.137
X46.469 Y66.165
X58.729 Y66.174
X77.119 Y66.181
X78.335 Y66.026
X79.475 Y65.574
X80.498 Y64.899
X81.396 Y64.064
X82.17 Y63.113
X82.832 Y62.081
X83.392 Y60.991
X83.864 Y59.859
X84.26 Y58.699
X84.591 Y57.519
X84.867 Y56.324
X85.096 Y55.119
X85.285 Y53.908
X85.442 Y52.692
X85.572 Y51.473
X85.679 Y50.252
X85.767 Y49.029
X85.84 Y47.805
X85.899 Y46.581
X85.989 Y44.13
X86.05 Y41.679
X86.106 Y38.002
X86.144 Y33.098
X86.171 Y23.29
X86.18 Y12.256
X85.86 Y11.072
X85.283 Y9.991
X84.519 Y9.032
X83.619 Y8.199
X82.623 Y7.484
X81.559 Y6.876
X80.445 Y6.363
X79.298 Y5.931
X78.126 Y5.569
X76.938 Y5.268
X75.738 Y5.017
X74.53 Y4.809
X73.316 Y4.637
X72.098 Y4.494
X70.878 Y4.377
X69.656 Y4.279
X68.432 Y4.2
X67.208 Y4.134
X64.758 Y4.035
X62.307 Y3.968
X58.63 Y3.907
X53.726 Y3.865
X52.5 Y3.863
X51.275 Y3.908
X50.053 Y4.008
X48.837 Y4.162
X47.627 Y4.361
X46.424 Y4.597
X45.226 Y4.859
X44.033 Y5.141
X39.27 Y6.309
X38.076 Y6.588
X36.879 Y6.853
X35.679 Y7.104
X34.476 Y7.339
X33.27 Y7.557
X32.06 Y7.758
X30.848 Y7.942
X29.634 Y8.109
X28.417 Y8.26
X27.198 Y8.396
X25.979 Y8.518
X24.757 Y8.626
X23.535 Y8.722
X22.312 Y8.807
X18.64 Y9.019
X17.715 Y9.257
X17.472 Y9.308
X17.226 Y9.34
X16.978 Y9.35
X11.677
G3 X11.26 Y9.264 I0.044 J-1.269 F500.
G1 X11.194 Y9.238
X9.044 Y8.401 F2000.
G2 X7.491 Y10.234 I-0.461 J1.183
G1 X7.494 Y10.238
G3 X7.632 Y10.712 I-0.866 J0.509 F500.
G1 Y58.182 F2000.
G3 X7.518 Y58.665 I-1.269 J-0.044 F500.
G1 X7.458 Y58.781 F2000.
X6.499 Y60.415
G2 X8.243 Y62.15 I1.095 J0.643
G1 X8.248 Y62.147
G3 X8.722 Y62.009 I0.509 J0.866 F500.
G1 X35.279 F2000.
X35.291 Y61.996
X35.313 Y61.971
X36.526 Y61.791
X37.744 Y61.649
X38.965 Y61.536
X40.187 Y61.446
X41.411 Y61.375
X42.636 Y61.318
X45.087 Y61.236
X47.538 Y61.184
X51.216 Y61.14
X51.969 Y61.134
X52.212 Y61.161
X52.441 Y61.245
X52.644 Y61.38
X52.81 Y61.56
X52.928 Y61.774
X52.993 Y62.009
X78.494
G3 X78.977 Y62.123 I-0.044 J1.269 F500.
X79.557 Y62.656 I-0.527 J1.156 F2000.
G1 X79.631 Y62.786
G2 X80.55 Y63.038 I0.584 J-0.328
X80.791 Y62.116 I-0.335 J-0.58
G1 X80.788 Y62.111
G3 X80.65 Y61.637 I0.866 J-0.509 F500.
G1 Y11.438 F2000.
G3 X80.764 Y10.955 I1.269 J0.044 F500.
X81.088 Y10.522 I1.156 J0.527 F2000.
G1 X81.54 Y10.13
G2 X80.876 Y9.209 I-0.373 J-0.431
G1 X80.871 Y9.212
G3 X80.398 Y9.35 I-0.509 J-0.866 F500.
G1 X52.993 F2000.
X52.991 Y9.362
X52.985 Y9.395
X51.761 Y9.463
X50.54 Y9.571
X49.323 Y9.715
X48.109 Y9.888
X46.899 Y10.085
X45.692 Y10.299
X43.284 Y10.763
X39.677 Y11.48
X37.638 Y11.868
X37.253 Y11.901
X36.869 Y11.859
X36.501 Y11.744
X36.162 Y11.559
X35.865 Y11.313
X35.621 Y11.013
X35.44 Y10.672
X35.329 Y10.302
X35.291 Y9.918
G3 X35.405 Y9.435 I1.269 J0.044 F500.
G1 X35.464 Y9.306 Z0.018
X35.522 Y9.178 Z0.042
X35.579 Y9.053 Z0.081
X35.633 Y8.934 Z0.136
X35.685 Y8.82 Z0.205
X35.733 Y8.715 Z0.287
X35.777 Y8.618 Z0.382
X35.816 Y8.532 Z0.488
X35.851 Y8.457 Z0.604
X35.879 Y8.394 Z0.729
X35.902 Y8.344 Z0.861
X35.918 Y8.308 Z0.997
X35.928 Y8.287 Z1.138
X35.931 Y8.28 Z1.28
G0 Z15.
X35.652 Y8.56
Z2.55
G1 Z1.28 F500.
X35.645 Y8.564 Z1.138
X35.624 Y8.577 Z0.997
X35.59 Y8.597 Z0.861
X35.544 Y8.625 Z0.729
X35.484 Y8.66 Z0.604
X35.414 Y8.702 Z0.488
X35.332 Y8.751 Z0.382
X35.241 Y8.805 Z0.287
X35.141 Y8.864 Z0.205
X35.034 Y8.928 Z0.136
X34.921 Y8.995 Z0.081
X34.803 Y9.065 Z0.042
X34.682 Y9.137 Z0.018
X34.56 Y9.209 Z0.01
G3 X34.082 Y9.35 I-0.514 J-0.864
G1 X16.978 F2000.
G3 X16.496 Y9.236 I0.044 J-1.269 F500.
G1 X16.366 Y9.177 Z0.018
X16.239 Y9.119 Z0.042
X16.114 Y9.062 Z0.081
X15.994 Y9.008 Z0.136
X15.881 Y8.956 Z0.205
X15.775 Y8.908 Z0.287
X15.679 Y8.864 Z0.382
X15.592 Y8.825 Z0.488
X15.517 Y8.79 Z0.604
X15.454 Y8.762 Z0.729
X15.405 Y8.739 Z0.861
X15.369 Y8.723 Z0.997
X15.347 Y8.713 Z1.138
X15.34 Y8.71 Z1.28
G0 Z15.
X52.605 Y7.638
Z2.55
G1 Z1.28 F500.
X52.607 Y7.646 Z1.138
X52.613 Y7.669 Z0.997
X52.623 Y7.707 Z0.861
X52.636 Y7.76 Z0.729
X52.653 Y7.826 Z0.604
X52.674 Y7.906 Z0.488
X52.697 Y7.998 Z0.382
X52.724 Y8.101 Z0.287
X52.752 Y8.214 Z0.205
X52.783 Y8.334 Z0.136
X52.816 Y8.462 Z0.081
X52.85 Y8.594 Z0.042
X52.885 Y8.73 Z0.018
X52.92 Y8.868 Z0.01
G3 X52.991 Y9.362 I-2.243 J0.574
G1 Y10.127 F2000.
X52.989 Y10.16
X52.769 Y10.473
X52.463 Y10.84
X52.042 Y11.27
X51.474 Y11.764
X50.705 Y12.33
X49.663 Y12.976
X48.573 Y13.538
X47.452 Y14.033
X46.309 Y14.478
X45.151 Y14.88
X43.982 Y15.249
X42.803 Y15.585
X41.609 Y15.866
X40.601 Y16.026
X39.727 Y16.093
X38.932 Y16.09
X38.236 Y16.032
X37.027 Y15.831
X36.669 Y15.718
X36.336 Y15.547
X36.036 Y15.322
X35.778 Y15.05
X35.57 Y14.738
X35.416 Y14.396
X35.323 Y14.033
X35.291 Y13.66
G3 X35.405 Y13.178 I1.269 J0.044 F500.
X36.272 Y12.467 I1.156 J0.527 F2000.
G1 X51.434 Y8.934
G3 X52.877 Y9.644 I0.288 J1.237
X52.991 Y10.127 I-1.156 J0.527 F500.
G1 Y12.198 F2000.
X52.984 Y12.333
X52.876 Y12.709
X52.713 Y13.143
X52.5 Y13.595
X52.207 Y14.108
X51.836 Y14.648
X51.358 Y15.238
X50.747 Y15.879
X49.978 Y16.566
X49.011 Y17.299
X47.978 Y17.959
X46.9 Y18.542
X45.784 Y19.049
X44.635 Y19.477
X43.458 Y19.821
X42.259 Y20.075
X41.043 Y20.234
X40.03 Y20.285
X39.148 Y20.259
X38.371 Y20.173
X37.674 Y20.038
X37.013 Y19.855
X36.649 Y19.689
X36.315 Y19.47
X36.017 Y19.203
X35.764 Y18.893
X35.561 Y18.549
X35.412 Y18.178
X35.321 Y17.789
X35.291 Y17.39
Y15.789
G3 X35.405 Y15.307 I1.269 J0.044 F500.
X36.268 Y14.598 I1.156 J0.527 F2000.
G1 X51.429 Y11.006
G3 X52.877 Y11.715 I0.293 J1.236
X52.991 Y12.198 I-1.156 J0.527 F500.
G1 Y15.238 F2000.
X52.973 Y15.588
X52.92 Y16.
X52.826 Y16.436
X52.682 Y16.917
X52.477 Y17.444
X52.207 Y18.
X51.856 Y18.597
X51.411 Y19.23
X50.883 Y19.865
X50.228 Y20.537
X49.47 Y21.199
X48.616 Y21.83
X47.634 Y22.442
X46.544 Y23.004
X45.414 Y23.477
X44.249 Y23.862
X43.06 Y24.153
X41.886 Y24.343
X40.753 Y24.433
X39.79
X38.942 Y24.364
X38.183 Y24.24
X37.47 Y24.065
X37.206 Y23.976
X36.804 Y23.806
X36.433 Y23.576
X36.102 Y23.29
X35.82 Y22.957
X35.593 Y22.583
X35.426 Y22.179
X35.325 Y21.754
X35.291 Y21.319
Y17.39
G3 X35.405 Y16.908 I1.269 J0.044 F500.
X36.382 Y16.177 I1.156 J0.527 F2000.
G1 X51.543 Y14.025
G3 X52.877 Y14.756 I0.178 J1.257
X52.991 Y15.238 I-1.156 J0.527 F500.
G1 Y19.418 F2000.
X52.97 Y19.836
X52.917 Y20.241
X52.816 Y20.715
X52.672 Y21.196
X52.458 Y21.744
X52.192 Y22.293
X51.83 Y22.907
X51.409 Y23.507
X50.869 Y24.158
X50.249 Y24.793
X49.523 Y25.426
X48.668 Y26.059
X47.72 Y26.649
X46.697 Y27.177
X45.579 Y27.644
X44.413 Y28.025
X43.226 Y28.31
X42.045 Y28.495
X40.935 Y28.578
X39.934 Y28.572
X39.056 Y28.497
X38.276 Y28.366
X37.552 Y28.184
X37.108 Y28.033
X36.726 Y27.869
X36.373 Y27.649
X36.06 Y27.376
X35.792 Y27.058
X35.577 Y26.702
X35.419 Y26.318
X35.323 Y25.913
X35.291 Y25.499
Y21.319
G3 X35.405 Y20.836 I1.269 J0.044 F500.
X36.402 Y20.103 I1.156 J0.527 F2000.
G1 X51.564 Y18.203
G3 X52.877 Y18.936 I0.158 J1.26
X52.991 Y19.418 I-1.156 J0.527 F500.
G1 Y23.599 F2000.
X52.965 Y24.109
X52.913 Y24.512
X52.812 Y24.982
X52.669 Y25.458
X52.458 Y26.002
X52.195 Y26.543
X51.84 Y27.146
X51.425 Y27.737
X50.901 Y28.368
X50.287 Y28.998
X49.583 Y29.612
X48.749 Y30.229
X47.816 Y30.809
X46.813 Y31.327
X45.717 Y31.785
X44.56 Y32.163
X43.376 Y32.447
X42.192 Y32.632
X41.038 Y32.718
X39.99 Y32.712
X39.085 Y32.634
X38.287 Y32.5
X37.545 Y32.313
X37.061 Y32.149
X36.688 Y31.989
X36.345 Y31.774
X36.04 Y31.508
X35.779 Y31.198
X35.569 Y30.852
X35.416 Y30.477
X35.322 Y30.083
X35.291 Y29.679
Y25.499
G3 X35.405 Y25.017 I1.269 J0.044 F500.
X36.402 Y24.283 I1.156 J0.527 F2000.
G1 X51.564 Y22.383
G3 X52.877 Y23.117 I0.158 J1.26
X52.991 Y23.599 I-1.156 J0.527 F500.
G1 Y27.779 F2000.
X52.963 Y28.343
X52.91 Y28.743
X52.811 Y29.207
X52.67 Y29.678
X52.461 Y30.215
X52.201 Y30.75
X51.853 Y31.342
X51.44 Y31.929
X50.929 Y32.545
X50.315 Y33.175
X49.627 Y33.775
X48.809 Y34.38
X47.882 Y34.957
X46.889 Y35.469
X45.798 Y35.925
X44.636 Y36.305
X43.444 Y36.59
X42.249 Y36.777
X41.073 Y36.865
X40.003 Y36.859
X39.087 Y36.78
X38.281 Y36.645
X37.535 Y36.457
X36.854 Y36.225
X36.475 Y36.023
X36.135 Y35.761
X35.842 Y35.446
X35.606 Y35.086
X35.433 Y34.693
X35.327 Y34.277
X35.291 Y33.848
Y29.679
G3 X35.405 Y29.197 I1.269 J0.044 F500.
X36.402 Y28.464 I1.156 J0.527 F2000.
G1 X51.564 Y26.563
G3 X52.877 Y27.297 I0.158 J1.26
X52.991 Y27.779 I-1.156 J0.527 F500.
G1 Y31.96 F2000.
X52.962 Y32.539
X52.91 Y32.939
X52.812 Y33.397
X52.671 Y33.866
X52.465 Y34.397
X52.206 Y34.929
X51.863 Y35.512
X51.451 Y36.099
X50.947 Y36.706
X50.334 Y37.334
X49.653 Y37.928
X48.84 Y38.529
X47.916 Y39.105
X46.924 Y39.616
X45.834 Y40.072
X44.668 Y40.453
X43.476 Y40.739
X42.275 Y40.927
X41.086 Y41.016
X40.016 Y41.011
X39.082 Y40.931
X38.261 Y40.793
X37.537 Y40.611
X36.854 Y40.38
X36.475 Y40.178
X36.135 Y39.915
X35.842 Y39.601
X35.606 Y39.242
X35.433 Y38.849
X35.327 Y38.432
X35.291 Y38.004
Y33.848
G3 X35.405 Y33.366 I1.269 J0.044 F500.
X36.403 Y32.633 I1.156 J0.527 F2000.
G1 X51.565 Y30.744
G3 X52.877 Y31.477 I0.157 J1.26
X52.991 Y31.96 I-1.156 J0.527 F500.
G1 Y36.14 F2000.
X52.962 Y36.711
X52.91 Y37.112
X52.813 Y37.566
X52.673 Y38.034
X52.467 Y38.561
X52.209 Y39.093
X51.869 Y39.672
X51.456 Y40.258
X50.956 Y40.862
X50.344 Y41.489
X49.664 Y42.081
X48.855 Y42.68
X47.93 Y43.256
X46.938 Y43.768
X45.847 Y44.224
X44.681 Y44.604
X43.489 Y44.89
X42.282 Y45.08
X41.092 Y45.17
X40.02 Y45.165
X39.086 Y45.085
X38.264 Y44.948
X37.54 Y44.766
X36.857 Y44.535
X36.477 Y44.333
X36.136 Y44.07
X35.843 Y43.755
X35.607 Y43.396
X35.433 Y43.002
X35.327 Y42.585
X35.291 Y42.157
Y38.004
G3 X35.405 Y37.522 I1.269 J0.044 F500.
X36.405 Y36.788 I1.156 J0.527 F2000.
G1 X51.567 Y34.924
G3 X52.877 Y35.658 I0.155 J1.261
X52.991 Y36.14 I-1.156 J0.527 F500.
G1 Y40.321 F2000.
X52.944 Y41.142
X52.887 Y41.543
X52.801 Y41.938
X52.688 Y42.327
X52.55 Y42.708
X52.391 Y43.08
X52.146 Y43.561
X51.87 Y44.025
X51.564 Y44.47
X51.234 Y44.897
X50.879 Y45.305
X50.408 Y45.787
X50.009 Y46.152
X49.488 Y46.58
X48.944 Y46.98
X48.379 Y47.349
X47.796 Y47.69
X47.197 Y48.001
X46.585 Y48.285
X45.96 Y48.54
X45.324 Y48.766
X44.679 Y48.965
X44.026 Y49.135
X43.366 Y49.276
X42.7 Y49.388
X42.03 Y49.47
X41.358 Y49.523
X40.683 Y49.544
X40.008 Y49.533
X39.335 Y49.486
X38.799 Y49.419
X38.267 Y49.326
X37.741 Y49.204
X37.223 Y49.053
X36.967 Y48.967
X36.565 Y48.779
X36.201 Y48.524
X35.887 Y48.21
X35.632 Y47.846
X35.445 Y47.444
X35.33 Y47.015
X35.291 Y46.573
Y42.157
X35.305 Y42.072 Z0.018 F500.
X35.318 Y41.99 Z0.04
X35.33 Y41.913 Z0.076
X35.342 Y41.843 Z0.125
X35.363 Y41.785 Z0.186
X35.381 Y41.738 Z0.258
X35.394 Y41.703 Z0.337
X35.402 Y41.681 Z0.421
X35.405 Y41.674 Z0.509
G0 Z15.
X35.677 Y63.72
Z2.55
G1 Z1.28 F500.
X35.675 Y63.712 Z1.138
X35.669 Y63.689 Z0.997
X35.659 Y63.651 Z0.861
X35.646 Y63.598 Z0.729
X35.629 Y63.531 Z0.604
X35.608 Y63.451 Z0.488
X35.585 Y63.359 Z0.382
X35.558 Y63.257 Z0.287
X35.53 Y63.144 Z0.205
X35.499 Y63.023 Z0.136
X35.466 Y62.896 Z0.081
X35.432 Y62.763 Z0.042
X35.397 Y62.627 Z0.018
X35.362 Y62.489 Z0.01
G3 X35.291 Y61.996 I2.243 J-0.574
G1 Y46.573 F2000.
X35.305 Y46.488 Z0.018 F500.
X35.318 Y46.406 Z0.04
X35.33 Y46.329 Z0.076
X35.342 Y46.259 Z0.125
X35.363 Y46.201 Z0.186
X35.381 Y46.154 Z0.258
X35.394 Y46.119 Z0.337
X35.402 Y46.097 Z0.421
X35.405 Y46.09 Z0.509
G0 Z15.
X52.877 Y39.838
Z1.28
G1 Z0.01 F500.
G3 X52.991 Y40.321 I-1.156 J0.527
G1 Y44.881 F2000.
X52.954 Y45.498
X52.898 Y45.899
X52.812 Y46.295
X52.699 Y46.684
X52.562 Y47.065
X52.402 Y47.437
X52.158 Y47.918
X51.882 Y48.382
X51.577 Y48.828
X51.246 Y49.255
X50.892 Y49.663
X50.684 Y49.887
X50.5 Y50.132
X50.342 Y50.395
X50.212 Y50.673
X50.112 Y50.962
X50.042 Y51.261
X50.003 Y51.565
X49.996 Y51.871
X50.02 Y52.177
X50.076 Y52.478
X50.163 Y52.772
X50.279 Y53.055
X50.424 Y53.325
X50.597 Y53.579
X50.795 Y53.813
X51.015 Y54.026
X51.257 Y54.214
X51.601 Y54.43
X51.946 Y54.682
X52.251 Y54.982
X52.51 Y55.322
X52.717 Y55.697
X52.868 Y56.097
X52.96 Y56.514
X52.991 Y56.941
X52.977 Y57.025 Z0.018 F500.
X52.964 Y57.107 Z0.04
X52.952 Y57.184 Z0.076
X52.94 Y57.254 Z0.125
X52.919 Y57.313 Z0.186
X52.901 Y57.36 Z0.258
X52.888 Y57.395 Z0.337
X52.88 Y57.416 Z0.421
X52.877 Y57.423 Z0.509
G0 Z15.
Y44.399
Z1.28
G1 Z0.01 F500.
G3 X52.991 Y44.881 I-1.156 J0.527
G1 Y55.522 F2000.
G3 X52.877 Y56.004 I-1.269 J-0.044 F500.
G1 X52.818 Y56.134 Z0.018
X52.76 Y56.262 Z0.042
X52.703 Y56.386 Z0.081
X52.649 Y56.506 Z0.136
X52.597 Y56.619 Z0.205
X52.549 Y56.725 Z0.287
X52.505 Y56.822 Z0.382
X52.466 Y56.908 Z0.488
X52.432 Y56.983 Z0.604
X52.403 Y57.046 Z0.729
X52.38 Y57.095 Z0.861
X52.364 Y57.131 Z0.997
X52.354 Y57.153 Z1.138
X52.351 Y57.16 Z1.28
G0 Z25.

(ADAPTIVE7)
G0 X61.16 Y45.851
Z25.
Z15.
Z12.5
G3 X72.481 Y50.019 Z11.838 I5.661 J2.084 F500.
X61.16 Y45.851 Z11.176 I-5.661 J-2.084
X72.481 Y50.019 Z10.515 I5.661 J2.084
X61.16 Y45.851 Z9.853 I-5.661 J-2.084
X72.481 Y50.019 Z9.191 I5.661 J2.084
X61.16 Y45.851 Z8.529 I-5.661 J-2.084
X72.481 Y50.019 Z7.867 I5.661 J2.084
X61.16 Y45.851 Z7.206 I-5.661 J-2.084
X72.481 Y50.019 Z6.544 I5.661 J2.084
X61.16 Y45.851 Z5.882 I-5.661 J-2.084
X72.481 Y50.019 Z5.22 I5.661 J2.084
X61.16 Y45.851 Z4.558 I-5.661 J-2.084
X72.481 Y50.019 Z3.897 I5.661 J2.084
X61.16 Y45.851 Z3.235 I-5.661 J-2.084
X72.481 Y50.019 Z2.573 I5.661 J2.084
X61.16 Y45.851 Z1.911 I-5.661 J-2.084
X72.481 Y50.019 Z1.249 I5.661 J2.084
X61.16 Y45.851 Z0.587 I-5.661 J-2.084
X72.853 Y47.935 Z0. I5.661 J2.084
X60.788 I-6.032 J0.
X72.853 I6.032 J0.
G1 X72.855 Y48.253 F2000.
X72.891 Y48.57
X73.17 Y49.812
X73.295 Y50.072
X73.371 Y50.277
X73.437 Y50.509
X73.488 Y50.768
X73.521 Y51.053
X73.532 Y51.364
X73.516 Y51.697
X73.471 Y52.051
X73.393 Y52.424
X73.279 Y52.811
X73.126 Y53.209
X72.931 Y53.614
X72.693 Y54.022
X72.411 Y54.427
X72.084 Y54.825
X71.711 Y55.21
X71.294 Y55.576
X70.834 Y55.92
X70.333 Y56.235
X69.792 Y56.516
X69.217 Y56.759
X68.61 Y56.96
X67.975 Y57.115
X67.317 Y57.221
X66.641 Y57.274
X65.953 Y57.273
X65.257 Y57.216
X64.56 Y57.101
X63.866 Y56.93
X63.182 Y56.701
X62.512 Y56.415
X61.863 Y56.073
X61.238 Y55.678
X60.644 Y55.232
X60.085 Y54.737
X59.565 Y54.195
X59.088 Y53.612
X58.657 Y52.99
X58.277 Y52.333
X57.95 Y51.646
X57.679 Y50.933
X57.465 Y50.199
X57.31 Y49.448
X57.216 Y48.687
X57.183 Y47.919
X57.212 Y47.151
X57.303 Y46.386
X57.455 Y45.63
X57.667 Y44.889
X57.939 Y44.166
X58.267 Y43.467
X58.651 Y42.796
X59.088 Y42.158
X59.575 Y41.556
X60.109 Y40.996
X60.686 Y40.48
X61.303 Y40.011
X61.955 Y39.594
X62.639 Y39.231
X63.351 Y38.923
X64.084 Y38.673
X64.836 Y38.483
X65.6 Y38.354
X66.373 Y38.287
X67.148 Y38.282
X67.921 Y38.339
X68.688 Y38.458
X69.442 Y38.639
X70.18 Y38.879
X70.895 Y39.177
X71.585 Y39.532
X72.244 Y39.942
X72.868 Y40.403
X73.453 Y40.912
X73.995 Y41.467
X74.491 Y42.064
X74.937 Y42.698
X75.584 Y43.795
X76.163 Y44.93
X76.664 Y46.083
X77.011 Y47.097
X77.254 Y48.054
X77.408 Y48.96
X77.486 Y49.837
X77.493 Y50.697
X77.432 Y51.542
X77.305 Y52.371
X77.112 Y53.183
X76.855 Y53.977
X76.533 Y54.75
X76.149 Y55.5
X75.701 Y56.224
X75.191 Y56.916
X74.62 Y57.574
X73.991 Y58.191
X73.304 Y58.763
X72.564 Y59.286
X71.775 Y59.753
X70.941 Y60.16
X70.067 Y60.503
X69.158 Y60.777
X68.219 Y60.98
X67.257 Y61.109
X66.277 Y61.16
X65.285 Y61.133
X64.288 Y61.024
X63.294 Y60.834
X62.31 Y60.563
X61.343 Y60.211
X60.4 Y59.779
X59.49 Y59.27
X58.618 Y58.686
X57.792 Y58.03
X57.017 Y57.307
X56.3 Y56.521
X55.646 Y55.676
X55.06 Y54.779
X54.546 Y53.834
X54.108 Y52.849
X53.75 Y51.829
X53.606 Y51.283
X53.552 Y51.035
X53.52 Y50.783
X53.509 Y50.529
Y47.555
X53.572 Y46.283
X53.672 Y45.334
X53.851 Y44.374
X54.111 Y43.414
X54.453 Y42.463
X54.876 Y41.531
X55.377 Y40.626
X55.954 Y39.757
X56.605 Y38.93
X57.325 Y38.152
X58.11 Y37.431
X58.954 Y36.771
X59.853 Y36.179
X60.799 Y35.658
X61.788 Y35.214
X62.812 Y34.85
X63.864 Y34.569
X64.938 Y34.372
X66.025 Y34.262
X67.119 Y34.24
X68.213 Y34.305
X69.299 Y34.459
X70.369 Y34.699
X71.418 Y35.024
X72.438 Y35.433
X73.422 Y35.923
X74.364 Y36.49
X75.257 Y37.131
X76.19 Y37.921
X77.093 Y38.819
X77.925 Y39.784
X78.687 Y40.804
X79.375 Y41.876
X79.772 Y42.605
X79.928 Y42.939
X80.041 Y43.291
X80.109 Y43.653
X80.132 Y44.022
Y52.881
X80.074 Y54.049
X79.974 Y54.812
X79.803 Y55.612
X79.562 Y56.417
X79.241 Y57.241
X78.832 Y58.084
X78.333 Y58.931
X77.748 Y59.763
X77.051 Y60.597
X76.695 Y60.908
X76.295 Y61.158
X75.86 Y61.342
X75.401 Y61.454
X74.93 Y61.491
X59.477
X58.985 Y61.467
X58.448 Y61.396
X57.842 Y61.267
X57.228 Y61.083
X56.545 Y60.817
X55.862 Y60.485
X55.147 Y60.065
X54.769 Y59.799
X54.405 Y59.497
X54.093 Y59.141
X53.842 Y58.74
X53.659 Y58.304
X53.546 Y57.845
X53.509 Y57.374
G3 X53.622 Y56.892 I1.269 J0.044 F500.
X55.433 Y56.33 I1.156 J0.527 F2000.
G1 X60.088 Y59.134
G3 X59.959 Y61.378 I-0.655 J1.088
X59.477 Y61.491 I-0.527 J-1.156 F500.
G1 X54.905 F2000.
X54.683 Y61.485
X54.524 Y61.463
X54.334 Y61.406
X54.143 Y61.313
X54.047 Y61.25
X53.882 Y61.108
X53.762 Y60.965
X53.697 Y60.87
X53.601 Y60.68
X53.541 Y60.489
X53.512 Y60.299
X53.509 Y50.529
Y50.03 F500.
Y48.053 F2000.
Y47.555 F500.
Y40.326 F2000.
X53.537 Y39.757
X53.605 Y39.242
X53.725 Y38.678
X53.906 Y38.076
X54.151 Y37.447
X54.481 Y36.765
X54.876 Y36.094
X55.373 Y35.387
X55.97 Y34.668
X56.639 Y33.983
X57.414 Y33.307
X58.296 Y32.654
X59.276 Y32.044
X60.332 Y31.499
X61.454 Y31.03
X62.646 Y30.641
X63.885 Y30.344
X65.143 Y30.146
X66.412 Y30.045
X67.686 Y30.04
X68.956 Y30.13
X70.216 Y30.312
X71.46 Y30.585
X72.681 Y30.948
X73.872 Y31.399
X75.027 Y31.936
X76.141 Y32.552
X77.212 Y33.242
X78.235 Y34.
X79.223 Y34.837
X79.539 Y35.194
X79.793 Y35.596
X79.98 Y36.035
X80.094 Y36.498
X80.132 Y36.973
Y44.022
G3 X80.019 Y44.504 I-1.269 J-0.044 F500.
X78.671 Y45.233 I-1.156 J-0.527 F2000.
G1 X54.585 Y41.537
G3 X53.622 Y40.808 I0.193 J-1.255
X53.509 Y40.326 I1.156 J-0.527 F500.
G1 Y35.38 F2000.
X53.528 Y34.997
X53.587 Y34.544
X53.689 Y34.067
X53.85 Y33.531
X54.064 Y32.981
X54.356 Y32.379
X54.72 Y31.761
X55.17 Y31.12
X55.729 Y30.447
X56.357 Y29.803
X57.118 Y29.14
X57.997 Y28.489
X58.952 Y27.895
X60.035 Y27.336
X61.21 Y26.845
X62.42 Y26.447
X63.656 Y26.138
X64.91 Y25.917
X66.176 Y25.784
X67.449 Y25.736
X68.722 Y25.768
X69.991 Y25.88
X71.25 Y26.068
X72.495 Y26.335
X73.722 Y26.677
X74.927 Y27.09
X76.105 Y27.572
X77.256 Y28.119
X78.373 Y28.73
X78.759 Y28.975
X79.101 Y29.228
X79.402 Y29.528
X79.658 Y29.867
X79.862 Y30.239
X80.011 Y30.637
X80.102 Y31.052
X80.132 Y31.476
Y36.973
G3 X80.019 Y37.455 I-1.269 J-0.044 F500.
X78.779 Y38.196 I-1.156 J-0.527 F2000.
G1 X54.694 Y36.603
G3 X53.622 Y35.863 I0.084 J-1.267
X53.509 Y35.38 I1.156 J-0.527 F500.
G1 Y30.986 F2000.
X53.529 Y30.574
X53.583 Y30.161
X53.686 Y29.684
X53.833 Y29.191
X54.047 Y28.641
X54.319 Y28.082
X54.681 Y27.466
X55.107 Y26.859
X55.656 Y26.198
X56.277 Y25.562
X57.024 Y24.91
X57.908 Y24.256
X58.901 Y23.638
X60.008 Y23.067
X61.183 Y22.576
X62.391 Y22.175
X63.625 Y21.859
X64.877 Y21.624
X66.14 Y21.466
X67.411 Y21.385
X68.685 Y21.378
X69.957 Y21.444
X71.223 Y21.579
X72.48 Y21.781
X73.726 Y22.046
X74.956 Y22.375
X76.168 Y22.765
X77.358 Y23.219
X78.395 Y23.7
X78.628 Y23.832
X78.999 Y24.08
X79.328 Y24.382
X79.609 Y24.729
X79.834 Y25.115
X79.998 Y25.531
X80.099 Y25.966
X80.132 Y26.411
Y31.476
G3 X80.019 Y31.958 I-1.269 J-0.044 F500.
X78.837 Y32.701 I-1.156 J-0.527 F2000.
G1 X54.752 Y32.212
G3 X53.622 Y31.469 I0.026 J-1.27
X53.509 Y30.986 I1.156 J-0.527 F500.
G1 Y26.63 F2000.
X53.527 Y26.271
X53.58 Y25.865
X53.681 Y25.39
X53.826 Y24.907
X54.04 Y24.357
X54.309 Y23.804
X54.671 Y23.188
X55.096 Y22.584
X55.643 Y21.925
X56.267 Y21.285
X57.018 Y20.63
X57.909 Y19.971
X58.932 Y19.334
X60.064 Y18.75
X61.238 Y18.257
X62.445 Y17.85
X63.676 Y17.524
X64.925 Y17.276
X66.186 Y17.1
X67.455 Y16.994
X68.728 Y16.956
X70.002 Y16.983
X71.272 Y17.074
X72.536 Y17.226
X73.792 Y17.437
X75.037 Y17.706
X76.267 Y18.036
X77.427 Y18.429
X78.36 Y18.831
X78.556 Y18.935
X78.943 Y19.18
X79.288 Y19.482
X79.582 Y19.833
X79.818 Y20.226
X79.991 Y20.65
X80.097 Y21.096
X80.132 Y21.553
Y26.411
G3 X80.019 Y26.894 I-1.269 J-0.044 F500.
X78.875 Y27.637 I-1.156 J-0.527 F2000.
G1 X54.789 Y27.856
G3 X53.622 Y27.113 I-0.012 J-1.27
X53.509 Y26.63 I1.156 J-0.527 F500.
G1 Y22.445 F2000.
X53.532 Y21.981
X53.585 Y21.577
X53.687 Y21.101
X53.831 Y20.619
X54.045 Y20.069
X54.315 Y19.513
X54.679 Y18.895
X55.108 Y18.284
X55.66 Y17.619
X56.292 Y16.971
X57.055 Y16.306
X57.962 Y15.635
X59.013 Y14.981
X60.145 Y14.397
X61.317 Y13.9
X62.522 Y13.487
X63.75 Y13.15
X64.996 Y12.887
X66.255 Y12.693
X67.522 Y12.565
X68.794 Y12.5
X70.067 Y12.495
X71.34 Y12.549
X72.608 Y12.661
X73.87 Y12.832
X75.122 Y13.064
X76.36 Y13.364
X77.432 Y13.705
X78.319 Y14.068
X78.508 Y14.164
X78.906 Y14.407
X79.261 Y14.709
X79.564 Y15.063
X79.808 Y15.46
X79.987 Y15.89
X80.096 Y16.343
X80.132 Y16.807
Y21.553
G3 X80.019 Y22.036 I-1.269 J-0.044 F500.
X78.91 Y22.778 I-1.156 J-0.527 F2000.
G1 X54.825 Y23.67
G3 X53.622 Y22.928 I-0.047 J-1.269
X53.509 Y22.445 I1.156 J-0.527 F500.
G1 Y18.261 F2000.
X53.538 Y17.682
X53.591 Y17.275
X53.693 Y16.799
X53.839 Y16.311
X54.053 Y15.761
X54.328 Y15.194
X54.692 Y14.577
X55.129 Y13.955
X55.688 Y13.281
X56.331 Y12.622
X57.108 Y11.944
X58.034 Y11.259
X59.112 Y10.588
X59.869 Y10.197
X60.303 Y10.016
X60.759 Y9.905
X61.228 Y9.868
X75.478
X76.568 Y9.922
X77.249 Y10.011
X77.876 Y10.146
X78.497 Y10.332
X78.892 Y10.526
X79.247 Y10.784
X79.553 Y11.099
X79.801 Y11.461
X79.983 Y11.861
X80.095 Y12.285
X80.132 Y12.723
G3 X80.019 Y13.205 I-1.269 J-0.044 F500.
X78.331 Y13.832 I-1.156 J-0.527 F2000.
G1 X74.99 Y12.29
G3 X74.995 Y9.981 I0.532 J-1.153
X75.478 Y9.868 I0.527 J1.156 F500.
G1 X78.906 Y9.869 F2000.
X79.09 Y9.891
X79.287 Y9.946
X79.478 Y10.035
X79.573 Y10.095
X79.668 Y10.168
X79.779 Y10.271
X79.861 Y10.367
X79.929 Y10.462
X80.049 Y10.699
X80.1 Y10.866
X80.127 Y11.032
X80.132 Y14.837
Y16.807
G3 X80.019 Y17.29 I-1.269 J-0.044 F500.
X78.94 Y18.031 I-1.156 J-0.527 F2000.
G1 X54.854 Y19.484
G3 X53.622 Y18.743 I-0.076 J-1.268
X53.509 Y18.261 I1.156 J-0.527 F500.
G1 Y13.695 F2000.
X53.525 Y13.374
X53.579 Y12.962
X53.681 Y12.484
X53.83 Y11.986
X54.045 Y11.435
X54.27 Y11.052
X54.553 Y10.71
X54.887 Y10.417
X55.264 Y10.182
X55.673 Y10.009
X56.105 Y9.903
X56.548 Y9.868
G3 X57.03 Y9.981 I-0.044 J1.269 F500.
X57.551 Y11.856 I-0.527 J1.156 F2000.
G1 X55.825 Y14.37
G3 X53.622 Y14.178 I-1.047 J-0.719
X53.509 Y13.695 I1.156 J-0.527 F500.
G1 X53.514 Y11.032 F2000.
X53.547 Y10.842
X53.611 Y10.652
X53.676 Y10.521
X53.762 Y10.389
X53.862 Y10.271
X54.003 Y10.142
X54.143 Y10.046
X54.334 Y9.953
X54.549 Y9.891
X54.727 Y9.869
X61.228 Y9.868
X61.312 Y9.881 Z0.008 F500.
X61.394 Y9.895 Z0.03
X61.471 Y9.907 Z0.066
X61.541 Y9.918 Z0.115
X61.599 Y9.94 Z0.176
X61.647 Y9.958 Z0.248
X61.682 Y9.971 Z0.327
X61.703 Y9.979 Z0.411
X61.71 Y9.981 Z0.499
G0 Z15.
X80.019 Y52.398
Z1.27
G1 Z0. F500.
G3 X80.132 Y52.881 I-1.156 J0.527
G1 Y59.348 F2000.
X80.119 Y59.605
X80.034 Y59.986
X79.882 Y60.345
X79.668 Y60.671
X79.4 Y60.953
X79.085 Y61.183
X78.734 Y61.352
X78.358 Y61.456
X77.97 Y61.491
G3 X77.478 Y61.414 I0.072 J-2.073 F500.
X76.039 Y58.88 I0.564 J-1.996 F2000.
X80.056 Y58.857 I2.011 J0.541
X80.132 Y59.348 I-2.005 J0.564 F500.
G1 X80.129 Y60.299 F2000.
X80.1 Y60.489
X80.049 Y60.656
X80.003 Y60.763
X79.944 Y60.87
X79.827 Y61.03
X79.755 Y61.111
X79.592 Y61.25
X79.44 Y61.345
X79.287 Y61.413
X79.097 Y61.467
X78.906 Y61.49
X74.93 Y61.491
X74.846 Y61.478 Z0.008 F500.
X74.764 Y61.464 Z0.03
X74.687 Y61.452 Z0.066
X74.617 Y61.441 Z0.115
X74.559 Y61.419 Z0.176
X74.511 Y61.401 Z0.248
X74.476 Y61.388 Z0.327
X74.455 Y61.38 Z0.411
X74.448 Y61.378 Z0.499
G0 Z15.
X71.81 Y51.325
Z2.5
G3 X61.831 Y44.545 Z1.838 I-4.99 J-3.39 F500.
X71.81 Y51.325 Z1.176 I4.99 J3.39
X61.831 Y44.545 Z0.515 I-4.99 J-3.39
X71.81 Y51.325 Z-0.147 I4.99 J3.39
X61.831 Y44.545 Z-0.809 I-4.99 J-3.39
X71.81 Y51.325 Z-1.471 I4.99 J3.39
X61.831 Y44.545 Z-2.133 I-4.99 J-3.39
X71.81 Y51.325 Z-2.794 I4.99 J3.39
X61.831 Y44.545 Z-3.456 I-4.99 J-3.39
X72.853 Y47.935 Z-3.992 I4.99 J3.39
X60.788 I-6.032 J0.
X72.853 I6.032 J0.
G1 X72.855 Y48.253 F2000.
X72.891 Y48.57
X73.17 Y49.812
X73.295 Y50.072
X73.371 Y50.277
X73.437 Y50.509
X73.488 Y50.768
X73.521 Y51.053
X73.532 Y51.364
X73.516 Y51.697
X73.471 Y52.051
X73.393 Y52.424
X73.279 Y52.811
X73.126 Y53.209
X72.931 Y53.614
X72.693 Y54.022
X72.411 Y54.427
X72.084 Y54.825
X71.711 Y55.21
X71.294 Y55.576
X70.834 Y55.92
X70.333 Y56.235
X69.792 Y56.516
X69.217 Y56.759
X68.61 Y56.96
X67.975 Y57.115
X67.317 Y57.221
X66.641 Y57.274
X65.953 Y57.273
X65.257 Y57.216
X64.56 Y57.101
X63.866 Y56.93
X63.182 Y56.701
X62.512 Y56.415
X61.863 Y56.073
X61.238 Y55.678
X60.644 Y55.232
X60.085 Y54.737
X59.565 Y54.195
X59.088 Y53.612
X58.657 Y52.99
X58.277 Y52.333
X57.95 Y51.646
X57.679 Y50.933
X57.465 Y50.199
X57.31 Y49.448
X57.216 Y48.687
X57.183 Y47.919
X57.212 Y47.151
X57.303 Y46.386
X57.455 Y45.63
X57.667 Y44.889
X57.939 Y44.166
X58.267 Y43.467
X58.651 Y42.796
X59.088 Y42.158
X59.575 Y41.556
X60.109 Y40.996
X60.686 Y40.48
X61.303 Y40.011
X61.955 Y39.594
X62.639 Y39.231
X63.351 Y38.923
X64.084 Y38.673
X64.836 Y38.483
X65.6 Y38.354
X66.373 Y38.287
X67.148 Y38.282
X67.921 Y38.339
X68.688 Y38.458
X69.442 Y38.639
X70.18 Y38.879
X70.895 Y39.177
X71.585 Y39.532
X72.244 Y39.942
X72.868 Y40.403
X73.453 Y40.912
X73.995 Y41.467
X74.491 Y42.064
X74.937 Y42.698
X75.584 Y43.795
X76.163 Y44.93
X76.664 Y46.083
X77.011 Y47.097
X77.254 Y48.054
X77.408 Y48.96
X77.486 Y49.837
X77.493 Y50.697
X77.432 Y51.542
X77.305 Y52.371
X77.112 Y53.183
X76.855 Y53.977
X76.533 Y54.75
X76.149 Y55.5
X75.701 Y56.224
X75.191 Y56.916
X74.62 Y57.574
X73.991 Y58.191
X73.304 Y58.763
X72.564 Y59.286
X71.775 Y59.753
X70.941 Y60.16
X70.796 Y60.217
X70.444 Y60.33
X70.082 Y60.399
X69.714 Y60.422
X64.81
X63.851 Y60.374
X63.051 Y60.269
X62.24 Y60.095
X61.416 Y59.848
X60.586 Y59.525
X59.759 Y59.124
X58.947 Y58.646
X58.158 Y58.092
X57.405 Y57.467
X56.695 Y56.773
X56.034 Y56.016
X55.428 Y55.198
X55.026 Y54.551
X54.833 Y54.187
X54.692 Y53.799
X54.607 Y53.396
X54.578 Y52.985
Y45.272
X54.618 Y44.478
X54.713 Y43.751
X54.871 Y43.015
X55.099 Y42.255
X55.402 Y41.476
X55.783 Y40.692
X56.237 Y39.919
X56.764 Y39.169
X57.362 Y38.448
X58.034 Y37.76
X58.775 Y37.114
X59.58 Y36.518
X60.445 Y35.98
X61.361 Y35.507
X62.323 Y35.105
X63.324 Y34.778
X64.354 Y34.531
X65.408 Y34.366
X66.477 Y34.287
X67.554 Y34.293
X68.63 Y34.386
X69.699 Y34.565
X70.753 Y34.831
X71.785 Y35.181
X72.786 Y35.613
X73.751 Y36.125
X74.674 Y36.714
X75.586 Y37.405
X76.512 Y38.232
X77.39 Y39.153
X78.198 Y40.138
X78.518 Y40.591
X78.752 Y40.982
X78.923 Y41.405
X79.028 Y41.848
X79.063 Y42.303
Y54.783
X79.036 Y55.321
X78.957 Y55.923
X78.817 Y56.578
X78.619 Y57.237
X78.348 Y57.935
X77.994 Y58.663
X77.818 Y58.962
X77.568 Y59.323
X77.267 Y59.643
X76.922 Y59.915
X76.541 Y60.133
X76.131 Y60.292
X75.703 Y60.389
X75.265 Y60.422
G3 X74.782 Y60.308 I0.044 J-1.269 F500.
X74.208 Y58.52 I0.527 J-1.156 F2000.
G1 X76.692 Y54.195
G3 X78.949 Y54.301 I1.101 J0.633
X79.063 Y54.783 I-1.156 J0.527 F500.
G1 Y58.968 F2000.
X79.046 Y59.348
X78.999 Y59.538
X78.906 Y59.751
X78.788 Y59.93
X78.709 Y60.02
X78.617 Y60.109
X78.525 Y60.181
X78.335 Y60.295
X78.144 Y60.369
X77.954 Y60.41
X77.763 Y60.422
X69.714
X69.215 F500.
X65.309 F2000.
X64.81 F500.
X58.715 F2000.
X58.153 Y60.393
X57.668 Y60.33
X57.148 Y60.219
X56.582 Y60.049
X56.277 Y59.93
X55.917 Y59.758
X55.586 Y59.534
X55.293 Y59.263
X55.044 Y58.951
X54.844 Y58.605
X54.697 Y58.233
X54.608 Y57.844
X54.578 Y57.446
G3 X54.692 Y56.964 I1.269 J0.044 F500.
X56.492 Y56.396 I1.156 J0.527 F2000.
G1 X59.315 Y58.058
G3 X59.197 Y60.308 I-0.644 J1.094
X58.715 Y60.422 I-0.527 J-1.156 F500.
G1 X56.048 F2000.
X55.667 Y60.407
X55.477 Y60.362
X55.286 Y60.285
X55.156 Y60.209
X55.025 Y60.109
X54.905 Y59.991
X54.802 Y59.86
X54.723 Y59.729
X54.642 Y59.538
X54.595 Y59.348
X54.578 Y58.968
Y52.985
Y52.486 F500.
Y45.771 F2000.
Y45.272 F500.
Y39.565 F2000.
X54.604 Y39.053
X54.667 Y38.571
X54.772 Y38.08
X54.939 Y37.522
X55.157 Y36.965
X55.454 Y36.352
X55.818 Y35.734
X56.261 Y35.103
X56.806 Y34.445
X57.423 Y33.814
X58.13 Y33.197
X58.944 Y32.594
X59.856 Y32.027
X60.839 Y31.52
X61.178 Y31.378
X61.623 Y31.232
X62.086 Y31.158
X62.555
X63.018 Y31.232
X63.464 Y31.378
X64.429 Y31.769
X64.81 Y31.907
X65.572 Y32.107
X66.334 Y32.213
X67.096 Y32.225
X67.858 Y32.145
X68.62 Y31.971
X69.493 Y31.808
X70.164 Y31.737
X70.927 Y31.719
X71.74 Y31.764
X72.59 Y31.881
X73.522 Y32.086
X74.489 Y32.382
X75.474 Y32.773
X76.521 Y33.289
X77.601 Y33.934
X77.817 Y34.087
X78.177 Y34.389
X78.485 Y34.744
X78.733 Y35.143
X78.915 Y35.577
X79.025 Y36.033
X79.063 Y36.502
Y42.303
G3 X78.949 Y42.785 I-1.269 J-0.044 F500.
X76.884 Y43.145 I-1.156 J-0.527 F2000.
G1 X68.049 Y34.082
G3 X68.177 Y32.194 I0.909 J-0.886
X68.62 Y31.971 I0.781 J1.001 F500.
G1 X69.001 Y31.853 F2000.
X70.144 Y31.394
X70.613 Y31.196
X70.906 Y31.06
X71.287 Y30.865
X71.668 Y30.609
X71.913 Y30.458
X72.235 Y30.294
X72.625 Y30.133
X73.044 Y29.998
X73.554 Y29.878
X74.089 Y29.797
X74.726 Y29.752
X75.38 Y29.759
X76.026 Y29.817
X76.641 Y29.923
X77.244 Y30.078
X77.627 Y30.244
X77.98 Y30.467
X78.294 Y30.741
X78.561 Y31.061
X78.777 Y31.419
X78.934 Y31.805
X79.03 Y32.211
X79.063 Y32.627
Y36.502
G3 X78.949 Y36.984 I-1.269 J-0.044 F500.
X76.944 Y37.402 I-1.156 J-0.527 F2000.
G1 X71.574 Y32.575
G3 X71.335 Y30.976 I0.849 J-0.944
X71.668 Y30.609 I1.089 J0.654 F500.
G1 X72.049 Y30.347 F2000.
X72.43 Y30.026
X72.811 Y29.656
X73.192 Y29.245
X73.465 Y28.913
X73.598 Y28.767
X73.814 Y28.565
X74.056 Y28.372
X74.35 Y28.174
X74.65 Y28.006
X74.98 Y27.854
X75.316 Y27.732
X75.673 Y27.633
X76.037 Y27.563
X76.413 Y27.521
X76.794 Y27.51
X77.179 Y27.53
X77.559 Y27.615
X77.918 Y27.768
X78.243 Y27.981
X78.525 Y28.25
X78.754 Y28.565
X78.924 Y28.916
X79.028 Y29.291
X79.063 Y29.679
Y32.627
G3 X78.949 Y33.109 I-1.269 J-0.044 F500.
X76.958 Y33.539 I-1.156 J-0.527 F2000.
G1 X73.638 Y30.642
G3 X73.246 Y29.358 I0.835 J-0.957
X73.465 Y28.913 I1.227 J0.327 F500.
G1 X74.716 Y27.379 F2000.
X74.971 Y27.011
X75.118 Y26.808
X75.248 Y26.658
X75.408 Y26.5
X75.576 Y26.359
X75.762 Y26.226
X75.971 Y26.101
X76.183 Y25.997
X76.425 Y25.901
X76.67 Y25.826
X77.058 Y25.78
X77.447 Y25.811
X77.822 Y25.919
X78.169 Y26.098
X78.473 Y26.343
X78.723 Y26.643
X78.909 Y26.986
X79.024 Y27.359
X79.063 Y27.747
G3 X79.023 Y28.244 I-5.483 J-0.191 F500.
X78.979 Y28.528 I-5.443 J-0.688 F2000.
X76.3 Y30.255 I-2.145 J-0.386
X74.763 Y27.463 I0.534 J-2.113
X74.971 Y27.011 I2.071 J0.679 F500.
G1 X75.214 Y26.63 F2000.
X75.814 Y25.489
X75.881 Y25.372
X75.961 Y25.257
X76.05 Y25.147
X76.166 Y25.026
X76.289 Y24.917
X76.421 Y24.817
X76.583 Y24.714
X76.905 Y24.585
X77.246 Y24.524
X77.593 Y24.534
X77.931 Y24.614
X78.245 Y24.762
X78.522 Y24.971
X78.751 Y25.232
X78.922 Y25.534
X79.027 Y25.865
X79.063 Y26.21
G3 X79.016 Y26.576 I-2.013 J-0.07 F500.
G1 X78.983 Y26.701
G3 X75.672 Y25.965 I-1.628 J-0.493 F2000.
X75.814 Y25.489 I1.683 J0.242 F500.
G1 X76.428 Y24.284 F2000.
X76.495 Y24.167
X76.573 Y24.057
X76.801 Y23.843
X77.07 Y23.685
X77.367 Y23.589
X77.678 Y23.561
X77.988 Y23.602
X78.281 Y23.71
X78.544 Y23.88
X78.762 Y24.103
X78.926 Y24.369
X79.028 Y24.665
X79.063 Y24.975
G3 X78.948 Y25.457 I-1.262 J-0.044 F500.
G1 X78.919 Y25.517 F2000.
G3 X76.302 Y24.764 I-1.232 J-0.645
X76.428 Y24.284 I1.386 J0.108 F500.
G1 X76.708 Y23.746 F2000.
X76.827 Y23.587
X76.914 Y23.496
X77.001 Y23.422
X77.097 Y23.354
X77.192 Y23.299
X77.419 Y23.206
X77.591 Y23.168
X77.763 Y23.153
X77.954 Y23.165
X78.145 Y23.206
X78.335 Y23.28
X78.525 Y23.393
X78.632 Y23.479
X78.738 Y23.587
X78.832 Y23.706
X78.906 Y23.826
X78.973 Y23.967
X79.032 Y24.157
X79.06 Y24.348
X79.063 Y29.679
G3 X78.949 Y30.161 I-1.269 J-0.044 F500.
X78.315 Y30.793 I-1.156 J-0.527 F2000.
G1 X56.369 Y40.679
G3 X54.692 Y40.048 I-0.522 J-1.158
X54.578 Y39.565 I1.156 J-0.527 F500.
G1 Y35. F2000.
X54.599 Y34.584
X54.653 Y34.176
X54.754 Y33.703
X54.898 Y33.223
X55.11 Y32.678
X55.373 Y32.137
X55.726 Y31.537
X56.125 Y30.969
X56.571 Y30.431
X57.023 Y29.968
X57.516 Y29.538
X57.668 Y29.426
X58.039 Y29.199
X58.445 Y29.042
X58.872 Y28.96
X59.307 Y28.955
X59.736 Y29.027
X60.146 Y29.175
X60.522 Y29.392
X60.854 Y29.674
G3 X61.112 Y30.097 I-0.935 J0.859 F500.
X60.854 Y31.394 I-1.193 J0.436 F2000.
G1 X56.782 Y35.816
G3 X54.692 Y35.482 I-0.934 J-0.86
X54.578 Y35. I1.156 J-0.527 F500.
G1 Y30.815 F2000.
X54.595 Y30.476
X54.638 Y30.149
X54.712 Y29.804
X54.808 Y29.483
X54.94 Y29.145
X55.092 Y28.831
X55.275 Y28.52
X55.486 Y28.22
X55.713 Y27.946
X55.979 Y27.674
X56.294 Y27.405
X56.644 Y27.194
X57.028 Y27.053
X57.432 Y26.987
X57.84 Y26.999
X58.239 Y27.088
X58.614 Y27.251
X58.952 Y27.481
X59.239 Y27.772
X60.488 Y29.293
X60.854 Y29.674
G3 X61.112 Y30.097 I-0.935 J0.859 F500.
X59.993 Y31.801 I-1.193 J0.436 F2000.
G1 X55.922 Y32.039
G3 X54.692 Y31.297 I-0.074 J-1.268
X54.578 Y30.815 I1.156 J-0.527 F500.
G1 Y27.943 F2000.
X54.591 Y27.692
X54.616 Y27.502
X54.662 Y27.287
X54.723 Y27.082
X54.803 Y26.878
X54.908 Y26.66
X55.026 Y26.46
X55.169 Y26.256
X55.334 Y26.058
X55.508 Y25.88
X55.803 Y25.67
X56.134 Y25.523
X56.488 Y25.445
X56.85 Y25.439
X57.206 Y25.504
X57.542 Y25.64
X57.844 Y25.839
X58.101 Y26.094
X58.302 Y26.395
G3 X58.511 Y26.848 I-11.12 J5.418 F500.
G1 X58.604 Y27.066 F2000.
G3 X57.356 Y29.848 I-1.934 J0.804
X54.655 Y28.434 I-0.685 J-1.978
X54.578 Y27.943 I2.016 J-0.565 F500.
G1 Y26.041 F2000.
X54.589 Y25.829
X54.607 Y25.695
X54.638 Y25.55
X54.684 Y25.396
X54.741 Y25.249
X54.816 Y25.095
X54.908 Y24.938
X55.124 Y24.689
X55.386 Y24.491
X55.683 Y24.349
X56.002 Y24.272
X56.331 Y24.261
X56.655 Y24.318
X56.961 Y24.44
X57.235 Y24.621
X57.466 Y24.855
X57.645 Y25.131
G3 X57.791 Y25.517 I-2.528 J1.179 F500.
G1 X57.813 Y25.6
G3 X54.671 Y26.529 I-1.595 J0.383 F2000.
X54.578 Y26.041 I1.547 J-0.545 F500.
G1 X54.579 Y24.613 F2000.
X54.587 Y24.478
X54.672 Y24.185
X54.821 Y23.918
X55.027 Y23.691
X55.278 Y23.517
X55.562 Y23.404
X55.865 Y23.358
X56.169 Y23.381
X56.461 Y23.472
X56.725 Y23.627
X56.947 Y23.838
X57.116 Y24.093
G3 X57.224 Y24.575 I-1.054 J0.491 F500.
G1 Y24.626 F2000.
G3 X54.685 Y25.097 I-1.322 J-0.048
X54.579 Y24.613 I1.217 J-0.519 F500.
G1 X54.582 Y24.348 F2000.
X54.61 Y24.157
X54.669 Y23.967
X54.764 Y23.777
X54.828 Y23.682
X54.906 Y23.587
X55.001 Y23.491
X55.096 Y23.412
X55.286 Y23.293
X55.397 Y23.244
X55.507 Y23.206
X55.667 Y23.171
X55.858 Y23.156
X56.048 Y23.17
X56.214 Y23.206
X56.321 Y23.243
X56.429 Y23.291
X56.62 Y23.408
X56.715 Y23.487
X56.813 Y23.587
X56.889 Y23.682
X56.952 Y23.777
X57.953 Y25.736
X58.023 Y25.869
X58.225 Y26.25
X58.25 Y26.319 Z-3.987 F500.
X58.274 Y26.387 Z-3.97
X58.297 Y26.452 Z-3.943
X58.319 Y26.513 Z-3.907
X58.333 Y26.574 Z-3.856
X58.346 Y26.627 Z-3.796
X58.356 Y26.669 Z-3.727
X58.363 Y26.7 Z-3.653
X58.368 Y26.719 Z-3.574
X58.369 Y26.726 Z-3.494
G0 Z15.
X77.331 Y48.321
Z-0.45
G1 Z-1.72 F500.
X77.339 Y48.319 Z-1.862
X77.362 Y48.313 Z-2.003
X77.4 Y48.303 Z-2.139
X77.453 Y48.29 Z-2.271
X77.52 Y48.273 Z-2.396
X77.6 Y48.252 Z-2.512
X77.692 Y48.229 Z-2.618
X77.795 Y48.202 Z-2.713
X77.907 Y48.174 Z-2.795
X78.028 Y48.143 Z-2.864
X78.155 Y48.11 Z-2.919
X78.288 Y48.076 Z-2.958
X78.424 Y48.041 Z-2.982
X78.562 Y48.006 Z-2.99
G3 X79.055 Y47.935 I0.574 J2.243
G1 X79.19 F2000.
X79.264 Y47.985
X79.314 Y48.06
X79.331 Y48.148
Y59.348
X79.324 Y59.538
X79.287 Y59.737
X79.221 Y59.923
X79.119 Y60.109
X79.026 Y60.232
X78.906 Y60.354
X78.729 Y60.489
X78.627 Y60.548
X78.525 Y60.595
X78.335 Y60.656
X78.144 Y60.686
X55.667 Y60.69
X55.477 Y60.685
X55.286 Y60.653
X55.097 Y60.589
X54.905 Y60.488
X54.81 Y60.42
X54.715 Y60.338
X54.609 Y60.225
X54.522 Y60.109
X54.418 Y59.919
X54.351 Y59.729
X54.317 Y59.538
X54.31 Y58.968
Y23.472
X54.317 Y23.337
X54.342 Y23.204
X54.379 Y23.075
X54.428 Y22.949
X54.488 Y22.828
X54.559 Y22.71
X54.641 Y22.597
X54.735 Y22.486
X54.841 Y22.379
X54.959 Y22.279
X55.088 Y22.186
X55.227 Y22.102
X55.376 Y22.027
X55.536 Y21.962
X55.704 Y21.909
X55.878 Y21.87
X56.059 Y21.843
X56.246 Y21.832
X56.441 Y21.835
X56.752 Y21.871
X57.083 Y21.961
X57.393 Y22.106
X57.673 Y22.303
X57.915 Y22.545
X58.111 Y22.826
G3 X58.288 Y23.903 I-1.139 J0.74 F500.
X54.31 Y23.472 I-1.958 J-0.501
G1 Y22.236 F2000.
X54.317 Y22.101
X54.34 Y21.968
X54.375 Y21.835
X54.424 Y21.697
X54.489 Y21.552
X54.692 Y21.259
X54.953 Y21.017
X55.259 Y20.836
X55.597 Y20.724
X55.951 Y20.687
X56.304 Y20.726
X56.642 Y20.839
X56.947 Y21.022
X57.207 Y21.265
X57.408 Y21.559
G3 X57.547 Y22.035 I-1.267 J0.628 F500.
G1 X57.555 Y22.136 F2000.
Y22.237
G3 X54.403 Y22.724 I-1.622 J-0.057
X54.31 Y22.236 I1.529 J-0.545 F500.
G1 Y21.095 F2000.
X54.317 Y20.948
X54.335 Y20.814
X54.365 Y20.683
X54.501 Y20.399
X54.698 Y20.155
X54.946 Y19.962
X55.232 Y19.832
X55.54 Y19.772
X55.854 Y19.784
X56.157 Y19.869
X56.432 Y20.021
X56.664 Y20.233
X56.841 Y20.493
G3 X56.965 Y20.972 I-1.159 J0.555 F500.
G1 X56.967 Y21.028 F2000.
G3 X54.419 Y21.578 I-1.329 J0.021
X54.31 Y21.095 I1.219 J-0.53 F500.
G1 X54.316 Y20.733 F2000.
X54.349 Y20.543
X54.414 Y20.353
X54.524 Y20.15
X54.606 Y20.04
X54.709 Y19.931
X54.802 Y19.85
X54.905 Y19.775
X55.096 Y19.675
X55.286 Y19.611
X55.477 Y19.579
X55.667 Y19.575
X55.858 Y19.601
X56.048 Y19.658
X56.17 Y19.712
X56.291 Y19.782
X56.429 Y19.887
X56.564 Y20.025
X56.665 Y20.163
X57.678 Y22.065
X58.132 Y22.854
X58.383 Y23.206
X58.715 Y23.642
X60.239 Y25.499
X60.62 Y25.905
X61.001 Y26.281
X61.442 Y26.63
X61.991 Y27.011
X62.144 Y27.107
X62.906 Y27.474
X64.429 Y28.1
X64.81 Y28.231
X65.572 Y28.432
X66.334 Y28.538
X67.096 Y28.55
X67.858 Y28.47
X68.62 Y28.296
X69.061 Y28.152
X69.382 Y28.033
X70.525 Y27.561
X71.287 Y27.212
X71.668 Y26.987
X72.226 Y26.63
X72.43 Y26.467
X72.811 Y26.126
X73.073 Y25.869
X73.41 Y25.489
X74.965 Y23.587
X75.527 Y22.826
X75.654 Y22.617
X75.732 Y22.501
X75.862 Y22.339
X76.01 Y22.183
X76.168 Y22.04
X76.342 Y21.906
X76.526 Y21.787
X76.721 Y21.682
X76.928 Y21.591
X77.142 Y21.517
X77.492 Y21.464
X77.846 Y21.482
X78.189 Y21.571
X78.507 Y21.727
X78.787 Y21.944
X79.017 Y22.213
X79.189 Y22.522
X79.295 Y22.86
X79.331 Y23.213
G3 X79.266 Y23.875 I-5.294 J-0.185 F500.
X75.432 Y23.254 I-1.917 J-0.311
X75.654 Y22.617 I1.917 J0.311
G1 X75.758 Y22.445 F2000.
X76.433 Y21.189
X76.518 Y21.048
X76.598 Y20.939
X76.694 Y20.827
X76.953 Y20.622
X77.25 Y20.477
X77.57 Y20.398
X77.9 Y20.388
X78.225 Y20.448
X78.529 Y20.576
X78.8 Y20.766
X79.024 Y21.008
X79.192 Y21.292
X79.296 Y21.606
X79.331 Y21.934
G3 X79.233 Y22.421 I-1.509 J-0.053 F500.
G1 X79.201 Y22.496 F2000.
X79.166 Y22.57
G3 X76.286 Y21.664 I-1.363 J-0.698
X76.433 Y21.189 I1.517 J0.208 F500.
G1 X76.783 Y20.543 F2000.
X77.001 Y20.127
X77.081 Y20.024
X77.181 Y19.921
X77.27 Y19.845
X77.382 Y19.768
X77.573 Y19.673
X77.763 Y19.614
X77.954 Y19.586
X78.144 Y19.587
X78.335 Y19.616
X78.525 Y19.678
X78.626 Y19.724
X78.727 Y19.782
X78.817 Y19.845
X78.906 Y19.921
X79.023 Y20.042
X79.116 Y20.163
X79.22 Y20.351
X79.288 Y20.543
X79.324 Y20.733
X79.331 Y21.304
Y48.148
X79.318 Y48.233 Z-2.982 F500.
X79.304 Y48.315 Z-2.96
X79.292 Y48.392 Z-2.924
X79.281 Y48.461 Z-2.875
X79.259 Y48.52 Z-2.814
X79.241 Y48.567 Z-2.742
X79.228 Y48.602 Z-2.663
X79.22 Y48.623 Z-2.579
X79.218 Y48.63 Z-2.491
G0 Z15.
X56.049 Y47.549
Z0.545
G1 Z-0.725 F500.
X56.041 Y47.551 Z-0.868
X56.018 Y47.557 Z-1.008
X55.98 Y47.567 Z-1.145
X55.927 Y47.58 Z-1.276
X55.861 Y47.597 Z-1.401
X55.781 Y47.618 Z-1.517
X55.689 Y47.641 Z-1.623
X55.586 Y47.667 Z-1.718
X55.473 Y47.696 Z-1.801
X55.353 Y47.727 Z-1.87
X55.225 Y47.76 Z-1.924
X55.093 Y47.794 Z-1.964
X54.957 Y47.829 Z-1.987
X54.819 Y47.864 Z-1.995
G3 X54.325 Y47.935 I-0.574 J-2.243
G1 X54.19 F2000.
X54.113 Y47.883
X54.061 Y47.806
X54.043 Y47.714
Y19.954
X54.05 Y19.819
X54.068 Y19.685
X54.1 Y19.554
X54.143 Y19.426
X54.198 Y19.303
X54.263 Y19.184
X54.342 Y19.066
X54.427 Y18.958
X54.53 Y18.847
X54.641 Y18.745
X54.765 Y18.648
X54.9 Y18.559
X55.042 Y18.481
X55.2 Y18.411
X55.359 Y18.354
X55.534 Y18.307
X55.71 Y18.275
X55.896 Y18.257
X56.081 Y18.253
X56.304 Y18.267
X56.589 Y18.307
X56.934 Y18.385
X57.438 Y18.542
X57.856 Y18.751
X58.234 Y19.026
X58.563 Y19.359
X58.832 Y19.742
X59.036 Y20.163
X59.423 Y20.924
X59.477 Y21.014
X59.858 Y21.55
X59.957 Y21.685
X60.285 Y22.065
X60.662 Y22.445
X61.11 Y22.826
X61.671 Y23.206
X61.763 Y23.267
X62.144 Y23.477
X62.906 Y23.827
X64.429 Y24.448
X64.81 Y24.584
X65.334 Y24.728
X65.572 Y24.785
X66.334 Y24.891
X67.096 Y24.903
X67.858 Y24.823
X68.62 Y24.649
X69.001 Y24.521
X69.763 Y24.229
X70.906 Y23.749
X71.287 Y23.583
X71.668 Y23.396
X72.049 Y23.164
X72.515 Y22.826
X72.811 Y22.593
X72.985 Y22.445
X73.688 Y21.685
X73.966 Y21.304
X74.218 Y20.924
X74.605 Y20.163
X74.754 Y19.782
X74.862 Y19.516
X74.988 Y19.265
X75.135 Y19.024
X75.299 Y18.797
X75.481 Y18.584
X75.679 Y18.387
X75.89 Y18.208
X76.117 Y18.045
X76.354 Y17.902
X76.601 Y17.779
X76.856 Y17.677
X77.119 Y17.595
X77.388 Y17.534
X77.755 Y17.518
X78.12 Y17.571
X78.467 Y17.691
X78.786 Y17.876
X79.063 Y18.117
X79.291 Y18.407
X79.459 Y18.734
X79.563 Y19.087
X79.598 Y19.453
X79.597 Y59.729
X79.574 Y59.919
X79.521 Y60.109
X79.434 Y60.299
X79.375 Y60.394
X79.287 Y60.508
X79.192 Y60.606
X79.097 Y60.686
X78.906 Y60.808
X78.772 Y60.87
X78.649 Y60.911
X78.525 Y60.938
X78.144 Y60.957
X55.286 Y60.956
X55.096 Y60.935
X54.87 Y60.87
X54.697 Y60.787
X54.524 Y60.671
X54.431 Y60.589
X54.338 Y60.489
X54.225 Y60.329
X54.12 Y60.109
X54.067 Y59.919
X54.044 Y59.729
X54.043 Y47.714
Y47.216 F500.
Y20.452 F2000.
Y19.954 F500.
Y18.718 F2000.
X54.05 Y18.583
X54.068 Y18.449
X54.098 Y18.318
X54.14 Y18.182
X54.197 Y18.04
X54.27 Y17.893
X54.361 Y17.743
X54.47 Y17.591
X54.6 Y17.438
X54.759 Y17.279
X54.94 Y17.125
X55.157 Y16.968
X55.379 Y16.834
X55.636 Y16.705
X55.946 Y16.583
X56.326 Y16.504
X56.714 Y16.5
X57.095 Y16.572
X57.454 Y16.718
X57.779 Y16.931
X58.055 Y17.203
X58.273 Y17.523
X58.424 Y17.881
X58.503 Y18.261
X58.52 Y18.411 F500.
X58.528 Y18.525
X58.531 Y18.64
X58.528 Y18.758
G3 X54.116 Y19.211 I-2.242 J-0.118 F2000.
X54.043 Y18.718 I2.171 J-0.571 F500.
G1 Y17.119 F2000.
X54.05 Y16.984
X54.074 Y16.819
X54.111 Y16.657
X54.169 Y16.474
X54.241 Y16.297
X54.326 Y16.128
X54.438 Y15.944
X54.561 Y15.773
X54.699 Y15.612
X54.867 Y15.445
X55.04 Y15.298
X55.233 Y15.159
X55.582 Y14.995
X55.957 Y14.903
X56.343 Y14.888
X56.724 Y14.951
X57.084 Y15.089
X57.41 Y15.297
X57.687 Y15.565
X57.905 Y15.884
X58.055 Y16.24
X58.091 Y16.358
X58.241 Y16.739
X58.334 Y16.953
X58.389 Y17.119
X58.425 Y17.31
X58.466 Y17.915
X58.503 Y18.261
G3 X58.426 Y18.749 I-1.102 J0.077 F500.
X57.948 Y19.298 I-1.025 J-0.411 F2000.
X54.108 Y17.613 I-1.294 J-2.27
X54.043 Y17.119 I2.546 J-0.585 F500.
G1 Y15.388 F2000.
X54.05 Y15.253
X54.071 Y15.118
X54.11 Y14.959
X54.16 Y14.806
X54.223 Y14.657
X54.309 Y14.491
X54.406 Y14.335
X54.515 Y14.188
X54.653 Y14.03
X54.799 Y13.889
X54.958 Y13.757
X55.145 Y13.626
X55.362 Y13.501
X55.694 Y13.383
X56.043 Y13.338
X56.394 Y13.369
X56.73 Y13.473
X57.036 Y13.647
X57.298 Y13.883
X57.504 Y14.168
X57.644 Y14.491
X57.712 Y14.837
G3 X57.716 Y15.334 I-1.982 J0.264 F500.
X56.356 Y17. I-1.986 J-0.233 F2000.
X54.131 Y15.878 I-0.552 J-1.673
X54.043 Y15.388 I1.674 J-0.551 F500.
G1 Y13.867 F2000.
X54.051 Y13.722
X54.069 Y13.579
X54.099 Y13.441
X54.141 Y13.301
X54.201 Y13.146
X54.272 Y13.001
X54.355 Y12.859
X54.462 Y12.707
X54.577 Y12.569
X54.703 Y12.439
X54.857 Y12.305
X55.015 Y12.188
X55.183 Y12.083
X55.507 Y11.956
X55.85 Y11.898
X56.197 Y11.912
X56.535 Y11.996
X56.848 Y12.147
X57.123 Y12.359
X57.35 Y12.622
X57.518 Y12.927
X57.62 Y13.259
X57.652 Y13.606
G3 X57.568 Y14.096 I-1.998 J-0.091 F500.
X56.204 Y15.437 I-1.914 J-0.581 F2000.
X54.133 Y14.355 I-0.466 J-1.63
X54.043 Y13.867 I1.604 J-0.548 F500.
G1 Y12.345 F2000.
X54.05 Y12.21
X54.07 Y12.076
X54.101 Y11.945
X54.147 Y11.801
X54.204 Y11.665
X54.275 Y11.527
X54.365 Y11.381
X54.464 Y11.246
X54.579 Y11.113
X54.715 Y10.98
X54.856 Y10.862
X55.188 Y10.664
X55.547 Y10.519
X55.923 Y10.432
X56.309 Y10.403
G3 X56.696 Y11.583 I-0.025 J0.662 F500.
G1 X55.964 Y12.165
X55.117 Y12.84
G3 X54.043 Y12.345 I-0.412 J-0.518
G1 X54.046 Y11.603 F2000.
X54.074 Y11.413
X54.104 Y11.305
X54.143 Y11.198
X54.228 Y11.032
X54.352 Y10.862
X54.524 Y10.692
X54.74 Y10.548
X54.905 Y10.476
X55.096 Y10.424
X55.286 Y10.403
X56.429 Y10.404
X56.62 Y10.426
X56.81 Y10.48
X56.97 Y10.551
X57.129 Y10.652
X57.28 Y10.783
X57.355 Y10.866
X57.47 Y11.032
X57.572 Y11.241
X57.624 Y11.413
X57.651 Y11.603
X57.659 Y12.174
X57.652 Y13.606
X57.637 Y13.69 Z-1.988 F500.
X57.623 Y13.772 Z-1.966
X57.61 Y13.849 Z-1.93
X57.598 Y13.918 Z-1.881
X57.576 Y13.976 Z-1.819
X57.557 Y14.024 Z-1.748
X57.544 Y14.058 Z-1.668
X57.536 Y14.08 Z-1.584
X57.533 Y14.087 Z-1.497
G0 Z15.
X74.983 Y21.525
Z0.545
G1 Z-0.725 F500.
X74.981 Y21.517 Z-0.868
X74.976 Y21.494 Z-1.008
X74.968 Y21.455 Z-1.145
X74.958 Y21.402 Z-1.276
X74.944 Y21.334 Z-1.401
X74.927 Y21.253 Z-1.517
X74.908 Y21.16 Z-1.623
X74.887 Y21.056 Z-1.718
X74.864 Y20.943 Z-1.801
X74.839 Y20.82 Z-1.87
X74.813 Y20.692 Z-1.924
X74.786 Y20.557 Z-1.964
X74.758 Y20.42 Z-1.987
X74.729 Y20.281 Z-1.995
G3 X74.754 Y19.782 I0.985 J-0.201
G1 X74.887 Y19.402 F2000.
X74.988 Y19.022
X75.097 Y18.56
X75.16 Y18.051
X75.196 Y17.825
X75.237 Y17.655
X75.296 Y17.473
X75.367 Y17.302
X75.461 Y17.121
X75.572 Y16.944
X75.693 Y16.779
X75.844 Y16.607
X76.004 Y16.45
X76.179 Y16.305
X76.381 Y16.163
X76.586 Y16.043
X76.814 Y15.932
X77.054 Y15.838
X77.295 Y15.766
X77.669 Y15.724
X78.044 Y15.757
X78.405 Y15.862
X78.739 Y16.037
X79.031 Y16.274
X79.272 Y16.563
X79.45 Y16.895
X79.561 Y17.255
X79.598 Y17.629
Y19.453
G3 X79.473 Y19.932 I-1.131 J-0.039 F500.
X79.083 Y20.363 I-1.006 J-0.518 F2000.
X75.174 Y18.549 I-1.386 J-2.133
X75.16 Y18.051 I2.523 J-0.319 F500.
G1 X75.207 Y17.5 F2000.
X75.216 Y17.31
X75.252 Y17.119
X75.55 Y16.358
X75.733 Y15.769
X75.794 Y15.596
X75.861 Y15.446
X75.937 Y15.306
X76.037 Y15.154
X76.15 Y15.007
X76.272 Y14.873
X76.423 Y14.732
X76.583 Y14.605
X76.751 Y14.493
X76.95 Y14.382
X77.174 Y14.281
X77.509 Y14.194
X77.855 Y14.173
X78.198 Y14.218
X78.526 Y14.328
X78.828 Y14.499
X79.091 Y14.724
X79.306 Y14.994
X79.466 Y15.301
X79.565 Y15.633
X79.598 Y15.978
Y17.629
G3 X79.466 Y18.106 I-1.064 J-0.037 F500.
X78.93 Y18.58 I-0.932 J-0.514 F2000.
X75.66 Y16.261 I-0.887 J-2.215
X75.733 Y15.769 I2.383 J0.104 F500.
G1 X75.784 Y15.598 F2000.
X75.927 Y14.837
X75.962 Y14.456
X75.976 Y14.322
X76.008 Y14.191
X76.051 Y14.063
X76.112 Y13.92
X76.183 Y13.785
X76.267 Y13.652
X76.373 Y13.511
X76.487 Y13.383
X76.619 Y13.256
X76.77 Y13.133
X76.925 Y13.026
X77.143 Y12.904
X77.468 Y12.788
X77.81 Y12.74
X78.155 Y12.761
X78.489 Y12.85
X78.798 Y13.004
X79.07 Y13.217
X79.294 Y13.48
X79.46 Y13.783
X79.563 Y14.113
X79.598 Y14.456
G3 X79.519 Y14.947 I-1.999 J-0.07 F500.
X79.321 Y15.404 I-1.92 J-0.561 F2000.
X76.023 Y14.95 I-1.554 J-0.918
X75.962 Y14.456 I1.744 J-0.464 F500.
G1 X75.982 Y14.076 F2000.
X75.99 Y13.695
X75.985 Y13.2
X75.99 Y13.065
X76.008 Y12.931
X76.038 Y12.799
X76.083 Y12.657
X76.139 Y12.518
X76.205 Y12.386
X76.295 Y12.24
X76.394 Y12.103
X76.503 Y11.975
X76.639 Y11.84
X76.781 Y11.719
X76.935 Y11.609
X77.114 Y11.501
X77.295 Y11.411
X77.609 Y11.319
X77.935 Y11.29
X78.26 Y11.325
X78.572 Y11.422
X78.86 Y11.578
X79.112 Y11.787
X79.318 Y12.041
X79.471 Y12.33
X79.566 Y12.643
X79.598 Y12.968
Y15.978
G3 X79.443 Y16.445 I-0.872 J-0.03 F500.
X78.359 Y16.739 I-0.717 J-0.497 F2000.
X76.038 Y13.695 I1.727 J-3.725
X75.985 Y13.2 I4.049 J-0.681 F500.
G1 X75.983 Y11.793 F2000.
X75.99 Y11.603
X76.018 Y11.413
X76.092 Y11.191
X76.171 Y11.032
X76.24 Y10.931
X76.357 Y10.791
X76.516 Y10.652
X76.62 Y10.582
X76.811 Y10.489
X77.001 Y10.431
X77.192 Y10.405
X78.144 Y10.402
X78.525 Y10.421
X78.716 Y10.469
X78.906 Y10.551
X79.067 Y10.652
X79.177 Y10.744
X79.287 Y10.86
X79.413 Y11.032
X79.508 Y11.222
X79.567 Y11.413
X79.595 Y11.603
X79.598 Y12.968
X79.584 Y13.053 Z-1.988 F500.
X79.571 Y13.135 Z-1.966
X79.558 Y13.212 Z-1.93
X79.547 Y13.281 Z-1.881
X79.525 Y13.34 Z-1.819
X79.508 Y13.387 Z-1.748
X79.495 Y13.422 Z-1.668
X79.487 Y13.443 Z-1.584
X79.484 Y13.45 Z-1.497
G0 Z15.
X77.869 Y48.321
Z1.54
G1 Z0.27 F500.
X77.876 Y48.319 Z0.128
X77.9 Y48.313 Z-0.013
X77.938 Y48.303 Z-0.149
X77.991 Y48.29 Z-0.281
X78.057 Y48.273 Z-0.406
X78.137 Y48.252 Z-0.522
X78.229 Y48.229 Z-0.628
X78.332 Y48.202 Z-0.723
X78.444 Y48.174 Z-0.805
X78.565 Y48.143 Z-0.874
X78.693 Y48.11 Z-0.929
X78.825 Y48.076 Z-0.968
X78.961 Y48.041 Z-0.992
X79.099 Y48.006 Z-1.
G3 X79.593 Y47.935 I0.574 J2.243
G1 X79.728 F2000.
X79.8 Y47.984
X79.848 Y48.057
X79.864 Y48.142
Y59.729
X79.853 Y60.109
X79.812 Y60.299
X79.738 Y60.489
X79.668 Y60.616
X79.577 Y60.743
X79.461 Y60.87
X79.287 Y61.009
X79.097 Y61.114
X78.906 Y61.181
X78.716 Y61.216
X78.144 Y61.223
X55.286
X54.905 Y61.213
X54.715 Y61.174
X54.524 Y61.103
X54.354 Y61.007
X54.143 Y60.83
X54.002 Y60.66
X53.903 Y60.489
X53.829 Y60.299
X53.788 Y60.109
X53.777 Y59.729
Y11.413
X53.793 Y11.222
X53.838 Y11.032
X53.918 Y10.842
X54.038 Y10.652
X54.143 Y10.531
X54.318 Y10.378
X54.524 Y10.256
X54.715 Y10.185
X54.905 Y10.146
X55.667 Y10.136
X57.306
X57.576 Y10.154
X57.708 Y10.179
X57.838 Y10.217
X58.086 Y10.323
X58.32 Y10.457
X58.541 Y10.612
X58.957 Y10.957
X59.45 Y11.417
X59.824 Y11.807
X60.176 Y12.216
X60.503 Y12.646
X61.3 Y13.808
X62.101 Y14.797
X62.579 Y15.218
X62.846 Y15.391
X63.131 Y15.534
X63.429 Y15.646
X63.737 Y15.725
X64.052 Y15.771
X64.37 Y15.782
X64.688 Y15.759
X65.001 Y15.703
X65.307 Y15.613
X65.601 Y15.491
X65.88 Y15.338
X66.925 Y14.61
X67.695 Y13.596
X68.998 Y11.724
X69.288 Y11.327
X69.59 Y10.982
X69.942 Y10.687
X70.334 Y10.45
X70.759 Y10.277
X71.206 Y10.171
X71.663 Y10.136
X78.525
X78.716 Y10.143
X78.906 Y10.178
X79.03 Y10.217
X79.153 Y10.271
X79.287 Y10.35
X79.446 Y10.475
X79.532 Y10.563
X79.668 Y10.745
X79.746 Y10.889
X79.803 Y11.032
X79.848 Y11.222
X79.864 Y11.413
Y48.142
G3 X79.751 Y48.624 I-1.269 J-0.044 F500.
X77.496 Y48.734 I-1.156 J-0.527 F2000.
G1 X56.252 Y12.041
G3 X56.824 Y10.249 I1.099 J-0.636
X57.306 Y10.136 I0.527 J1.156 F500.
G1 X71.663 F2000.
X71.748 Y10.149 Z-0.992 F500.
X71.83 Y10.162 Z-0.97
X71.907 Y10.175 Z-0.934
X71.977 Y10.186 Z-0.885
X72.035 Y10.208 Z-0.824
X72.082 Y10.226 Z-0.752
X72.117 Y10.239 Z-0.673
X72.138 Y10.246 Z-0.589
X72.146 Y10.249 Z-0.501
G0 Z15.
X15.801 Y45.851
Z12.5
G3 X27.122 Y50.019 Z11.838 I5.661 J2.084 F500.
X15.801 Y45.851 Z11.176 I-5.661 J-2.084
X27.122 Y50.019 Z10.515 I5.661 J2.084
X15.801 Y45.851 Z9.853 I-5.661 J-2.084
X27.122 Y50.019 Z9.191 I5.661 J2.084
X15.801 Y45.851 Z8.529 I-5.661 J-2.084
X27.122 Y50.019 Z7.867 I5.661 J2.084
X15.801 Y45.851 Z7.206 I-5.661 J-2.084
X27.122 Y50.019 Z6.544 I5.661 J2.084
X15.801 Y45.851 Z5.882 I-5.661 J-2.084
X27.122 Y50.019 Z5.22 I5.661 J2.084
X15.801 Y45.851 Z4.558 I-5.661 J-2.084
X27.122 Y50.019 Z3.897 I5.661 J2.084
X15.801 Y45.851 Z3.235 I-5.661 J-2.084
X27.122 Y50.019 Z2.573 I5.661 J2.084
X15.801 Y45.851 Z1.911 I-5.661 J-2.084
X27.122 Y50.019 Z1.249 I5.661 J2.084
X15.801 Y45.851 Z0.587 I-5.661 J-2.084
X27.494 Y47.935 Z0. I5.661 J2.084
X15.429 I-6.032 J0.
X27.494 I6.032 J0.
G1 X27.496 Y48.253 F2000.
X27.532 Y48.57
X27.811 Y49.812
X27.936 Y50.072
X28.012 Y50.277
X28.078 Y50.509
X28.129 Y50.768
X28.162 Y51.053
X28.173 Y51.364
X28.157 Y51.697
X28.112 Y52.051
X28.034 Y52.424
X27.92 Y52.811
X27.767 Y53.209
X27.572 Y53.614
X27.334 Y54.022
X27.052 Y54.427
X26.725 Y54.825
X26.352 Y55.21
X25.935 Y55.576
X25.475 Y55.92
X24.974 Y56.235
X24.433 Y56.516
X23.858 Y56.759
X23.251 Y56.96
X22.616 Y57.115
X21.958 Y57.221
X21.282 Y57.274
X20.594 Y57.273
X19.898 Y57.216
X19.201 Y57.101
X18.507 Y56.93
X17.823 Y56.701
X17.153 Y56.415
X16.504 Y56.073
X15.879 Y55.678
X15.285 Y55.232
X14.726 Y54.737
X14.206 Y54.195
X13.729 Y53.612
X13.298 Y52.99
X12.918 Y52.333
X12.591 Y51.646
X12.32 Y50.933
X12.106 Y50.199
X11.951 Y49.448
X11.857 Y48.687
X11.824 Y47.919
X11.853 Y47.151
X11.944 Y46.386
X12.096 Y45.63
X12.308 Y44.889
X12.58 Y44.166
X12.908 Y43.467
X13.292 Y42.796
X13.729 Y42.158
X14.216 Y41.556
X14.75 Y40.996
X15.327 Y40.48
X15.944 Y40.011
X16.596 Y39.594
X17.28 Y39.231
X17.992 Y38.923
X18.725 Y38.673
X19.477 Y38.483
X20.241 Y38.354
X21.014 Y38.287
X21.789 Y38.282
X22.562 Y38.339
X23.329 Y38.458
X24.083 Y38.639
X24.821 Y38.879
X25.536 Y39.177
X26.226 Y39.532
X26.885 Y39.942
X27.509 Y40.403
X28.094 Y40.912
X28.636 Y41.467
X29.132 Y42.064
X29.578 Y42.698
X30.225 Y43.795
X30.804 Y44.93
X31.305 Y46.083
X31.652 Y47.097
X31.895 Y48.054
X32.049 Y48.96
X32.127 Y49.837
X32.134 Y50.697
X32.073 Y51.542
X31.946 Y52.371
X31.753 Y53.183
X31.496 Y53.977
X31.175 Y54.75
X30.79 Y55.5
X30.342 Y56.224
X29.832 Y56.916
X29.261 Y57.574
X28.632 Y58.191
X27.945 Y58.763
X27.205 Y59.286
X26.416 Y59.753
X25.582 Y60.16
X24.708 Y60.503
X23.799 Y60.777
X22.86 Y60.98
X21.898 Y61.109
X20.918 Y61.16
X19.926 Y61.133
X18.929 Y61.024
X17.935 Y60.834
X16.951 Y60.563
X15.984 Y60.211
X15.041 Y59.779
X14.131 Y59.27
X13.259 Y58.686
X12.433 Y58.03
X11.658 Y57.307
X10.941 Y56.521
X10.287 Y55.676
X9.701 Y54.779
X9.187 Y53.834
X8.749 Y52.849
X8.391 Y51.829
X8.247 Y51.283
X8.193 Y51.035
X8.161 Y50.783
X8.15 Y50.529
Y47.555
X8.213 Y46.283
X8.313 Y45.334
X8.492 Y44.374
X8.752 Y43.414
X9.094 Y42.463
X9.517 Y41.531
X10.018 Y40.626
X10.595 Y39.757
X11.246 Y38.93
X11.966 Y38.152
X12.751 Y37.431
X13.595 Y36.771
X14.494 Y36.179
X15.441 Y35.658
X16.429 Y35.214
X17.453 Y34.85
X18.505 Y34.569
X19.579 Y34.372
X20.666 Y34.262
X21.76 Y34.24
X22.854 Y34.305
X23.94 Y34.459
X25.01 Y34.699
X26.059 Y35.024
X27.079 Y35.433
X28.063 Y35.923
X29.005 Y36.49
X29.898 Y37.131
X30.831 Y37.921
X31.734 Y38.819
X32.566 Y39.784
X33.328 Y40.804
X34.016 Y41.876
X34.413 Y42.605
X34.569 Y42.939
X34.682 Y43.291
X34.75 Y43.653
X34.773 Y44.022
Y52.881
X34.715 Y54.049
X34.615 Y54.812
X34.444 Y55.612
X34.203 Y56.417
X33.882 Y57.241
X33.473 Y58.084
X32.974 Y58.931
X32.389 Y59.763
X31.692 Y60.597
X31.336 Y60.908
X30.936 Y61.158
X30.501 Y61.342
X30.042 Y61.454
X29.571 Y61.491
X14.141
X13.624 Y61.465
X13.088 Y61.395
X12.482 Y61.266
X11.868 Y61.082
X11.185 Y60.816
X10.502 Y60.484
X9.788 Y60.064
X9.41 Y59.798
X9.046 Y59.496
X8.734 Y59.14
X8.483 Y58.74
X8.3 Y58.304
X8.187 Y57.845
X8.15 Y57.373
G3 X8.263 Y56.891 I1.269 J0.044 F500.
X10.072 Y56.328 I1.156 J0.527 F2000.
G1 X14.75 Y59.133
G3 X14.624 Y61.378 I-0.653 J1.089
X14.141 Y61.491 I-0.527 J-1.156 F500.
G1 X9.57 F2000.
X9.348 Y61.486
X9.189 Y61.468
X8.998 Y61.415
X8.808 Y61.327
X8.689 Y61.25
X8.558 Y61.142
X8.427 Y60.996
X8.339 Y60.87
X8.242 Y60.68
X8.182 Y60.489
X8.153 Y60.299
X8.15 Y50.529
Y50.03 F500.
Y48.053 F2000.
Y47.555 F500.
Y40.326 F2000.
X8.178 Y39.757
X8.246 Y39.242
X8.366 Y38.678
X8.547 Y38.076
X8.792 Y37.447
X9.122 Y36.765
X9.517 Y36.094
X10.014 Y35.387
X10.611 Y34.668
X11.28 Y33.983
X12.055 Y33.307
X12.937 Y32.654
X13.917 Y32.044
X14.973 Y31.499
X16.095 Y31.03
X17.287 Y30.641
X18.526 Y30.344
X19.784 Y30.146
X21.053 Y30.045
X22.327 Y30.04
X23.597 Y30.13
X24.857 Y30.312
X26.101 Y30.585
X27.322 Y30.948
X28.513 Y31.399
X29.668 Y31.936
X30.782 Y32.552
X31.853 Y33.242
X32.876 Y34.
X33.864 Y34.837
X34.18 Y35.194
X34.434 Y35.596
X34.621 Y36.035
X34.735 Y36.498
X34.773 Y36.973
Y44.022
G3 X34.66 Y44.504 I-1.269 J-0.044 F500.
X33.312 Y45.233 I-1.156 J-0.527 F2000.
G1 X9.226 Y41.537
G3 X8.263 Y40.808 I0.193 J-1.255
X8.15 Y40.326 I1.156 J-0.527 F500.
G1 Y35.38 F2000.
X8.169 Y34.997
X8.228 Y34.544
X8.33 Y34.067
X8.491 Y33.531
X8.705 Y32.981
X8.997 Y32.379
X9.361 Y31.761
X9.811 Y31.12
X10.37 Y30.447
X10.998 Y29.803
X11.759 Y29.14
X12.638 Y28.489
X13.593 Y27.895
X14.676 Y27.336
X15.851 Y26.845
X17.061 Y26.447
X18.297 Y26.138
X19.551 Y25.917
X20.817 Y25.784
X22.09 Y25.736
X23.363 Y25.768
X24.632 Y25.88
X25.891 Y26.068
X27.136 Y26.335
X28.363 Y26.677
X29.568 Y27.09
X30.746 Y27.572
X31.897 Y28.119
X33.014 Y28.73
X33.4 Y28.975
X33.742 Y29.228
X34.043 Y29.528
X34.299 Y29.867
X34.503 Y30.239
X34.652 Y30.637
X34.743 Y31.052
X34.773 Y31.476
Y36.973
G3 X34.66 Y37.455 I-1.269 J-0.044 F500.
X33.42 Y38.196 I-1.156 J-0.527 F2000.
G1 X9.335 Y36.603
G3 X8.263 Y35.863 I0.084 J-1.267
X8.15 Y35.38 I1.156 J-0.527 F500.
G1 Y30.986 F2000.
X8.17 Y30.574
X8.224 Y30.161
X8.327 Y29.684
X8.474 Y29.191
X8.688 Y28.641
X8.96 Y28.082
X9.322 Y27.466
X9.748 Y26.859
X10.297 Y26.198
X10.918 Y25.562
X11.665 Y24.91
X12.549 Y24.256
X13.542 Y23.638
X14.649 Y23.067
X15.824 Y22.576
X17.032 Y22.175
X18.266 Y21.859
X19.518 Y21.624
X20.781 Y21.466
X22.052 Y21.385
X23.326 Y21.378
X24.598 Y21.444
X25.864 Y21.579
X27.121 Y21.781
X28.367 Y22.046
X29.597 Y22.375
X30.809 Y22.765
X31.999 Y23.219
X33.036 Y23.7
X33.269 Y23.832
X33.64 Y24.08
X33.969 Y24.382
X34.25 Y24.729
X34.475 Y25.115
X34.639 Y25.531
X34.74 Y25.966
X34.773 Y26.411
Y31.476
G3 X34.66 Y31.958 I-1.269 J-0.044 F500.
X33.478 Y32.701 I-1.156 J-0.527 F2000.
G1 X9.393 Y32.212
G3 X8.263 Y31.469 I0.026 J-1.27
X8.15 Y30.986 I1.156 J-0.527 F500.
G1 Y26.63 F2000.
X8.168 Y26.271
X8.221 Y25.865
X8.322 Y25.39
X8.467 Y24.907
X8.681 Y24.357
X8.95 Y23.804
X9.312 Y23.188
X9.737 Y22.584
X10.284 Y21.925
X10.908 Y21.285
X11.659 Y20.63
X12.55 Y19.971
X13.573 Y19.334
X14.705 Y18.75
X15.879 Y18.257
X17.086 Y17.85
X18.317 Y17.524
X19.566 Y17.276
X20.827 Y17.1
X22.096 Y16.994
X23.369 Y16.956
X24.643 Y16.983
X25.913 Y17.074
X27.177 Y17.226
X28.433 Y17.437
X29.678 Y17.706
X30.908 Y18.036
X32.068 Y18.429
X33.001 Y18.831
X33.197 Y18.935
X33.584 Y19.18
X33.929 Y19.482
X34.223 Y19.833
X34.459 Y20.226
X34.632 Y20.65
X34.738 Y21.096
X34.773 Y21.553
Y26.411
G3 X34.66 Y26.894 I-1.269 J-0.044 F500.
X33.516 Y27.637 I-1.156 J-0.527 F2000.
G1 X9.43 Y27.856
G3 X8.263 Y27.113 I-0.012 J-1.27
X8.15 Y26.63 I1.156 J-0.527 F500.
G1 Y22.445 F2000.
X8.173 Y21.981
X8.226 Y21.577
X8.328 Y21.101
X8.472 Y20.619
X8.686 Y20.069
X8.956 Y19.513
X9.32 Y18.895
X9.749 Y18.284
X10.301 Y17.619
X10.933 Y16.971
X11.696 Y16.306
X12.603 Y15.635
X13.654 Y14.981
X14.786 Y14.397
X15.958 Y13.9
X17.163 Y13.487
X18.391 Y13.15
X19.637 Y12.887
X20.896 Y12.693
X22.163 Y12.565
X23.435 Y12.5
X24.708 Y12.495
X25.981 Y12.549
X27.249 Y12.661
X28.511 Y12.832
X29.763 Y13.064
X31.001 Y13.364
X32.073 Y13.705
X32.96 Y14.068
X33.149 Y14.164
X33.547 Y14.407
X33.902 Y14.709
X34.205 Y15.063
X34.449 Y15.46
X34.628 Y15.89
X34.737 Y16.343
X34.773 Y16.807
Y21.553
G3 X34.66 Y22.036 I-1.269 J-0.044 F500.
X33.551 Y22.778 I-1.156 J-0.527 F2000.
G1 X9.466 Y23.67
G3 X8.263 Y22.928 I-0.047 J-1.269
X8.15 Y22.445 I1.156 J-0.527 F500.
G1 Y18.261 F2000.
X8.179 Y17.682
X8.232 Y17.275
X8.334 Y16.799
X8.48 Y16.311
X8.694 Y15.761
X8.969 Y15.194
X9.333 Y14.577
X9.77 Y13.955
X10.329 Y13.281
X10.972 Y12.622
X11.749 Y11.944
X12.675 Y11.259
X13.753 Y10.588
X14.51 Y10.197
X14.944 Y10.016
X15.4 Y9.905
X15.869 Y9.868
X30.142
X31.208 Y9.921
X31.888 Y10.01
X32.516 Y10.145
X33.138 Y10.331
X33.532 Y10.525
X33.887 Y10.783
X34.194 Y11.098
X34.442 Y11.461
X34.624 Y11.86
X34.736 Y12.285
X34.773 Y12.723
G3 X34.66 Y13.205 I-1.269 J-0.044 F500.
X32.969 Y13.83 I-1.156 J-0.527 F2000.
G1 X29.651 Y12.289
G3 X29.66 Y9.981 I0.535 J-1.152
X30.142 Y9.868 I0.527 J1.156 F500.
G1 X33.571 Y9.871 F2000.
X33.727 Y9.891
X33.84 Y9.918
X33.952 Y9.957
X34.142 Y10.051
X34.333 Y10.189
X34.42 Y10.271
X34.502 Y10.367
X34.57 Y10.462
X34.671 Y10.652
X34.714 Y10.766
X34.748 Y10.899
X34.768 Y11.032
X34.773 Y14.837
Y16.807
G3 X34.66 Y17.29 I-1.269 J-0.044 F500.
X33.581 Y18.031 I-1.156 J-0.527 F2000.
G1 X9.495 Y19.484
G3 X8.263 Y18.743 I-0.076 J-1.268
X8.15 Y18.261 I1.156 J-0.527 F500.
G1 Y13.695 F2000.
X8.166 Y13.374
X8.22 Y12.962
X8.322 Y12.484
X8.471 Y11.986
X8.686 Y11.435
X8.911 Y11.052
X9.194 Y10.71
X9.528 Y10.417
X9.905 Y10.182
X10.314 Y10.009
X10.746 Y9.903
X11.189 Y9.868
G3 X11.671 Y9.981 I-0.044 J1.269 F500.
X12.192 Y11.856 I-0.527 J1.156 F2000.
G1 X10.466 Y14.37
G3 X8.263 Y14.178 I-1.047 J-0.719
X8.15 Y13.695 I1.156 J-0.527 F500.
G1 X8.155 Y11.032 F2000.
X8.188 Y10.842
X8.252 Y10.652
X8.326 Y10.505
X8.427 Y10.359
X8.503 Y10.271
X8.656 Y10.134
X8.808 Y10.032
X8.998 Y9.944
X9.191 Y9.891
X9.38 Y9.869
X15.869 Y9.868
X15.953 Y9.881 Z0.008 F500.
X16.035 Y9.895 Z0.03
X16.112 Y9.907 Z0.066
X16.182 Y9.918 Z0.115
X16.24 Y9.94 Z0.176
X16.288 Y9.958 Z0.248
X16.323 Y9.971 Z0.327
X16.344 Y9.979 Z0.411
X16.351 Y9.981 Z0.499
G0 Z15.
X34.66 Y52.398
Z1.27
G1 Z0. F500.
G3 X34.773 Y52.881 I-1.156 J0.527
G1 Y59.348 F2000.
X34.761 Y59.605
X34.675 Y59.986
X34.523 Y60.345
X34.31 Y60.671
X34.041 Y60.953
X33.726 Y61.183
X33.375 Y61.352
X32.999 Y61.456
X32.611 Y61.491
G3 X32.119 Y61.414 I0.072 J-2.073 F500.
X30.68 Y58.88 I0.564 J-1.996 F2000.
X34.697 Y58.857 I2.011 J0.541
X34.773 Y59.348 I-2.005 J0.564 F500.
G1 X34.77 Y60.299 F2000.
X34.741 Y60.489
X34.714 Y60.588
X34.66 Y60.729
X34.585 Y60.87
X34.478 Y61.018
X34.333 Y61.167
X34.229 Y61.25
X34.091 Y61.338
X33.952 Y61.402
X33.761 Y61.461
X33.571 Y61.488
X29.571 Y61.491
X29.487 Y61.478 Z0.008 F500.
X29.405 Y61.464 Z0.03
X29.328 Y61.452 Z0.066
X29.258 Y61.441 Z0.115
X29.2 Y61.419 Z0.176
X29.152 Y61.401 Z0.248
X29.117 Y61.388 Z0.327
X29.096 Y61.38 Z0.411
X29.089 Y61.378 Z0.499
G0 Z15.
X26.451 Y51.325
Z2.5
G3 X16.472 Y44.545 Z1.838 I-4.99 J-3.39 F500.
X26.451 Y51.325 Z1.176 I4.99 J3.39
X16.472 Y44.545 Z0.515 I-4.99 J-3.39
X26.451 Y51.325 Z-0.147 I4.99 J3.39
X16.472 Y44.545 Z-0.809 I-4.99 J-3.39
X26.451 Y51.325 Z-1.471 I4.99 J3.39
X16.472 Y44.545 Z-2.133 I-4.99 J-3.39
X26.451 Y51.325 Z-2.794 I4.99 J3.39
X16.472 Y44.545 Z-3.456 I-4.99 J-3.39
X27.494 Y47.935 Z-3.992 I4.99 J3.39
X15.429 I-6.032 J0.
X27.494 I6.032 J0.
G1 X27.496 Y48.253 F2000.
X27.532 Y48.57
X27.811 Y49.812
X27.936 Y50.072
X28.012 Y50.277
X28.078 Y50.509
X28.129 Y50.768
X28.162 Y51.053
X28.173 Y51.364
X28.157 Y51.697
X28.112 Y52.051
X28.034 Y52.424
X27.92 Y52.811
X27.767 Y53.209
X27.572 Y53.614
X27.334 Y54.022
X27.052 Y54.427
X26.725 Y54.825
X26.352 Y55.21
X25.935 Y55.576
X25.475 Y55.92
X24.974 Y56.235
X24.433 Y56.516
X23.858 Y56.759
X23.251 Y56.96
X22.616 Y57.115
X21.958 Y57.221
X21.282 Y57.274
X20.594 Y57.273
X19.898 Y57.216
X19.201 Y57.101
X18.507 Y56.93
X17.823 Y56.701
X17.153 Y56.415
X16.504 Y56.073
X15.879 Y55.678
X15.285 Y55.232
X14.726 Y54.737
X14.206 Y54.195
X13.729 Y53.612
X13.298 Y52.99
X12.918 Y52.333
X12.591 Y51.646
X12.32 Y50.933
X12.106 Y50.199
X11.951 Y49.448
X11.857 Y48.687
X11.824 Y47.919
X11.853 Y47.151
X11.944 Y46.386
X12.096 Y45.63
X12.308 Y44.889
X12.58 Y44.166
X12.908 Y43.467
X13.292 Y42.796
X13.729 Y42.158
X14.216 Y41.556
X14.75 Y40.996
X15.327 Y40.48
X15.944 Y40.011
X16.596 Y39.594
X17.28 Y39.231
X17.992 Y38.923
X18.725 Y38.673
X19.477 Y38.483
X20.241 Y38.354
X21.014 Y38.287
X21.789 Y38.282
X22.562 Y38.339
X23.329 Y38.458
X24.083 Y38.639
X24.821 Y38.879
X25.536 Y39.177
X26.226 Y39.532
X26.885 Y39.942
X27.509 Y40.403
X28.094 Y40.912
X28.636 Y41.467
X29.132 Y42.064
X29.578 Y42.698
X30.225 Y43.795
X30.804 Y44.93
X31.305 Y46.083
X31.652 Y47.097
X31.895 Y48.054
X32.049 Y48.96
X32.127 Y49.837
X32.134 Y50.697
X32.073 Y51.542
X31.946 Y52.371
X31.753 Y53.183
X31.496 Y53.977
X31.175 Y54.75
X30.79 Y55.5
X30.342 Y56.224
X29.832 Y56.916
X29.261 Y57.574
X28.632 Y58.191
X27.945 Y58.763
X27.205 Y59.286
X26.416 Y59.753
X25.582 Y60.16
X25.437 Y60.217
X25.085 Y60.33
X24.723 Y60.399
X24.355 Y60.422
X19.475
X18.491 Y60.372
X17.69 Y60.267
X16.88 Y60.094
X16.056 Y59.847
X15.226 Y59.524
X14.399 Y59.123
X13.587 Y58.645
X12.799 Y58.091
X12.046 Y57.466
X11.335 Y56.773
X10.674 Y56.015
X10.069 Y55.197
X9.667 Y54.55
X9.474 Y54.186
X9.333 Y53.799
X9.248 Y53.396
X9.219 Y52.985
Y45.272
X9.259 Y44.478
X9.354 Y43.751
X9.512 Y43.015
X9.74 Y42.255
X10.043 Y41.476
X10.424 Y40.692
X10.878 Y39.919
X11.405 Y39.169
X12.003 Y38.448
X12.675 Y37.76
X13.416 Y37.114
X14.221 Y36.518
X15.086 Y35.98
X16.003 Y35.507
X16.964 Y35.105
X17.965 Y34.778
X18.995 Y34.531
X20.049 Y34.366
X21.118 Y34.287
X22.195 Y34.293
X23.271 Y34.386
X24.34 Y34.565
X25.394 Y34.831
X26.426 Y35.181
X27.427 Y35.613
X28.392 Y36.125
X29.315 Y36.714
X30.227 Y37.405
X31.153 Y38.232
X32.031 Y39.153
X32.839 Y40.138
X33.159 Y40.591
X33.393 Y40.982
X33.564 Y41.405
X33.669 Y41.848
X33.704 Y42.303
Y54.783
X33.677 Y55.321
X33.598 Y55.923
X33.458 Y56.578
X33.26 Y57.237
X32.989 Y57.935
X32.635 Y58.663
X32.459 Y58.962
X32.209 Y59.323
X31.908 Y59.643
X31.563 Y59.915
X31.182 Y60.133
X30.772 Y60.292
X30.344 Y60.389
X29.906 Y60.422
G3 X29.423 Y60.308 I0.044 J-1.269 F500.
X28.849 Y58.52 I0.527 J-1.156 F2000.
G1 X31.333 Y54.195
G3 X33.59 Y54.301 I1.101 J0.633
X33.704 Y54.783 I-1.156 J0.527 F500.
G1 Y58.968 F2000.
X33.687 Y59.348
X33.643 Y59.527
X33.559 Y59.729
X33.504 Y59.824
X33.437 Y59.919
X33.356 Y60.014
X33.19 Y60.161
X32.999 Y60.281
X32.809 Y60.36
X32.618 Y60.406
X32.428 Y60.422
X24.355
X23.856 F500.
X19.974 F2000.
X19.475 F500.
X13.38 F2000.
X12.793 Y60.392
X12.309 Y60.329
X11.788 Y60.217
X11.223 Y60.048
X10.917 Y59.929
X10.557 Y59.757
X10.227 Y59.533
X9.934 Y59.262
X9.684 Y58.95
X9.484 Y58.604
X9.338 Y58.233
X9.249 Y57.844
X9.219 Y57.446
G3 X9.333 Y56.964 I1.269 J0.044 F500.
X11.129 Y56.394 I1.156 J0.527 F2000.
G1 X13.976 Y58.056
G3 X13.862 Y60.308 I-0.64 J1.097
X13.38 Y60.422 I-0.527 J-1.156 F500.
G1 X10.713 F2000.
X10.332 Y60.41
X10.141 Y60.369
X9.951 Y60.296
X9.809 Y60.216
X9.667 Y60.109
X9.57 Y60.017
X9.452 Y59.873
X9.364 Y59.729
X9.283 Y59.538
X9.236 Y59.348
X9.219 Y58.968
Y52.985
Y52.486 F500.
Y45.771 F2000.
Y45.272 F500.
Y39.565 F2000.
X9.245 Y39.053
X9.308 Y38.571
X9.413 Y38.08
X9.58 Y37.522
X9.798 Y36.965
X10.095 Y36.352
X10.459 Y35.734
X10.902 Y35.103
X11.447 Y34.445
X12.064 Y33.814
X12.771 Y33.197
X13.585 Y32.594
X14.497 Y32.027
X15.48 Y31.52
X15.818 Y31.378
X16.263 Y31.233
X16.725 Y31.159
X17.193 Y31.158
X17.655 Y31.232
X18.1 Y31.377
X19.094 Y31.779
X19.475 Y31.914
X20.237 Y32.112
X20.999 Y32.215
X21.761 Y32.224
X22.523 Y32.141
X23.285 Y31.964
X24.079 Y31.81
X24.746 Y31.737
X25.51 Y31.714
X26.311 Y31.754
X27.164 Y31.866
X28.097 Y32.066
X29.051 Y32.352
X30.04 Y32.738
X31.088 Y33.247
X32.17 Y33.885
X32.445 Y34.078
X32.808 Y34.38
X33.12 Y34.736
X33.37 Y35.136
X33.554 Y35.572
X33.666 Y36.031
X33.704 Y36.502
Y42.303
G3 X33.59 Y42.785 I-1.269 J-0.044 F500.
X31.523 Y43.143 I-1.156 J-0.527 F2000.
G1 X22.719 Y34.07
G3 X22.843 Y32.189 I0.911 J-0.884
X23.285 Y31.964 I0.787 J0.997 F500.
G1 X23.666 Y31.844 F2000.
X24.809 Y31.384
X25.258 Y31.196
X25.571 Y31.05
X26.015 Y30.815
X26.332 Y30.594
X26.529 Y30.471
X26.848 Y30.305
X27.232 Y30.144
X27.648 Y30.007
X28.153 Y29.885
X28.682 Y29.801
X29.316 Y29.752
X29.964 Y29.754
X30.612 Y29.809
X31.232 Y29.912
X31.836 Y30.062
X32.229 Y30.23
X32.591 Y30.456
X32.913 Y30.735
X33.188 Y31.061
X33.41 Y31.426
X33.572 Y31.821
X33.67 Y32.236
X33.704 Y32.662
Y36.502
G3 X33.59 Y36.984 I-1.269 J-0.044 F500.
X31.581 Y37.398 I-1.156 J-0.527 F2000.
G1 X26.241 Y32.55
G3 X26.002 Y30.963 I0.854 J-0.94
X26.332 Y30.594 I1.093 J0.647 F500.
G1 X26.713 Y30.328 F2000.
X27.094 Y30.001
X27.475 Y29.628
X27.793 Y29.293
X28.106 Y28.913
X28.239 Y28.767
X28.456 Y28.564
X28.699 Y28.371
X28.991 Y28.174
X29.286 Y28.009
X29.616 Y27.857
X29.947 Y27.736
X30.306 Y27.636
X30.666 Y27.567
X31.044 Y27.526
X31.423 Y27.514
X31.809 Y27.534
X32.192 Y27.62
X32.552 Y27.773
X32.879 Y27.988
X33.163 Y28.259
X33.394 Y28.575
X33.564 Y28.928
X33.668 Y29.305
X33.704 Y29.695
Y32.662
G3 X33.59 Y33.144 I-1.269 J-0.044 F500.
X31.594 Y33.569 I-1.156 J-0.527 F2000.
G1 X28.274 Y30.637
G3 X27.887 Y29.358 I0.841 J-0.952
X28.106 Y28.913 I1.227 J0.327 F500.
G1 X29.347 Y27.391 F2000.
X29.614 Y27.011
X29.75 Y26.822
X29.878 Y26.673
X30.037 Y26.515
X30.204 Y26.373
X30.388 Y26.241
X30.597 Y26.114
X30.808 Y26.009
X31.048 Y25.913
X31.294 Y25.836
X31.684 Y25.788
X32.076 Y25.819
X32.453 Y25.926
X32.803 Y26.106
X33.109 Y26.351
X33.361 Y26.652
X33.549 Y26.997
X33.665 Y27.373
X33.704 Y27.763
G3 X33.662 Y28.26 I-5.219 J-0.182 F500.
X33.621 Y28.526 I-5.178 J-0.679 F2000.
X30.947 Y30.243 I-2.141 J-0.394
X29.408 Y27.464 I0.532 J-2.111
X29.614 Y27.011 I2.072 J0.669 F500.
G1 X29.855 Y26.63 F2000.
X30.455 Y25.489
X30.522 Y25.372
X30.602 Y25.258
X30.693 Y25.147
X30.81 Y25.027
X30.933 Y24.919
X31.068 Y24.818
X31.23 Y24.716
X31.552 Y24.589
X31.894 Y24.529
X32.24 Y24.541
X32.577 Y24.622
X32.889 Y24.771
X33.166 Y24.98
X33.393 Y25.241
X33.563 Y25.543
X33.668 Y25.873
X33.704 Y26.217
G3 X33.657 Y26.58 I-1.97 J-0.069 F500.
G1 X33.623 Y26.708
G3 X30.313 Y25.965 I-1.626 J-0.5 F2000.
X30.455 Y25.489 I1.684 J0.243 F500.
G1 X31.069 Y24.284 F2000.
X31.136 Y24.167
X31.214 Y24.057
X31.443 Y23.845
X31.713 Y23.687
X32.01 Y23.593
X32.321 Y23.566
X32.631 Y23.608
X32.924 Y23.716
X33.186 Y23.886
X33.404 Y24.11
X33.568 Y24.376
X33.669 Y24.671
X33.704 Y24.981
G3 X33.589 Y25.463 I-1.25 J-0.044 F500.
G1 X33.559 Y25.523 F2000.
G3 X30.943 Y24.764 I-1.229 J-0.651
X31.069 Y24.284 I1.387 J0.108 F500.
G1 X31.285 Y23.86 F2000.
X31.364 Y23.723
X31.469 Y23.587
X31.567 Y23.487
X31.666 Y23.406
X31.857 Y23.289
X32.068 Y23.206
X32.248 Y23.168
X32.428 Y23.156
X32.602 Y23.169
X32.809 Y23.217
X32.999 Y23.295
X33.19 Y23.415
X33.283 Y23.493
X33.376 Y23.587
X33.488 Y23.73
X33.571 Y23.873
X33.613 Y23.967
X33.672 Y24.157
X33.7 Y24.348
X33.704 Y29.695
G3 X33.59 Y30.178 I-1.269 J-0.044 F500.
X32.955 Y30.809 I-1.156 J-0.527 F2000.
G1 X11.01 Y40.679
G3 X9.333 Y40.048 I-0.521 J-1.158
X9.219 Y39.565 I1.156 J-0.527 F500.
G1 Y35. F2000.
X9.24 Y34.584
X9.294 Y34.176
X9.395 Y33.703
X9.539 Y33.223
X9.751 Y32.678
X10.014 Y32.137
X10.367 Y31.537
X10.766 Y30.969
X11.212 Y30.431
X11.664 Y29.968
X12.157 Y29.538
X12.302 Y29.431
X12.675 Y29.203
X13.081 Y29.046
X13.509 Y28.963
X13.945 Y28.957
X14.375 Y29.029
X14.786 Y29.176
X15.164 Y29.393
X15.498 Y29.674
G3 X15.757 Y30.096 I-0.932 J0.863 F500.
X15.499 Y31.398 I-1.191 J0.44 F2000.
G1 X11.422 Y35.817
G3 X9.333 Y35.482 I-0.933 J-0.861
X9.219 Y35. I1.156 J-0.527 F500.
G1 Y30.815 F2000.
X9.236 Y30.477
X9.279 Y30.15
X9.353 Y29.806
X9.449 Y29.485
X9.58 Y29.147
X9.733 Y28.833
X9.916 Y28.522
X10.126 Y28.223
X10.354 Y27.949
X10.62 Y27.676
X10.938 Y27.405
X11.287 Y27.195
X11.671 Y27.054
X12.074 Y26.988
X12.482 Y27.
X12.881 Y27.089
X13.256 Y27.251
X13.593 Y27.482
X13.881 Y27.772
X15.129 Y29.293
X15.498 Y29.674
G3 X15.757 Y30.096 I-0.932 J0.863 F500.
X14.639 Y31.805 I-1.191 J0.44 F2000.
G1 X10.561 Y32.039
G3 X9.333 Y31.297 I-0.073 J-1.268
X9.219 Y30.815 I1.156 J-0.527 F500.
G1 Y27.943 F2000.
X9.232 Y27.694
X9.257 Y27.504
X9.303 Y27.289
X9.364 Y27.083
X9.444 Y26.879
X9.55 Y26.661
X9.668 Y26.461
X9.811 Y26.257
X9.975 Y26.058
X10.149 Y25.88
X10.445 Y25.67
X10.776 Y25.524
X11.129 Y25.446
X11.491 Y25.439
X11.847 Y25.505
X12.183 Y25.64
X12.486 Y25.839
X12.742 Y26.095
X12.943 Y26.396
G3 X13.153 Y26.849 I-11.088 J5.402 F500.
G1 X13.246 Y27.067 F2000.
G3 X11.997 Y29.848 I-1.934 J0.803
X9.296 Y28.434 I-0.685 J-1.979
X9.219 Y27.943 I2.016 J-0.565 F500.
G1 Y26.041 F2000.
X9.23 Y25.83
X9.248 Y25.696
X9.279 Y25.551
X9.325 Y25.396
X9.382 Y25.25
X9.457 Y25.095
X9.549 Y24.938
X9.765 Y24.69
X10.027 Y24.491
X10.324 Y24.35
X10.644 Y24.272
X10.972 Y24.262
X11.296 Y24.318
X11.602 Y24.44
X11.876 Y24.622
X12.107 Y24.856
X12.286 Y25.132
G3 X12.432 Y25.517 I-2.523 J1.176 F500.
G1 X12.454 Y25.601
G3 X9.312 Y26.529 I-1.595 J0.383 F2000.
X9.219 Y26.041 I1.547 J-0.545 F500.
G1 X9.22 Y24.613 F2000.
X9.228 Y24.478
X9.313 Y24.185
X9.463 Y23.918
X9.668 Y23.691
X9.92 Y23.517
X10.204 Y23.404
X10.506 Y23.358
X10.811 Y23.381
X11.102 Y23.473
X11.366 Y23.628
X11.588 Y23.838
X11.757 Y24.093
G3 X11.866 Y24.576 I-1.053 J0.491 F500.
G1 X11.865 Y24.626 F2000.
G3 X9.326 Y25.097 I-1.322 J-0.048
X9.22 Y24.613 I1.217 J-0.519 F500.
G1 X9.223 Y24.348 F2000.
X9.251 Y24.157
X9.31 Y23.967
X9.405 Y23.777
X9.469 Y23.682
X9.57 Y23.562
X9.665 Y23.47
X9.76 Y23.395
X9.951 Y23.282
X10.148 Y23.206
X10.332 Y23.168
X10.522 Y23.156
X10.713 Y23.174
X10.855 Y23.206
X10.974 Y23.248
X11.094 Y23.303
X11.274 Y23.418
X11.364 Y23.494
X11.475 Y23.61
X11.6 Y23.789
X12.664 Y25.869
X12.866 Y26.25
X12.89 Y26.319 Z-3.987 F500.
X12.915 Y26.387 Z-3.97
X12.938 Y26.451 Z-3.944
X12.959 Y26.512 Z-3.907
X12.974 Y26.573 Z-3.856
X12.987 Y26.626 Z-3.796
X12.997 Y26.669 Z-3.728
X13.004 Y26.7 Z-3.653
X13.009 Y26.719 Z-3.575
X13.01 Y26.726 Z-3.494
G0 Z15.
X10.951 Y46.408
Z-0.45
G1 Z-1.72 F500.
X10.943 Y46.409 Z-1.862
X10.92 Y46.415 Z-2.003
X10.882 Y46.425 Z-2.139
X10.829 Y46.439 Z-2.271
X10.762 Y46.456 Z-2.396
X10.682 Y46.476 Z-2.512
X10.59 Y46.5 Z-2.618
X10.488 Y46.526 Z-2.713
X10.375 Y46.555 Z-2.795
X10.254 Y46.586 Z-2.864
X10.127 Y46.619 Z-2.919
X9.994 Y46.653 Z-2.958
X9.858 Y46.687 Z-2.982
X9.72 Y46.723 Z-2.99
G3 X9.227 Y46.794 I-0.574 J-2.243
G1 X9.092 F2000.
X9.018 Y46.743
X8.968 Y46.668
X8.951 Y46.58
Y23.472
X8.958 Y23.337
X8.983 Y23.204
X9.02 Y23.075
X9.069 Y22.949
X9.129 Y22.828
X9.201 Y22.709
X9.283 Y22.596
X9.377 Y22.485
X9.484 Y22.378
X9.602 Y22.278
X9.729 Y22.186
X9.869 Y22.101
X10.02 Y22.026
X10.18 Y21.961
X10.347 Y21.909
X10.522 Y21.869
X10.7 Y21.844
X10.89 Y21.832
X11.085 Y21.835
X11.379 Y21.869
X11.712 Y21.959
X12.025 Y22.105
X12.308 Y22.302
X12.553 Y22.545
X12.753 Y22.826
G3 X12.932 Y23.919 I-1.131 J0.747 F500.
X8.951 Y23.472 I-1.957 J-0.518
G1 Y22.236 F2000.
X8.958 Y22.101
X8.981 Y21.968
X9.016 Y21.835
X9.065 Y21.697
X9.13 Y21.552
X9.333 Y21.259
X9.594 Y21.017
X9.9 Y20.836
X10.238 Y20.724
X10.592 Y20.687
X10.946 Y20.726
X11.283 Y20.839
X11.588 Y21.022
X11.848 Y21.266
X12.049 Y21.559
G3 X12.188 Y22.035 I-1.267 J0.628 F500.
G1 X12.196 Y22.136 F2000.
Y22.237
G3 X9.044 Y22.724 I-1.622 J-0.057
X8.951 Y22.236 I1.529 J-0.545 F500.
G1 Y21.095 F2000.
X8.958 Y20.948
X8.976 Y20.815
X9.074 Y20.535
X9.232 Y20.285
X9.44 Y20.074
X9.69 Y19.914
X9.968 Y19.813
X10.261 Y19.775
X10.556 Y19.802
X10.838 Y19.892
X11.093 Y20.043
X11.31 Y20.245
X11.476 Y20.49
G3 X11.603 Y20.969 I-1.146 J0.558 F500.
G1 X11.605 Y21.032 F2000.
G3 X9.06 Y21.578 I-1.327 J0.016
X8.951 Y21.095 I1.217 J-0.53 F500.
G1 X8.958 Y20.733 F2000.
X8.993 Y20.543
X9.06 Y20.353
X9.189 Y20.128
X9.27 Y20.026
X9.371 Y19.924
X9.462 Y19.847
X9.57 Y19.772
X9.76 Y19.675
X9.951 Y19.615
X10.141 Y19.586
X10.332
X10.522 Y19.614
X10.713 Y19.674
X10.818 Y19.722
X10.923 Y19.782
X11.094 Y19.914
X11.213 Y20.038
X11.305 Y20.163
X12.319 Y22.065
X12.753 Y22.826
X13.311 Y23.587
X14.903 Y25.528
X15.284 Y25.932
X15.665 Y26.305
X15.856 Y26.475
X16.636 Y27.011
X16.808 Y27.12
X17.57 Y27.484
X19.094 Y28.109
X19.475 Y28.239
X20.237 Y28.437
X20.999 Y28.54
X21.761 Y28.548
X22.523 Y28.465
X23.285 Y28.288
X23.704 Y28.152
X24.047 Y28.024
X25.19 Y27.551
X25.952 Y27.201
X26.332 Y26.972
X26.862 Y26.63
X27.094 Y26.449
X27.475 Y26.102
X27.716 Y25.869
X28.051 Y25.489
X29.606 Y23.587
X30.168 Y22.826
X30.297 Y22.617
X30.381 Y22.494
X30.512 Y22.332
X30.66 Y22.176
X30.82 Y22.033
X30.993 Y21.902
X31.179 Y21.783
X31.376 Y21.678
X31.582 Y21.589
X31.796 Y21.516
X32.145 Y21.465
X32.497 Y21.484
X32.838 Y21.574
X33.154 Y21.73
X33.432 Y21.947
X33.661 Y22.215
X33.831 Y22.524
X33.937 Y22.86
X33.972 Y23.211
G3 X33.906 Y23.884 I-5.397 J-0.188 F500.
X30.07 Y23.264 I-1.918 J-0.31
X30.297 Y22.617 I1.918 J0.31
G1 X30.402 Y22.445 F2000.
X31.074 Y21.189
X31.159 Y21.049
X31.238 Y20.939
X31.335 Y20.828
X31.594 Y20.623
X31.891 Y20.477
X32.211 Y20.398
X32.541 Y20.388
X32.866 Y20.449
X33.17 Y20.577
X33.441 Y20.766
X33.665 Y21.008
X33.833 Y21.293
X33.937 Y21.606
X33.972 Y21.935
G3 X33.873 Y22.421 I-1.507 J-0.053 F500.
G1 X33.842 Y22.496 F2000.
X33.807 Y22.57
G3 X30.927 Y21.664 I-1.363 J-0.699
X31.074 Y21.189 I1.517 J0.208 F500.
G1 X31.424 Y20.543 F2000.
X31.617 Y20.163
X31.74 Y20.001
X31.83 Y19.91
X31.995 Y19.782
X32.047 Y19.75
X32.238 Y19.659
X32.428 Y19.604
X32.618 Y19.579
X32.809 Y19.583
X32.999 Y19.616
X33.19 Y19.681
X33.38 Y19.782
X33.475 Y19.851
X33.571 Y19.935
X33.677 Y20.049
X33.762 Y20.163
X33.866 Y20.353
X33.932 Y20.543
X33.952 Y20.636
X33.97 Y20.78
X33.969 Y59.49
X33.952 Y59.633
X33.931 Y59.729
X33.864 Y59.919
X33.76 Y60.109
X33.677 Y60.221
X33.571 Y60.333
X33.472 Y60.419
X33.373 Y60.489
X33.19 Y60.587
X32.999 Y60.651
X32.809 Y60.684
X30.142 Y60.69
X10.141 Y60.686
X9.951 Y60.657
X9.76 Y60.597
X9.553 Y60.489
X9.371 Y60.35
X9.27 Y60.248
X9.163 Y60.109
X9.059 Y59.919
X8.992 Y59.729
X8.958 Y59.538
X8.951 Y58.968
Y46.58
X8.964 Y46.496 Z-2.982 F500.
X8.978 Y46.414 Z-2.96
X8.99 Y46.337 Z-2.924
X9.001 Y46.267 Z-2.875
X9.023 Y46.209 Z-2.814
X9.041 Y46.162 Z-2.742
X9.054 Y46.127 Z-2.663
X9.062 Y46.105 Z-2.579
X9.064 Y46.098 Z-2.491
G0 Z15.
X10.69 Y47.549
Z0.545
G1 Z-0.725 F500.
X10.682 Y47.551 Z-0.868
X10.659 Y47.557 Z-1.008
X10.621 Y47.567 Z-1.145
X10.568 Y47.58 Z-1.276
X10.502 Y47.597 Z-1.401
X10.422 Y47.618 Z-1.517
X10.33 Y47.641 Z-1.623
X10.227 Y47.667 Z-1.718
X10.114 Y47.696 Z-1.801
X9.994 Y47.727 Z-1.87
X9.866 Y47.76 Z-1.924
X9.734 Y47.794 Z-1.964
X9.598 Y47.829 Z-1.987
X9.46 Y47.864 Z-1.995
G3 X8.966 Y47.935 I-0.574 J-2.243
G1 X8.831 F2000.
X8.754 Y47.883
X8.702 Y47.806
X8.684 Y47.714
Y19.954
X8.691 Y19.819
X8.71 Y19.685
X8.743 Y19.554
X8.787 Y19.427
X8.843 Y19.304
X8.908 Y19.186
X8.988 Y19.068
X9.075 Y18.958
X9.178 Y18.848
X9.29 Y18.746
X9.415 Y18.65
X9.551 Y18.561
X9.692 Y18.485
X9.852 Y18.414
X10.013 Y18.357
X10.188 Y18.312
X10.365 Y18.28
X10.55 Y18.263
X10.734 Y18.26
X10.963 Y18.275
X11.253 Y18.317
X11.601 Y18.398
X11.886 Y18.488
X12.278 Y18.645
X12.642 Y18.858
X12.971 Y19.122
X13.257 Y19.433
X13.494 Y19.782
X13.677 Y20.163
X14.064 Y20.924
X14.315 Y21.304
X14.597 Y21.685
X14.928 Y22.065
X15.302 Y22.445
X15.753 Y22.826
X16.046 Y23.034
X16.427 Y23.283
X16.808 Y23.49
X17.57 Y23.837
X18.82 Y24.348
X19.094 Y24.456
X19.475 Y24.592
X20.237 Y24.79
X20.999 Y24.893
X21.761 Y24.901
X22.523 Y24.818
X23.285 Y24.641
X23.666 Y24.513
X24.428 Y24.219
X25.19 Y23.904
X25.952 Y23.571
X26.332 Y23.384
X26.713 Y23.148
X27.159 Y22.826
X27.475 Y22.576
X27.625 Y22.445
X27.985 Y22.065
X28.328 Y21.685
X28.618 Y21.291
X28.859 Y20.924
X29.246 Y20.163
X29.399 Y19.782
X29.5 Y19.529
X29.623 Y19.28
X29.77 Y19.035
X29.931 Y18.809
X30.113 Y18.594
X30.308 Y18.397
X30.52 Y18.215
X30.744 Y18.052
X30.98 Y17.908
X31.225 Y17.784
X31.482 Y17.679
X31.745 Y17.595
X32.064 Y17.526
X32.425 Y17.507
X32.783 Y17.557
X33.125 Y17.674
X33.439 Y17.854
X33.712 Y18.091
X33.936 Y18.374
X34.102 Y18.695
X34.204 Y19.042
X34.239 Y19.402
X34.238 Y59.729
X34.215 Y59.919
X34.162 Y60.109
X34.078 Y60.294
X33.952 Y60.48
X33.85 Y60.59
X33.757 Y60.671
X33.571 Y60.796
X33.414 Y60.87
X33.302 Y60.908
X33.19 Y60.934
X32.999 Y60.956
X9.951 Y60.957
X9.76 Y60.94
X9.57 Y60.894
X9.346 Y60.796
X9.189 Y60.692
X9.084 Y60.602
X8.979 Y60.489
X8.882 Y60.356
X8.808 Y60.222
X8.761 Y60.109
X8.708 Y59.919
X8.685 Y59.729
X8.684 Y47.714
X8.689 Y47.69 F500.
X8.701 Y47.669
G2 X8.974 Y47.312 I-17.708 J-13.835
X10.834 Y44.384 I-17.981 J-13.478 F2000.
X10.983 Y43.788 I-1.121 J-0.596
G1 Y23.88
G2 X10.834 Y23.284 I-1.27 J0.
X8.974 Y20.356 I-19.841 J10.55
X8.701 Y19.999 I-17.981 J13.478 F500.
G1 X8.689 Y19.978
X8.684 Y19.954
Y18.718 F2000.
X8.691 Y18.583
X8.71 Y18.45
X8.74 Y18.318
X8.783 Y18.182
X8.841 Y18.039
X8.915 Y17.892
X9.007 Y17.742
X9.117 Y17.59
X9.249 Y17.436
X9.409 Y17.277
X9.59 Y17.124
X9.795 Y16.977
X10.035 Y16.833
X10.279 Y16.712
X10.603 Y16.586
X10.981 Y16.509
X11.367 Y16.506
X11.746 Y16.579
X12.103 Y16.725
X12.425 Y16.937
X12.699 Y17.208
X12.916 Y17.527
X13.066 Y17.883
X13.144 Y18.261
X13.161 Y18.411 F500.
X13.169 Y18.525
X13.172 Y18.64
X13.169 Y18.758
G3 X8.757 Y19.211 I-2.242 J-0.118 F2000.
X8.684 Y18.718 I2.171 J-0.571 F500.
G1 Y17.119 F2000.
X8.691 Y16.984
X8.716 Y16.818
X8.754 Y16.655
X8.813 Y16.472
X8.886 Y16.294
X8.972 Y16.124
X9.085 Y15.94
X9.21 Y15.769
X9.35 Y15.607
X9.518 Y15.441
X9.692 Y15.295
X9.887 Y15.156
X10.234 Y14.994
X10.607 Y14.904
X10.99 Y14.89
X11.368 Y14.953
X11.726 Y15.09
X12.049 Y15.296
X12.325 Y15.562
X12.543 Y15.878
X12.693 Y16.231
X12.732 Y16.358
X12.999 Y17.015
X13.03 Y17.119
X13.066 Y17.31
X13.107 Y17.915
X13.144 Y18.261
G3 X13.067 Y18.749 I-1.102 J0.077 F500.
X12.589 Y19.298 I-1.025 J-0.411 F2000.
X8.749 Y17.613 I-1.294 J-2.27
X8.684 Y17.119 I2.546 J-0.585 F500.
G1 Y15.388 F2000.
X8.691 Y15.253
X8.713 Y15.117
X8.751 Y14.958
X8.802 Y14.805
X8.865 Y14.656
X8.951 Y14.489
X9.049 Y14.334
X9.159 Y14.186
X9.297 Y14.028
X9.443 Y13.887
X9.603 Y13.755
X9.79 Y13.624
X10.001 Y13.503
X10.333 Y13.385
X10.682 Y13.341
X11.033 Y13.371
X11.369 Y13.476
X11.675 Y13.649
X11.938 Y13.884
X12.144 Y14.169
X12.285 Y14.492
X12.355 Y14.837
X12.392 Y15.046
X12.404 Y15.152 F500.
G3 X12.399 Y15.543 I-1.857 J0.171
X8.768 Y15.879 I-1.851 J-0.22 F2000.
X8.684 Y15.388 I1.78 J-0.555 F500.
G1 Y13.867 F2000.
X8.691 Y13.724
X8.71 Y13.581
X8.74 Y13.443
X8.782 Y13.303
X8.842 Y13.148
X8.912 Y13.003
X8.996 Y12.862
X9.102 Y12.71
X9.217 Y12.572
X9.344 Y12.442
X9.497 Y12.308
X9.655 Y12.191
X9.824 Y12.086
X10.148 Y11.959
X10.49 Y11.901
X10.838 Y11.914
X11.175 Y11.998
X11.489 Y12.15
X11.764 Y12.362
X11.991 Y12.625
X12.159 Y12.93
X12.261 Y13.262
X12.293 Y13.609
G3 X12.209 Y14.099 I-1.998 J-0.091 F500.
X10.864 Y15.435 I-1.914 J-0.581 F2000.
X8.774 Y14.355 I-0.483 J-1.627
X8.684 Y13.867 I1.607 J-0.548 F500.
G1 Y12.345 F2000.
X8.691 Y12.21
X8.711 Y12.076
X8.742 Y11.945
X8.789 Y11.801
X8.846 Y11.665
X8.917 Y11.527
X9.007 Y11.381
X9.106 Y11.247
X9.222 Y11.113
X9.358 Y10.98
X9.5 Y10.863
X9.835 Y10.664
X10.196 Y10.519
X10.576 Y10.432
X10.964 Y10.404
G3 X11.347 Y11.585 I-0.027 J0.661 F500.
G1 X10.611 Y12.166
X9.756 Y12.841
G3 X8.684 Y12.345 I-0.41 J-0.52
G1 X8.687 Y11.603 F2000.
X8.715 Y11.413
X8.753 Y11.279
X8.808 Y11.145
X8.927 Y10.941
X8.997 Y10.85
X9.093 Y10.749
X9.209 Y10.652
X9.389 Y10.54
X9.57 Y10.465
X9.76 Y10.419
X9.951 Y10.402
X11.094 Y10.405
X11.284 Y10.431
X11.475 Y10.488
X11.623 Y10.557
X11.771 Y10.652
X11.856 Y10.72
X12.005 Y10.876
X12.112 Y11.032
X12.184 Y11.171
X12.237 Y11.309
X12.265 Y11.413
X12.292 Y11.603
X12.3 Y12.174
X12.293 Y13.609
X12.278 Y13.693 Z-1.988 F500.
X12.264 Y13.775 Z-1.966
X12.251 Y13.852 Z-1.93
X12.239 Y13.921 Z-1.881
X12.217 Y13.979 Z-1.819
X12.198 Y14.026 Z-1.748
X12.185 Y14.061 Z-1.668
X12.177 Y14.083 Z-1.584
X12.174 Y14.09 Z-1.497
G0 Z15.
X29.638 Y21.524
Z0.545
G1 Z-0.725 F500.
X29.637 Y21.516 Z-0.868
X29.632 Y21.492 Z-1.008
X29.624 Y21.454 Z-1.145
X29.612 Y21.4 Z-1.276
X29.598 Y21.333 Z-1.401
X29.581 Y21.252 Z-1.517
X29.562 Y21.159 Z-1.623
X29.54 Y21.056 Z-1.718
X29.516 Y20.942 Z-1.801
X29.49 Y20.82 Z-1.87
X29.463 Y20.691 Z-1.924
X29.435 Y20.557 Z-1.964
X29.406 Y20.42 Z-1.987
X29.377 Y20.281 Z-1.995
G3 X29.399 Y19.782 I0.983 J-0.207
G1 X29.529 Y19.402 F2000.
X29.629 Y19.022
X29.761 Y18.433
X29.801 Y18.051
X29.837 Y17.821
X29.878 Y17.65
X29.937 Y17.469
X30.01 Y17.295
X30.105 Y17.111
X30.217 Y16.931
X30.34 Y16.765
X30.493 Y16.59
X30.655 Y16.433
X30.832 Y16.286
X31.034 Y16.143
X31.239 Y16.023
X31.469 Y15.911
X31.709 Y15.818
X31.95 Y15.746
X32.322 Y15.704
X32.694 Y15.736
X33.053 Y15.841
X33.385 Y16.015
X33.676 Y16.25
X33.915 Y16.538
X34.092 Y16.867
X34.202 Y17.225
X34.239 Y17.597
Y19.402
G3 X34.114 Y19.881 I-1.13 J-0.039 F500.
X33.758 Y20.288 I-1.005 J-0.518 F2000.
X29.816 Y18.549 I-1.446 J-2.06
X29.801 Y18.051 I2.496 J-0.321 F500.
G1 X29.848 Y17.5 F2000.
X29.857 Y17.31
X29.893 Y17.119
X30.191 Y16.358
X30.317 Y15.978
X30.377 Y15.769
X30.438 Y15.592
X30.503 Y15.441
X30.579 Y15.3
X30.676 Y15.148
X30.789 Y15.
X30.909 Y14.866
X31.057 Y14.726
X31.217 Y14.597
X31.383 Y14.484
X31.579 Y14.372
X31.786 Y14.276
X32.124 Y14.185
X32.473 Y14.162
X32.82 Y14.205
X33.152 Y14.314
X33.458 Y14.485
X33.725 Y14.711
X33.943 Y14.985
X34.105 Y15.295
X34.205 Y15.63
X34.239 Y15.978
Y17.597
G3 X34.107 Y18.073 I-1.058 J-0.037 F500.
X33.583 Y18.54 I-0.926 J-0.513 F2000.
X30.308 Y16.262 I-0.903 J-2.196
X30.377 Y15.769 I2.373 J0.082 F500.
G1 X30.426 Y15.598 F2000.
X30.568 Y14.837
X30.603 Y14.456
X30.617 Y14.322
X30.648 Y14.19
X30.689 Y14.062
X30.749 Y13.92
X30.818 Y13.786
X30.901 Y13.654
X31.005 Y13.513
X31.117 Y13.385
X31.248 Y13.259
X31.397 Y13.135
X31.55 Y13.028
X31.766 Y12.905
X32.093 Y12.786
X32.437 Y12.735
X32.784 Y12.754
X33.12 Y12.843
X33.432 Y12.997
X33.706 Y13.21
X33.932 Y13.475
X34.1 Y13.779
X34.204 Y14.11
X34.239 Y14.456
G3 X34.16 Y14.947 I-1.999 J-0.07 F500.
X33.962 Y15.404 I-1.92 J-0.561 F2000.
X30.664 Y14.95 I-1.554 J-0.918
X30.603 Y14.456 I1.744 J-0.464 F500.
G1 X30.623 Y14.076 F2000.
X30.631 Y13.695
X30.626 Y13.2
X30.631 Y13.065
X30.649 Y12.931
X30.678 Y12.799
X30.722 Y12.657
X30.778 Y12.519
X30.843 Y12.387
X30.932 Y12.241
X31.03 Y12.104
X31.139 Y11.976
X31.274 Y11.841
X31.416 Y11.72
X31.569 Y11.609
X31.747 Y11.501
X31.927 Y11.411
X32.242 Y11.318
X32.569 Y11.288
X32.895 Y11.322
X33.209 Y11.419
X33.497 Y11.575
X33.75 Y11.784
X33.958 Y12.038
X34.112 Y12.328
X34.207 Y12.642
X34.239 Y12.969
Y15.978
G3 X34.084 Y16.445 I-0.872 J-0.03 F500.
X33. Y16.739 I-0.717 J-0.497 F2000.
X30.679 Y13.695 I1.727 J-3.725
X30.626 Y13.2 I4.049 J-0.681 F500.
G1 X30.624 Y11.793 F2000.
X30.631 Y11.603
X30.659 Y11.413
X30.733 Y11.191
X30.812 Y11.032
X30.904 Y10.9
X31.031 Y10.76
X31.158 Y10.652
X31.285 Y10.569
X31.476 Y10.481
X31.666 Y10.427
X31.857 Y10.404
X32.999 Y10.403
X33.19 Y10.425
X33.38 Y10.476
X33.571 Y10.563
X33.709 Y10.652
X33.83 Y10.754
X33.952 Y10.888
X34.054 Y11.032
X34.149 Y11.222
X34.208 Y11.413
X34.236 Y11.603
X34.239 Y12.969
X34.225 Y13.053 Z-1.988 F500.
X34.212 Y13.135 Z-1.966
X34.199 Y13.212 Z-1.93
X34.188 Y13.282 Z-1.881
X34.166 Y13.34 Z-1.819
X34.149 Y13.388 Z-1.748
X34.136 Y13.423 Z-1.668
X34.128 Y13.444 Z-1.584
X34.125 Y13.451 Z-1.497
G0 Z15.
X32.51 Y48.321
Z1.54
G1 Z0.27 F500.
X32.517 Y48.319 Z0.128
X32.541 Y48.313 Z-0.013
X32.579 Y48.303 Z-0.149
X32.632 Y48.29 Z-0.281
X32.698 Y48.273 Z-0.406
X32.778 Y48.252 Z-0.522
X32.87 Y48.229 Z-0.628
X32.973 Y48.202 Z-0.723
X33.085 Y48.174 Z-0.805
X33.206 Y48.143 Z-0.874
X33.334 Y48.11 Z-0.929
X33.466 Y48.076 Z-0.968
X33.602 Y48.041 Z-0.992
X33.74 Y48.006 Z-1.
G3 X34.234 Y47.935 I0.574 J2.243
G1 X34.369 F2000.
X34.441 Y47.984
X34.489 Y48.057
X34.505 Y48.142
Y59.729
X34.494 Y60.109
X34.453 Y60.299
X34.379 Y60.489
X34.333 Y60.577
X34.233 Y60.723
X34.103 Y60.87
X33.952 Y60.994
X33.761 Y61.104
X33.571 Y61.175
X33.38 Y61.214
X33.19 Y61.223
X9.951
X9.57 Y61.216
X9.379 Y61.181
X9.189 Y61.113
X9.007 Y61.013
X8.808 Y60.854
X8.722 Y60.763
X8.651 Y60.672
X8.544 Y60.489
X8.47 Y60.299
X8.427 Y60.091
X8.418 Y59.348
Y11.413
X8.427 Y11.27
X8.447 Y11.151
X8.479 Y11.032
X8.559 Y10.842
X8.679 Y10.652
X8.808 Y10.508
X8.971 Y10.37
X9.189 Y10.246
X9.379 Y10.178
X9.57 Y10.143
X10.713 Y10.136
X11.971
X12.24 Y10.156
X12.372 Y10.184
X12.501 Y10.224
X12.748 Y10.333
X12.981 Y10.469
X13.201 Y10.625
X13.615 Y10.972
X14.108 Y11.433
X14.481 Y11.823
X14.832 Y12.234
X15.157 Y12.664
X15.953 Y13.827
X16.756 Y14.815
X17.237 Y15.233
X17.505 Y15.404
X17.79 Y15.546
X18.089 Y15.656
X18.397 Y15.734
X18.713 Y15.778
X19.031 Y15.788
X19.348 Y15.764
X19.661 Y15.706
X19.966 Y15.614
X20.26 Y15.491
X20.538 Y15.336
X21.58 Y14.603
X22.349 Y13.588
X23.643 Y11.725
X23.932 Y11.329
X24.234 Y10.983
X24.586 Y10.688
X24.979 Y10.451
X25.404 Y10.277
X25.851 Y10.171
X26.309 Y10.136
X33.19
X33.38 Y10.145
X33.571 Y10.184
X33.683 Y10.222
X33.795 Y10.271
X33.952 Y10.365
X34.099 Y10.485
X34.246 Y10.652
X34.333 Y10.784
X34.396 Y10.908
X34.444 Y11.032
X34.489 Y11.222
X34.505 Y11.413
Y48.142
G3 X34.392 Y48.624 I-1.269 J-0.044 F500.
X32.137 Y48.734 I-1.156 J-0.527 F2000.
G1 X10.916 Y12.041
G3 X11.489 Y10.249 I1.099 J-0.636
X11.971 Y10.136 I0.527 J1.156 F500.
G1 X26.309 F2000.
X26.393 Y10.149 Z-0.992 F500.
X26.475 Y10.162 Z-0.97
X26.552 Y10.175 Z-0.934
X26.622 Y10.186 Z-0.885
X26.68 Y10.208 Z-0.824
X26.727 Y10.226 Z-0.752
X26.762 Y10.239 Z-0.673
X26.784 Y10.246 Z-0.589
X26.791 Y10.249 Z-0.501
G0 Z15.
Z25.

(PARALLEL3)
M5
M1
T26 M6
S5000 M3
G54
M8
G0 X90.609 Y0.
G43 Z25. H26
Z2.
G1 Z0.6 F2000.
G18 G3 X90.009 Z0. I-0.6 K0.
G1 X-0.009
X-0.077 Z0.008
X-0.141 Z0.031
X-0.205 Z0.053
X-0.273 Z0.061
X-0.274
G17 G2 X-1.174 Y0.9 I0. J0.9
G1 Y1.099
G2 X-0.274 Y1.999 I0.9 J0.
G1 X-0.206 Z0.053
X-0.142 Z0.031
X-0.077 Z0.008
X-0.01 Z0.
X90.01
X90.077 Z0.008
X90.142 Z0.031
X90.206 Z0.053
X90.274 Z0.061
G3 X91.174 Y2.899 I0. J0.9
G1 Y3.099
G3 X90.274 Y3.999 I-0.9 J0.
G1 X90.206 Z0.053
X90.142 Z0.031
X90.077 Z0.008
X90.01 Z0.
X-0.01
X-0.077 Z0.008
X-0.142 Z0.031
X-0.206 Z0.053
X-0.274 Z0.061
G2 X-1.174 Y4.899 I0. J0.9
G1 Y5.098
G2 X-0.274 Y5.998 I0.9 J0.
G1 X-0.206 Z0.053
X-0.142 Z0.031
X-0.077 Z0.008
X-0.01 Z0.
X90.01
X90.077 Z0.008
X90.142 Z0.031
X90.206 Z0.053
X90.274 Z0.061
G3 X91.174 Y6.898 I0. J0.9
G1 Y7.098
G3 X90.274 Y7.998 I-0.9 J0.
G1 X90.206 Z0.053
X90.142 Z0.031
X90.077 Z0.008
X90.01 Z0.
X84. Z-0.001
X82.81 Z-4.419
X82.583 Z-5.161
X82.354 Z-5.787
X82.133 Z-6.297
X81.927 Z-6.691
X81.739 Z-6.985
X81.572 Z-7.192
X81.432 Z-7.32
X81.329 Z-7.387
X81.228 Z-7.428
X81.052 Z-7.456
X75.179 Z-7.453
X74.985 Z-6.962
X74.822 Z-6.612
X74.644 Z-6.276
X74.451 Z-5.95
X74.241 Z-5.634
X74.014 Z-5.326
X73.775 Z-5.034
X73.519 Z-4.751
X73.268 Z-4.499
X72.977 Z-4.232
X72.646 Z-3.957
X72.32 Z-3.713
X71.965 Z-3.476
X71.632 Z-3.278
X71.289 Z-3.097
X70.901 Z-2.915
X70.502 Z-2.75
X70.075 Z-2.597
X69.663 Z-2.475
X69.216 Z-2.366
X68.73 Z-2.27
X68.198 Z-2.193
X67.671 Z-2.145
X67.134 Z-2.119
X66.41 Z-2.123
X65.835 Z-2.154
X65.31 Z-2.21
X64.806 Z-2.289
X64.279 Z-2.398
X63.814 Z-2.521
X63.445 Z-2.639
X63.041 Z-2.789
X62.602 Z-2.976
X62.19 Z-3.179
X61.851 Z-3.37
X61.525 Z-3.574
X61.234 Z-3.776
X60.916 Z-4.02
X60.592 Z-4.295
X60.291 Z-4.577
X59.997 Z-4.886
X59.747 Z-5.176
X59.514 Z-5.475
X59.295 Z-5.788
X59.094 Z-6.108
X58.907 Z-6.441
X58.738 Z-6.781
X58.586 Z-7.13
X58.459 Z-7.456
X52.557 Z-7.453
X52.376 Z-7.417
X52.259 Z-7.356
X52.136 Z-7.257
X52.003 Z-7.115
X51.82 Z-6.866
X51.627 Z-6.534
X51.412 Z-6.087
X51.187 Z-5.528
X50.962 Z-4.862
X50.675 Z-3.859
X49.64 Z0.
X38.64 Z-0.004
X37.451 Z-4.422
X37.223 Z-5.162
X36.995 Z-5.788
X36.774 Z-6.298
X36.568 Z-6.692
X36.379 Z-6.986
X36.213 Z-7.193
X36.072 Z-7.32
X35.97 Z-7.388
X35.869 Z-7.429
X35.692 Z-7.456
X29.82 Z-7.452
X29.632 Z-6.976
X29.463 Z-6.613
X29.285 Z-6.276
X29.092 Z-5.951
X28.882 Z-5.634
X28.655 Z-5.327
X28.416 Z-5.034
X28.162 Z-4.753
X27.912 Z-4.501
X27.616 Z-4.229
X27.289 Z-3.958
X26.961 Z-3.713
X26.605 Z-3.476
X26.272 Z-3.277
X25.932 Z-3.098
X25.544 Z-2.916
X25.145 Z-2.751
X24.719 Z-2.598
X24.308 Z-2.476
X23.862 Z-2.367
X23.368 Z-2.27
X22.838 Z-2.192
X22.299 Z-2.144
X21.724 Z-2.118
X21.027 Z-2.124
X20.452 Z-2.156
X19.952 Z-2.21
X19.447 Z-2.289
X18.92 Z-2.398
X18.455 Z-2.521
X18.087 Z-2.638
X17.683 Z-2.788
X17.242 Z-2.977
X16.833 Z-3.178
X16.49 Z-3.37
X16.167 Z-3.573
X15.876 Z-3.775
X15.557 Z-4.02
X15.234 Z-4.294
X14.932 Z-4.578
X14.639 Z-4.884
X14.389 Z-5.175
X14.154 Z-5.476
X13.937 Z-5.786
X13.734 Z-6.109
X13.549 Z-6.439
X13.38 Z-6.779
X13.228 Z-7.127
X13.101 Z-7.456
X7.199 Z-7.453
X7.017 Z-7.417
X6.9 Z-7.356
X6.777 Z-7.257
X6.644 Z-7.115
X6.461 Z-6.866
X6.268 Z-6.534
X6.053 Z-6.087
X5.829 Z-5.529
X5.603 Z-4.863
X5.316 Z-3.86
X4.28 Z0.
X-0.01
X-0.077 Z0.008
X-0.142 Z0.031
X-0.206 Z0.053
X-0.274 Z0.061
G2 X-1.174 Y8.898 I0. J0.9
G1 Y9.097
G2 X-0.274 Y9.997 I0.9 J0.
G1 X-0.206 Z0.053
X-0.142 Z0.031
X-0.077 Z0.008
X-0.01 Z0.
X4.281
X6.56 Z-8.5
X10.873
X10.879 Z-8.481
X10.959 Z-8.119
X11.062 Z-7.736
X11.184 Z-7.36
X11.323 Z-6.992
X11.484 Z-6.625
X11.661 Z-6.27
X11.855 Z-5.925
X12.066 Z-5.589
X12.294 Z-5.264
X12.538 Z-4.951
X12.798 Z-4.65
X13.072 Z-4.362
X13.36 Z-4.089
X13.663 Z-3.829
X14.011 Z-3.56
X14.35 Z-3.326
X14.698 Z-3.111
X15.021 Z-2.931
X15.378 Z-2.754
X15.743 Z-2.596
X16.115 Z-2.456
X16.495 Z-2.334
X16.883 Z-2.23
X17.272 Z-2.147
X17.728 Z-2.074
X18.092 Z-2.033
X18.5 Z-2.006
X24.256 Z-2.002
X24.634 Z-2.018
X25.042 Z-2.054
X25.466 Z-2.114
X25.871 Z-2.192
X26.256 Z-2.285
X26.638 Z-2.398
X27.015 Z-2.531
X27.383 Z-2.681
X27.744 Z-2.85
X28.132 Z-3.057
X28.493 Z-3.274
X28.835 Z-3.505
X29.12 Z-3.717
X29.426 Z-3.968
X29.721 Z-4.236
X30.001 Z-4.517
X30.267 Z-4.811
X30.519 Z-5.12
X30.755 Z-5.44
X30.974 Z-5.77
X31.175 Z-6.111
X31.362 Z-6.464
X31.529 Z-6.823
X31.678 Z-7.191
X31.803 Z-7.549
X31.916 Z-7.932
X32.013 Z-8.332
X32.047 Z-8.5
X36.363
X38.64 Z-0.003
X49.64 Z0.
X52.32 Z-9.999
X56.091 Z-10.
X56.1 Z-9.603
X56.127 Z-9.253
X56.174 Z-8.861
X56.239 Z-8.477
X56.317 Z-8.123
X56.42 Z-7.739
X56.542 Z-7.362
X56.683 Z-6.99
X56.842 Z-6.627
X57.019 Z-6.271
X57.215 Z-5.924
X57.426 Z-5.588
X57.654 Z-5.263
X57.898 Z-4.95
X58.157 Z-4.65
X58.431 Z-4.363
X58.719 Z-4.089
X59.023 Z-3.828
X59.369 Z-3.561
X59.71 Z-3.326
X60.053 Z-3.113
X60.378 Z-2.932
X60.735 Z-2.755
X61.1 Z-2.597
X61.475 Z-2.455
X61.85 Z-2.335
X62.237 Z-2.231
X62.633 Z-2.147
X63.088 Z-2.073
X63.452 Z-2.033
X63.879 Z-2.005
X69.673 Z-2.002
X69.997 Z-2.018
X70.399 Z-2.054
X70.818 Z-2.113
X71.226 Z-2.191
X71.618 Z-2.286
X71.995 Z-2.398
X72.372 Z-2.53
X72.741 Z-2.681
X73.105 Z-2.851
X73.493 Z-3.058
X73.851 Z-3.274
X74.193 Z-3.504
X74.478 Z-3.716
X74.786 Z-3.969
X75.08 Z-4.235
X75.36 Z-4.516
X75.626 Z-4.81
X75.878 Z-5.12
X76.112 Z-5.437
X76.332 Z-5.77
X76.534 Z-6.11
X76.72 Z-6.463
X76.887 Z-6.823
X77.037 Z-7.19
X77.167 Z-7.566
X77.276 Z-7.936
X77.377 Z-8.355
X77.45 Z-8.746
X77.502 Z-9.136
X77.536 Z-9.536
X77.55 Z-10.
X81.321
X84. Z-0.001
X90.01 Z0.
X90.077 Z0.008
X90.142 Z0.031
X90.206 Z0.053
X90.274 Z0.061
G3 X91.174 Y10.897 I0. J0.9
G1 Y11.097
G3 X90.274 Y11.997 I-0.9 J0.
G1 X90.206 Z0.053
X90.142 Z0.031
X90.077 Z0.008
X90.01 Z0.
X84. Z-0.001
X81.321 Z-10.
X77.821
X77.797 Z-9.408
X77.737 Z-8.853
X77.636 Z-8.298
X77.504 Z-7.774
X77.327 Z-7.237
X77.118 Z-6.723
X76.869 Z-6.217
X76.59 Z-5.738
X76.277 Z-5.277
X75.929 Z-4.835
X75.556 Z-4.424
X75.152 Z-4.037
X74.725 Z-3.681
X74.268 Z-3.351
X73.793 Z-3.057
X73.302 Z-2.798
X72.793 Z-2.574
X72.265 Z-2.384
X71.739 Z-2.234
X71.18 Z-2.117
X70.652 Z-2.044
X70.078 Z-2.005
X63.54
X62.959 Z-2.047
X62.404 Z-2.127
X61.861 Z-2.245
X61.322 Z-2.401
X60.795 Z-2.595
X60.286 Z-2.824
X59.795 Z-3.088
X59.326 Z-3.383
X58.873 Z-3.714
X58.445 Z-4.076
X58.045 Z-4.466
X57.675 Z-4.88
X57.332 Z-5.321
X57.021 Z-5.786
X56.744 Z-6.271
X56.502 Z-6.77
X56.294 Z-7.293
X56.124 Z-7.82
X55.991 Z-8.361
X55.896 Z-8.914
X55.84 Z-9.451
X55.819 Z-10.
X52.32 Z-9.999
X49.64 Z0.
X38.64 Z-0.003
X36.363 Z-8.5
X32.962
X32.96 Z-10.
X32.462
X32.441 Z-9.431
X32.379 Z-8.859
X32.28 Z-8.311
X32.144 Z-7.771
X31.967 Z-7.235
X31.758 Z-6.721
X31.512 Z-6.222
X31.23 Z-5.737
X30.917 Z-5.276
X30.573 Z-4.839
X30.196 Z-4.423
X29.792 Z-4.036
X29.365 Z-3.68
X28.913 Z-3.354
X28.44 Z-3.06
X27.942 Z-2.798
X27.432 Z-2.573
X26.912 Z-2.385
X26.375 Z-2.233
X25.838 Z-2.12
X25.289 Z-2.043
X24.728 Z-2.005
X18.182
X17.601 Z-2.047
X17.051 Z-2.126
X16.506 Z-2.243
X15.967 Z-2.4
X15.439 Z-2.594
X14.929 Z-2.823
X14.438 Z-3.087
X13.963 Z-3.386
X13.515 Z-3.713
X13.088 Z-4.075
X12.687 Z-4.464
X12.317 Z-4.879
X11.975 Z-5.32
X11.664 Z-5.784
X11.386 Z-6.269
X11.144 Z-6.768
X10.936 Z-7.29
X10.766 Z-7.817
X10.633 Z-8.356
X10.537 Z-8.906
X10.481 Z-9.437
X10.461 Z-10.
X9.962
Z-8.5
X6.56
X4.28 Z0.
X-0.01
X-0.077 Z0.008
X-0.142 Z0.031
X-0.206 Z0.053
X-0.274 Z0.061
G2 X-1.174 Y12.897 I0. J0.9
G1 Y13.096
G2 X-0.274 Y13.996 I0.9 J0.
G1 X-0.206 Z0.053
X-0.142 Z0.031
X-0.077 Z0.008
X-0.01 Z0.
X4.28
X6.56 Z-8.5
X9.962
Z-10.
X10.461
X10.471 Z-9.628
X10.494 Z-9.299
X10.537 Z-8.912
X10.609 Z-8.477
X10.688 Z-8.116
X10.793 Z-7.727
X10.916 Z-7.346
X11.066 Z-6.954
X11.211 Z-6.623
X11.383 Z-6.274
X11.604 Z-5.883
X11.802 Z-5.57
X12.032 Z-5.243
X12.277 Z-4.928
X12.555 Z-4.606
X12.805 Z-4.346
X13.085 Z-4.077
X13.424 Z-3.787
X13.72 Z-3.559
X14.046 Z-3.331
X14.386 Z-3.118
X14.757 Z-2.911
X15.079 Z-2.752
X15.436 Z-2.595
X15.85 Z-2.44
X16.208 Z-2.326
X16.594 Z-2.223
X16.982 Z-2.14
X17.405 Z-2.071
X17.77 Z-2.032
X18.16 Z-2.006
X24.651 Z-2.002
X24.975 Z-2.018
X25.377 Z-2.054
X25.767 Z-2.109
X26.187 Z-2.189
X26.529 Z-2.274
X26.906 Z-2.384
X27.328 Z-2.532
X27.67 Z-2.673
X28.029 Z-2.841
X28.384 Z-3.029
X28.751 Z-3.248
X29.046 Z-3.446
X29.361 Z-3.678
X29.706 Z-3.96
X29.98 Z-4.211
X30.262 Z-4.493
X30.531 Z-4.791
X30.801 Z-5.122
X31.011 Z-5.41
X31.227 Z-5.732
X31.455 Z-6.119
X31.627 Z-6.447
X31.795 Z-6.809
X31.946 Z-7.18
X32.086 Z-7.583
X32.187 Z-7.929
X32.279 Z-8.306
X32.359 Z-8.736
X32.405 Z-9.069
X32.442 Z-9.44
X32.461 Z-10.
X32.96
X32.962 Z-8.5
X36.363
X38.64 Z-0.003
X49.64 Z0.
X52.32 Z-9.999
X55.82 Z-10.
X55.83 Z-9.631
X55.853 Z-9.3
X55.896 Z-8.913
X55.968 Z-8.477
X56.049 Z-8.109
X56.152 Z-7.727
X56.275 Z-7.346
X56.425 Z-6.954
X56.57 Z-6.623
X56.744 Z-6.271
X56.963 Z-5.883
X57.161 Z-5.57
X57.391 Z-5.243
X57.638 Z-4.925
X57.918 Z-4.602
X58.162 Z-4.347
X58.445 Z-4.077
X58.783 Z-3.787
X59.079 Z-3.559
X59.404 Z-3.332
X59.744 Z-3.118
X60.118 Z-2.91
X60.437 Z-2.753
X60.795 Z-2.595
X61.213 Z-2.438
X61.566 Z-2.326
X61.953 Z-2.223
X62.348 Z-2.138
X62.749 Z-2.074
X63.112 Z-2.033
X63.528 Z-2.006
X69.957 Z-2.002
X70.348 Z-2.019
X70.726 Z-2.053
X71.131 Z-2.11
X71.543 Z-2.189
X71.89 Z-2.274
X72.261 Z-2.383
X72.688 Z-2.533
X73.029 Z-2.673
X73.388 Z-2.842
X73.743 Z-3.029
X74.11 Z-3.249
X74.405 Z-3.446
X74.721 Z-3.678
X75.065 Z-3.961
X75.339 Z-4.211
X75.621 Z-4.493
X75.89 Z-4.792
X76.16 Z-5.122
X76.371 Z-5.41
X76.586 Z-5.733
X76.815 Z-6.119
X76.987 Z-6.448
X77.155 Z-6.809
X77.305 Z-7.181
X77.442 Z-7.575
X77.541 Z-7.914
X77.634 Z-8.29
X77.712 Z-8.697
X77.76 Z-9.036
X77.801 Z-9.439
X77.82 Z-10.
X81.321
X84. Z-0.001
X90.01 Z0.
X90.077 Z0.008
X90.142 Z0.031
X90.206 Z0.053
X90.274 Z0.061
G3 X91.174 Y14.896 I0. J0.9
G1 Y15.095
G3 X90.274 Y15.995 I-0.9 J0.
G1 X90.206 Z0.053
X90.142 Z0.031
X90.077 Z0.008
X90.01 Z0.
X84. Z-0.001
X81.321 Z-10.
X77.335
X77.318 Z-9.512
X77.284 Z-9.127
X77.231 Z-8.743
X77.157 Z-8.359
X77.065 Z-7.98
X76.953 Z-7.604
X76.822 Z-7.235
X76.672 Z-6.872
X76.505 Z-6.518
X76.319 Z-6.173
X76.117 Z-5.838
X75.92 Z-5.544
X75.686 Z-5.229
X75.427 Z-4.915
X75.157 Z-4.619
X74.846 Z-4.314
X74.548 Z-4.052
X74.241 Z-3.807
X73.839 Z-3.511
X73.503 Z-3.284
X73.128 Z-3.06
X72.773 Z-2.872
X72.412 Z-2.703
X72.047 Z-2.554
X71.648 Z-2.414
X71.258 Z-2.296
X70.832 Z-2.192
X70.442 Z-2.118
X70.038 Z-2.061
X69.576 Z-2.019
X69.185 Z-2.002
X64.3 Z-2.006
X63.871 Z-2.035
X63.425 Z-2.084
X63.029 Z-2.148
X62.637 Z-2.232
X62.276 Z-2.327
X61.849 Z-2.462
X61.431 Z-2.618
X61.062 Z-2.779
X60.708 Z-2.954
X60.359 Z-3.149
X60.038 Z-3.35
X59.701 Z-3.582
X59.254 Z-3.92
X58.956 Z-4.169
X58.666 Z-4.437
X58.414 Z-4.694
X58.155 Z-4.983
X57.903 Z-5.296
X57.666 Z-5.623
X57.432 Z-5.986
X57.236 Z-6.328
X57.058 Z-6.679
