(FRAME)
(T1  D=3.075 CR=0. - ZMIN=-18. - FLAT END MILL)
(T2  D=3. CR=0. TAPER=118DEG - ZMIN=-18. - DRILL)
G90 G94 G91.1 G40 G49 G17
G21

(90MM DRILL)
M5
T2 M6
S9700 M3
G54
G0 X555.12 Y1053.696
G43 Z15. H2
Z5.
G98 G81 X555.12 Y1053.696 Z-18. R5. F728.
G80
Z15.

(6.6MM DRILL)
G0 X822. Y1495.901
Z15.
Z5.
G81 X822. Y1495.901 Z-18. R5. F728.
X642.
X462.
X282.
X141. Y1665.901
Y1845.901
Y2025.901
Y2205.901
G80
Z15.

(3.4MM DRILL)
G0 X353.059 Y967.901
Z15.
Z5.
G81 X353.059 Y967.901 Z-18. R5. F728.
X555.118 Y942.901
X757.177 Y967.901
X670.118 Y1178.551
X440.118
X1093.237 Y1158.901
X1043.236 Y1178.551
X1044.236 Y1129.901
X1093.237 Y983.901
X1044.236 Y967.901
X959.236 Y942.901
X1093.237 Y808.901
Y479.951
Y151.
X959.236 Y17.
X555.118
X151.
X17. Y151.
Y479.951
Y808.901
X151. Y942.901
X76. Y967.901
X17. Y983.901
X66. Y1129.901
X67. Y1178.551
X17. Y1158.901
Y1333.901
X238. Y1526.901
X392. Y1585.901
X488. Y1526.901
X554. Y1585.901
X645. Y1526.901
X799. Y1585.901
X1182.253 Y1528.762
Y1574.762
Y1620.762
Y1666.762
X1231.75 Y1684.685
X1182.253 Y1716.762
Y1762.762
X1123.247
Y1716.762
Y1666.762
Y1620.762
Y1574.762
Y1528.762
Y1482.762
Y1436.762
X1182.253
Y1482.762
X1231.75 Y1482.566
X1195.75 Y1376.566
X1093.237 Y1333.901
X1022. Y1376.566
X986. Y1482.566
X895. Y1526.901
X961. Y1585.901
X986. Y1684.685
X961. Y1825.377
X986. Y1914.685
X799. Y1840.377
X554. Y1825.377
X392. Y1840.377
X1231.75 Y1914.685
Y2144.685
X1182.253 Y2133.896
Y2087.896
Y2041.896
Y1995.896
X1123.247
Y2041.896
Y2087.896
Y2133.896
Y2179.896
Y2225.896
X1182.253
Y2179.896
X986. Y2144.685
X961. Y2154.328
X799. Y2139.328
X719.512 Y2207.053
X609.837
X554. Y2154.328
X392. Y2139.328
X312.512 Y2207.053
X202.837
X238. Y2452.803
X343.35 Y2329.928
X392. Y2393.803
X488. Y2452.803
X554. Y2393.803
X645. Y2452.803
X750.35 Y2329.928
X799. Y2393.803
X895. Y2452.803
X1022.
X961. Y2393.803
X986. Y2346.803
X1081.349 Y2306.678
X1050.349
X1027.849 Y2328.803
X1050.349 Y2350.928
X1081.349
X1103.849 Y2328.803
X1113.901
X1136.401 Y2350.928
X1167.401
X1189.901 Y2328.803
X1167.401 Y2306.678
X1136.401
X1231.75 Y2346.803
X1195.75 Y2452.803
G80
Z15.

(2D CONTOUR1)
M5
M1
T1 M6
S18000 M3
G54
G0 X398.54 Y1669.837
G43 Z15. H1
Z5.
G1 Z2. F833.
Z-2.693
G18 G2 X398.848 Z-3. I0.307 K0. F2500.
G1 X399.155
G17 G3 X399.462 Y1670.144 I0. J0.307
G1 Y1711.659
G2 X399.913 Y1712.746 I1.538 J0.
G3 Y1714.814 I-1.034 J1.034
X397.845 I-1.034 J-1.034
G2 X396.757 Y1714.364 I-1.087 J1.087
G1 X387.243
G2 X386.155 Y1714.814 I0. J1.537
G3 X384.087 I-1.034 J-1.034
Y1712.746 I1.034 J-1.034
G2 X384.538 Y1711.659 I-1.087 J-1.087
G1 Y1670.144
G2 X384.087 Y1669.057 I-1.538 J0.
G3 X386.155 Y1666.989 I1.034 J-1.034
G2 X387.243 Y1667.439 I1.087 J-1.087
G1 X396.757
G2 X397.845 Y1666.989 I0. J-1.537
G3 X399.913 Y1669.057 I1.034 J1.034
G2 X399.462 Y1670.144 I1.087 J1.087
G3 X399.155 Y1670.452 I-0.307 J0.
G1 X398.848
G18 G3 X398.54 Z-2.693 I0. K0.307
G1 Y1669.837
Z-5.693 F833.
G2 X398.848 Z-6. I0.307 K0. F2500.
G1 X399.155
G17 G3 X399.462 Y1670.144 I0. J0.307
G1 Y1711.659
G2 X399.913 Y1712.746 I1.538 J0.
G3 Y1714.814 I-1.034 J1.034
X397.845 I-1.034 J-1.034
G2 X396.757 Y1714.364 I-1.087 J1.087
G1 X387.243
G2 X386.155 Y1714.814 I0. J1.537
G3 X384.087 I-1.034 J-1.034
Y1712.746 I1.034 J-1.034
G2 X384.538 Y1711.659 I-1.087 J-1.087
G1 Y1670.144
G2 X384.087 Y1669.057 I-1.538 J0.
G3 X386.155 Y1666.989 I1.034 J-1.034
G2 X387.243 Y1667.439 I1.087 J-1.087
G1 X396.757
G2 X397.845 Y1666.989 I0. J-1.537
G3 X399.913 Y1669.057 I1.034 J1.034
G2 X399.462 Y1670.144 I1.087 J1.087
G3 X399.155 Y1670.452 I-0.307 J0.
G1 X398.848
G18 G3 X398.54 Z-5.693 I0. K0.307
G1 Y1669.837
Z-8.693 F833.
G2 X398.848 Z-9. I0.307 K0. F2500.
G1 X399.155
G17 G3 X399.462 Y1670.144 I0. J0.307
G1 Y1711.659
G2 X399.913 Y1712.746 I1.538 J0.
G3 Y1714.814 I-1.034 J1.034
X397.845 I-1.034 J-1.034
G2 X396.757 Y1714.364 I-1.087 J1.087
G1 X387.243
G2 X386.155 Y1714.814 I0. J1.537
G3 X384.087 I-1.034 J-1.034
Y1712.746 I1.034 J-1.034
G2 X384.538 Y1711.659 I-1.087 J-1.087
G1 Y1670.144
G2 X384.087 Y1669.057 I-1.538 J0.
G3 X386.155 Y1666.989 I1.034 J-1.034
G2 X387.243 Y1667.439 I1.087 J-1.087
G1 X396.757
G2 X397.845 Y1666.989 I0. J-1.537
G3 X399.913 Y1669.057 I1.034 J1.034
G2 X399.462 Y1670.144 I1.087 J1.087
G3 X399.155 Y1670.452 I-0.307 J0.
G1 X398.848
G18 G3 X398.54 Z-8.693 I0. K0.307
G1 Y1669.837
Z-11.693 F833.
G2 X398.848 Z-12. I0.307 K0. F2500.
G1 X399.155
G17 G3 X399.462 Y1670.144 I0. J0.307
G1 Y1711.659
G2 X399.913 Y1712.746 I1.538 J0.
G3 Y1714.814 I-1.034 J1.034
X397.845 I-1.034 J-1.034
G2 X396.757 Y1714.364 I-1.087 J1.087
G1 X387.243
G2 X386.155 Y1714.814 I0. J1.537
G3 X384.087 I-1.034 J-1.034
Y1712.746 I1.034 J-1.034
G2 X384.538 Y1711.659 I-1.087 J-1.087
G1 Y1670.144
G2 X384.087 Y1669.057 I-1.538 J0.
G3 X386.155 Y1666.989 I1.034 J-1.034
G2 X387.243 Y1667.439 I1.087 J-1.087
G1 X396.757
G2 X397.845 Y1666.989 I0. J-1.537
G3 X399.913 Y1669.057 I1.034 J1.034
G2 X399.462 Y1670.144 I1.087 J1.087
G3 X399.155 Y1670.452 I-0.307 J0.
G1 X398.848
G18 G3 X398.54 Z-11.693 I0. K0.307
G1 Y1669.837
Z-14.693 F833.
G2 X398.848 Z-15. I0.307 K0. F2500.
G1 X399.155
G17 G3 X399.462 Y1670.144 I0. J0.307
G1 Y1711.659
G2 X399.913 Y1712.746 I1.538 J0.
G3 Y1714.814 I-1.034 J1.034
X397.845 I-1.034 J-1.034
G2 X396.757 Y1714.364 I-1.087 J1.087
G1 X387.243
G2 X386.155 Y1714.814 I0. J1.537
G3 X384.087 I-1.034 J-1.034
Y1712.746 I1.034 J-1.034
G2 X384.538 Y1711.659 I-1.087 J-1.087
G1 Y1670.144
G2 X384.087 Y1669.057 I-1.538 J0.
G3 X386.155 Y1666.989 I1.034 J-1.034
G2 X387.243 Y1667.439 I1.087 J-1.087
G1 X396.757
G2 X397.845 Y1666.989 I0. J-1.537
G3 X399.913 Y1669.057 I1.034 J1.034
G2 X399.462 Y1670.144 I1.087 J1.087
G3 X399.155 Y1670.452 I-0.307 J0.
G1 X398.848
G18 G3 X398.54 Z-14.693 I0. K0.307
G1 Y1669.837
Z-17.693 F833.
G2 X398.848 Z-18. I0.307 K0. F2500.
G1 X399.155
G17 G3 X399.462 Y1670.144 I0. J0.307
G1 Y1711.659
G2 X399.913 Y1712.746 I1.538 J0.
G3 Y1714.814 I-1.034 J1.034
X397.845 I-1.034 J-1.034
G2 X396.757 Y1714.364 I-1.087 J1.087
G1 X387.243
G2 X386.155 Y1714.814 I0. J1.537
G3 X384.087 I-1.034 J-1.034
Y1712.746 I1.034 J-1.034
G2 X384.538 Y1711.659 I-1.087 J-1.087
G1 Y1670.144
G2 X384.087 Y1669.057 I-1.538 J0.
G3 X386.155 Y1666.989 I1.034 J-1.034
G2 X387.243 Y1667.439 I1.087 J-1.087
G1 X396.757
G2 X397.845 Y1666.989 I0. J-1.537
G3 X399.913 Y1669.057 I1.034 J1.034
G2 X399.462 Y1670.144 I1.087 J1.087
G3 X399.155 Y1670.452 I-0.307 J0.
G1 X398.848
G18 G3 X398.54 Z-17.693 I0. K0.308
G0 Z5.
Y1968.787
G1 Z2. F833.
Z-2.693
G2 X398.848 Z-3. I0.307 K0. F2500.
G1 X399.155
G17 G3 X399.462 Y1969.095 I0. J0.307
G1 Y2010.61
G2 X399.913 Y2011.697 I1.538 J0.
G3 X397.845 Y2013.765 I-1.034 J1.034
G2 X396.757 Y2013.315 I-1.087 J1.087
G1 X387.243
G2 X386.155 Y2013.765 I0. J1.537
G3 X384.087 Y2011.697 I-1.034 J-1.034
G2 X384.538 Y2010.61 I-1.087 J-1.087
G1 Y1969.095
G2 X384.087 Y1968.008 I-1.538 J0.
G3 Y1965.939 I1.034 J-1.034
X386.155 I1.034 J1.034
G2 X387.243 Y1966.39 I1.087 J-1.087
G1 X396.757
G2 X397.845 Y1965.939 I0. J-1.537
G3 X399.913 I1.034 J1.034
Y1968.008 I-1.034 J1.034
G2 X399.462 Y1969.095 I1.087 J1.087
G3 X399.155 Y1969.402 I-0.307 J0.
G1 X398.848
G18 G3 X398.54 Z-2.693 I0. K0.307
G1 Y1968.787
Z-5.693 F833.
G2 X398.848 Z-6. I0.307 K0. F2500.
G1 X399.155
G17 G3 X399.462 Y1969.095 I0. J0.307
G1 Y2010.61
G2 X399.913 Y2011.697 I1.538 J0.
G3 X397.845 Y2013.765 I-1.034 J1.034
G2 X396.757 Y2013.315 I-1.087 J1.087
G1 X387.243
G2 X386.155 Y2013.765 I0. J1.537
G3 X384.087 Y2011.697 I-1.034 J-1.034
G2 X384.538 Y2010.61 I-1.087 J-1.087
G1 Y1969.095
G2 X384.087 Y1968.008 I-1.538 J0.
G3 Y1965.939 I1.034 J-1.034
X386.155 I1.034 J1.034
G2 X387.243 Y1966.39 I1.087 J-1.087
G1 X396.757
G2 X397.845 Y1965.939 I0. J-1.537
G3 X399.913 I1.034 J1.034
Y1968.008 I-1.034 J1.034
G2 X399.462 Y1969.095 I1.087 J1.087
G3 X399.155 Y1969.402 I-0.307 J0.
G1 X398.848
G18 G3 X398.54 Z-5.693 I0. K0.307
G1 Y1968.787
Z-8.693 F833.
G2 X398.848 Z-9. I0.307 K0. F2500.
G1 X399.155
G17 G3 X399.462 Y1969.095 I0. J0.307
G1 Y2010.61
G2 X399.913 Y2011.697 I1.538 J0.
G3 X397.845 Y2013.765 I-1.034 J1.034
G2 X396.757 Y2013.315 I-1.087 J1.087
G1 X387.243
G2 X386.155 Y2013.765 I0. J1.537
G3 X384.087 Y2011.697 I-1.034 J-1.034
G2 X384.538 Y2010.61 I-1.087 J-1.087
G1 Y1969.095
G2 X384.087 Y1968.008 I-1.538 J0.
G3 Y1965.939 I1.034 J-1.034
X386.155 I1.034 J1.034
G2 X387.243 Y1966.39 I1.087 J-1.087
G1 X396.757
G2 X397.845 Y1965.939 I0. J-1.537
G3 X399.913 I1.034 J1.034
Y1968.008 I-1.034 J1.034
G2 X399.462 Y1969.095 I1.087 J1.087
G3 X399.155 Y1969.402 I-0.307 J0.
G1 X398.848
G18 G3 X398.54 Z-8.693 I0. K0.307
G1 Y1968.787
Z-11.693 F833.
G2 X398.848 Z-12. I0.307 K0. F2500.
G1 X399.155
G17 G3 X399.462 Y1969.095 I0. J0.307
G1 Y2010.61
G2 X399.913 Y2011.697 I1.538 J0.
G3 X397.845 Y2013.765 I-1.034 J1.034
G2 X396.757 Y2013.315 I-1.087 J1.087
G1 X387.243
G2 X386.155 Y2013.765 I0. J1.537
G3 X384.087 Y2011.697 I-1.034 J-1.034
G2 X384.538 Y2010.61 I-1.087 J-1.087
G1 Y1969.095
G2 X384.087 Y1968.008 I-1.538 J0.
G3 Y1965.939 I1.034 J-1.034
X386.155 I1.034 J1.034
G2 X387.243 Y1966.39 I1.087 J-1.087
G1 X396.757
G2 X397.845 Y1965.939 I0. J-1.537
G3 X399.913 I1.034 J1.034
Y1968.008 I-1.034 J1.034
G2 X399.462 Y1969.095 I1.087 J1.087
G3 X399.155 Y1969.402 I-0.307 J0.
G1 X398.848
G18 G3 X398.54 Z-11.693 I0. K0.307
G1 Y1968.787
Z-14.693 F833.
G2 X398.848 Z-15. I0.307 K0. F2500.
G1 X399.155
G17 G3 X399.462 Y1969.095 I0. J0.307
G1 Y2010.61
G2 X399.913 Y2011.697 I1.538 J0.
G3 X397.845 Y2013.765 I-1.034 J1.034
G2 X396.757 Y2013.315 I-1.087 J1.087
G1 X387.243
G2 X386.155 Y2013.765 I0. J1.537
G3 X384.087 Y2011.697 I-1.034 J-1.034
G2 X384.538 Y2010.61 I-1.087 J-1.087
G1 Y1969.095
G2 X384.087 Y1968.008 I-1.538 J0.
G3 Y1965.939 I1.034 J-1.034
X386.155 I1.034 J1.034
G2 X387.243 Y1966.39 I1.087 J-1.087
G1 X396.757
G2 X397.845 Y1965.939 I0. J-1.537
G3 X399.913 I1.034 J1.034
Y1968.008 I-1.034 J1.034
G2 X399.462 Y1969.095 I1.087 J1.087
G3 X399.155 Y1969.402 I-0.307 J0.
G1 X398.848
G18 G3 X398.54 Z-14.693 I0. K0.307
G1 Y1968.787
Z-17.693 F833.
G2 X398.848 Z-18. I0.307 K0. F2500.
G1 X399.155
G17 G3 X399.462 Y1969.095 I0. J0.307
G1 Y2010.61
G2 X399.913 Y2011.697 I1.538 J0.
G3 X397.845 Y2013.765 I-1.034 J1.034
G2 X396.757 Y2013.315 I-1.087 J1.087
G1 X387.243
G2 X386.155 Y2013.765 I0. J1.537
G3 X384.087 Y2011.697 I-1.034 J-1.034
G2 X384.538 Y2010.61 I-1.087 J-1.087
G1 Y1969.095
G2 X384.087 Y1968.008 I-1.538 J0.
G3 Y1965.939 I1.034 J-1.034
X386.155 I1.034 J1.034
G2 X387.243 Y1966.39 I1.087 J-1.087
G1 X396.757
G2 X397.845 Y1965.939 I0. J-1.537
G3 X399.913 I1.034 J1.034
Y1968.008 I-1.034 J1.034
G2 X399.462 Y1969.095 I1.087 J1.087
G3 X399.155 Y1969.402 I-0.307 J0.
G1 X398.848
G18 G3 X398.54 Z-17.693 I0. K0.308
G0 Z5.
X270.215 Y2201.988
G1 Z2. F833.
Z-2.693
G2 X270.522 Z-3. I0.307 K0. F2500.
G1 X270.83
G17 G3 X271.138 Y2202.296 I0. J0.308
G1 Y2211.81
G2 X271.588 Y2212.897 I1.537 J0.
G3 X269.52 Y2214.966 I-1.034 J1.034
G2 X268.432 Y2214.515 I-1.087 J1.087
G1 X246.918
G2 X245.83 Y2214.966 I0. J1.538
G3 X243.762 Y2212.897 I-1.034 J-1.034
G2 X244.212 Y2211.81 I-1.087 J-1.087
G1 Y2202.296
G2 X243.762 Y2201.208 I-1.537 J0.
G3 X245.83 Y2199.14 I1.034 J-1.034
G2 X246.918 Y2199.59 I1.087 J-1.087
G1 X268.432
G2 X269.52 Y2199.14 I0. J-1.537
G3 X271.588 Y2201.208 I1.034 J1.034
G2 X271.138 Y2202.296 I1.087 J1.087
G3 X270.83 Y2202.603 I-0.308 J0.
G1 X270.522
G18 G3 X270.215 Z-2.693 I0. K0.307
G1 Y2201.988
Z-5.693 F833.
G2 X270.522 Z-6. I0.307 K0. F2500.
G1 X270.83
G17 G3 X271.138 Y2202.296 I0. J0.308
G1 Y2211.81
G2 X271.588 Y2212.897 I1.537 J0.
G3 X269.52 Y2214.966 I-1.034 J1.034
G2 X268.432 Y2214.515 I-1.087 J1.087
G1 X246.918
G2 X245.83 Y2214.966 I0. J1.538
G3 X243.762 Y2212.897 I-1.034 J-1.034
G2 X244.212 Y2211.81 I-1.087 J-1.087
G1 Y2202.296
G2 X243.762 Y2201.208 I-1.537 J0.
G3 X245.83 Y2199.14 I1.034 J-1.034
G2 X246.918 Y2199.59 I1.087 J-1.087
G1 X268.432
G2 X269.52 Y2199.14 I0. J-1.537
G3 X271.588 Y2201.208 I1.034 J1.034
G2 X271.138 Y2202.296 I1.087 J1.087
G3 X270.83 Y2202.603 I-0.308 J0.
G1 X270.522
G18 G3 X270.215 Z-5.693 I0. K0.307
G1 Y2201.988
Z-8.693 F833.
G2 X270.522 Z-9. I0.307 K0. F2500.
G1 X270.83
G17 G3 X271.138 Y2202.296 I0. J0.308
G1 Y2211.81
G2 X271.588 Y2212.897 I1.537 J0.
G3 X269.52 Y2214.966 I-1.034 J1.034
G2 X268.432 Y2214.515 I-1.087 J1.087
G1 X246.918
G2 X245.83 Y2214.966 I0. J1.538
G3 X243.762 Y2212.897 I-1.034 J-1.034
G2 X244.212 Y2211.81 I-1.087 J-1.087
G1 Y2202.296
G2 X243.762 Y2201.208 I-1.537 J0.
G3 X245.83 Y2199.14 I1.034 J-1.034
G2 X246.918 Y2199.59 I1.087 J-1.087
G1 X268.432
G2 X269.52 Y2199.14 I0. J-1.537
G3 X271.588 Y2201.208 I1.034 J1.034
G2 X271.138 Y2202.296 I1.087 J1.087
G3 X270.83 Y2202.603 I-0.308 J0.
G1 X270.522
G18 G3 X270.215 Z-8.693 I0. K0.307
G1 Y2201.988
Z-11.693 F833.
G2 X270.522 Z-12. I0.307 K0. F2500.
G1 X270.83
G17 G3 X271.138 Y2202.296 I0. J0.308
G1 Y2211.81
G2 X271.588 Y2212.897 I1.537 J0.
G3 X269.52 Y2214.966 I-1.034 J1.034
G2 X268.432 Y2214.515 I-1.087 J1.087
G1 X246.918
G2 X245.83 Y2214.966 I0. J1.538
G3 X243.762 Y2212.897 I-1.034 J-1.034
G2 X244.212 Y2211.81 I-1.087 J-1.087
G1 Y2202.296
G2 X243.762 Y2201.208 I-1.537 J0.
G3 X245.83 Y2199.14 I1.034 J-1.034
G2 X246.918 Y2199.59 I1.087 J-1.087
G1 X268.432
G2 X269.52 Y2199.14 I0. J-1.537
G3 X271.588 Y2201.208 I1.034 J1.034
G2 X271.138 Y2202.296 I1.087 J1.087
G3 X270.83 Y2202.603 I-0.308 J0.
G1 X270.522
G18 G3 X270.215 Z-11.693 I0. K0.307
G1 Y2201.988
Z-14.693 F833.
G2 X270.522 Z-15. I0.307 K0. F2500.
G1 X270.83
G17 G3 X271.138 Y2202.296 I0. J0.308
G1 Y2211.81
G2 X271.588 Y2212.897 I1.537 J0.
G3 X269.52 Y2214.966 I-1.034 J1.034
G2 X268.432 Y2214.515 I-1.087 J1.087
G1 X246.918
G2 X245.83 Y2214.966 I0. J1.538
G3 X243.762 Y2212.897 I-1.034 J-1.034
G2 X244.212 Y2211.81 I-1.087 J-1.087
G1 Y2202.296
G2 X243.762 Y2201.208 I-1.537 J0.
G3 X245.83 Y2199.14 I1.034 J-1.034
G2 X246.918 Y2199.59 I1.087 J-1.087
G1 X268.432
G2 X269.52 Y2199.14 I0. J-1.537
G3 X271.588 Y2201.208 I1.034 J1.034
G2 X271.138 Y2202.296 I1.087 J1.087
G3 X270.83 Y2202.603 I-0.308 J0.
G1 X270.522
G18 G3 X270.215 Z-14.693 I0. K0.307
G1 Y2201.988
Z-17.693 F833.
G2 X270.522 Z-18. I0.307 K0. F2500.
G1 X270.83
G17 G3 X271.138 Y2202.296 I0. J0.308
G1 Y2211.81
G2 X271.588 Y2212.897 I1.537 J0.
G3 X269.52 Y2214.966 I-1.034 J1.034
G2 X268.432 Y2214.515 I-1.087 J1.087
G1 X246.918
G2 X245.83 Y2214.966 I0. J1.538
G3 X243.762 Y2212.897 I-1.034 J-1.034
G2 X244.212 Y2211.81 I-1.087 J-1.087
G1 Y2202.296
G2 X243.762 Y2201.208 I-1.537 J0.
G3 X245.83 Y2199.14 I1.034 J-1.034
G2 X246.918 Y2199.59 I1.087 J-1.087
G1 X268.432
G2 X269.52 Y2199.14 I0. J-1.537
G3 X271.588 Y2201.208 I1.034 J1.034
G2 X271.138 Y2202.296 I1.087 J1.087
G3 X270.83 Y2202.603 I-0.308 J0.
G1 X270.522
G18 G3 X270.215 Z-17.693 I0. K0.308
G0 Z5.
X349.89 Y2236.745
G1 Z2. F833.
Z-2.693
G2 X350.198 Z-3. I0.307 K0. F2500.
G1 X350.505
G17 G3 X350.813 Y2237.053 I0. J0.308
G1 Y2253.81
G2 X351.263 Y2254.897 I1.538 J0.
G3 X349.195 Y2256.966 I-1.034 J1.034
G2 X348.107 Y2256.515 I-1.087 J1.087
G1 X338.593
G2 X337.505 Y2256.966 I0. J1.538
G3 X335.437 Y2254.897 I-1.034 J-1.034
G2 X335.888 Y2253.81 I-1.087 J-1.087
G1 Y2232.296
G2 X335.437 Y2231.208 I-1.538 J0.
G3 X337.505 Y2229.14 I1.034 J-1.034
G2 X338.593 Y2229.59 I1.087 J-1.087
G1 X348.107
G2 X349.195 Y2229.14 I0. J-1.537
G3 X351.263 Y2231.208 I1.034 J1.034
G2 X350.813 Y2232.296 I1.087 J1.087
G1 Y2237.053
G3 X350.505 Y2237.36 I-0.307 J0.
G1 X350.198
G18 G3 X349.89 Z-2.693 I0. K0.307
G1 Y2231.988
Z-5.693 F833.
G2 X350.198 Z-6. I0.307 K0. F2500.
G1 X350.505
G17 G3 X350.813 Y2232.296 I0. J0.308
G1 Y2253.81
G2 X351.263 Y2254.897 I1.538 J0.
G3 X349.195 Y2256.966 I-1.034 J1.034
G2 X348.107 Y2256.515 I-1.087 J1.087
G1 X338.593
G2 X337.505 Y2256.966 I0. J1.538
G3 X335.437 Y2254.897 I-1.034 J-1.034
G2 X335.888 Y2253.81 I-1.087 J-1.087
G1 Y2232.296
G2 X335.437 Y2231.208 I-1.538 J0.
G3 X337.505 Y2229.14 I1.034 J-1.034
G2 X338.593 Y2229.59 I1.087 J-1.087
G1 X348.107
G2 X349.195 Y2229.14 I0. J-1.537
G3 X351.263 Y2231.208 I1.034 J1.034
G2 X350.813 Y2232.296 I1.087 J1.087
G3 X350.505 Y2232.603 I-0.307 J0.
G1 X350.198
G18 G3 X349.89 Z-5.693 I0. K0.307
G1 Y2231.988
Z-8.693 F833.
G2 X350.198 Z-9. I0.307 K0. F2500.
G1 X350.505
G17 G3 X350.813 Y2232.296 I0. J0.308
G1 Y2253.81
G2 X351.263 Y2254.897 I1.538 J0.
G3 X349.195 Y2256.966 I-1.034 J1.034
G2 X348.107 Y2256.515 I-1.087 J1.087
G1 X338.593
G2 X337.505 Y2256.966 I0. J1.538
G3 X335.437 Y2254.897 I-1.034 J-1.034
G2 X335.888 Y2253.81 I-1.087 J-1.087
G1 Y2232.296
G2 X335.437 Y2231.208 I-1.538 J0.
G3 X337.505 Y2229.14 I1.034 J-1.034
G2 X338.593 Y2229.59 I1.087 J-1.087
G1 X348.107
G2 X349.195 Y2229.14 I0. J-1.537
G3 X351.263 Y2231.208 I1.034 J1.034
G2 X350.813 Y2232.296 I1.087 J1.087
G3 X350.505 Y2232.603 I-0.307 J0.
G1 X350.198
G18 G3 X349.89 Z-8.693 I0. K0.307
G1 Y2231.988
Z-11.693 F833.
G2 X350.198 Z-12. I0.307 K0. F2500.
G1 X350.505
G17 G3 X350.813 Y2232.296 I0. J0.308
G1 Y2253.81
G2 X351.263 Y2254.897 I1.538 J0.
G3 X349.195 Y2256.966 I-1.034 J1.034
G2 X348.107 Y2256.515 I-1.087 J1.087
G1 X338.593
G2 X337.505 Y2256.966 I0. J1.538
G3 X335.437 Y2254.897 I-1.034 J-1.034
G2 X335.888 Y2253.81 I-1.087 J-1.087
G1 Y2232.296
G2 X335.437 Y2231.208 I-1.538 J0.
G3 X337.505 Y2229.14 I1.034 J-1.034
G2 X338.593 Y2229.59 I1.087 J-1.087
G1 X348.107
G2 X349.195 Y2229.14 I0. J-1.537
G3 X351.263 Y2231.208 I1.034 J1.034
G2 X350.813 Y2232.296 I1.087 J1.087
G3 X350.505 Y2232.603 I-0.307 J0.
G1 X350.198
G18 G3 X349.89 Z-11.693 I0. K0.307
G1 Y2231.988
Z-14.693 F833.
G2 X350.198 Z-15. I0.307 K0. F2500.
G1 X350.505
G17 G3 X350.813 Y2232.296 I0. J0.308
G1 Y2253.81
G2 X351.263 Y2254.897 I1.538 J0.
G3 X349.195 Y2256.966 I-1.034 J1.034
G2 X348.107 Y2256.515 I-1.087 J1.087
G1 X338.593
G2 X337.505 Y2256.966 I0. J1.538
G3 X335.437 Y2254.897 I-1.034 J-1.034
G2 X335.888 Y2253.81 I-1.087 J-1.087
G1 Y2232.296
G2 X335.437 Y2231.208 I-1.538 J0.
G3 X337.505 Y2229.14 I1.034 J-1.034
G2 X338.593 Y2229.59 I1.087 J-1.087
G1 X348.107
G2 X349.195 Y2229.14 I0. J-1.537
G3 X351.263 Y2231.208 I1.034 J1.034
G2 X350.813 Y2232.296 I1.087 J1.087
G3 X350.505 Y2232.603 I-0.307 J0.
G1 X350.198
G18 G3 X349.89 Z-14.693 I0. K0.307
G1 Y2231.988
Z-17.693 F833.
G2 X350.198 Z-18. I0.307 K0. F2500.
G1 X350.505
G17 G3 X350.813 Y2232.296 I0. J0.308
G1 Y2253.81
G2 X351.263 Y2254.897 I1.538 J0.
G3 X349.195 Y2256.966 I-1.034 J1.034
G2 X348.107 Y2256.515 I-1.087 J1.087
G1 X338.593
G2 X337.505 Y2256.966 I0. J1.538
G3 X335.437 Y2254.897 I-1.034 J-1.034
G2 X335.888 Y2253.81 I-1.087 J-1.087
G1 Y2232.296
G2 X335.437 Y2231.208 I-1.538 J0.
G3 X337.505 Y2229.14 I1.034 J-1.034
G2 X338.593 Y2229.59 I1.087 J-1.087
G1 X348.107
G2 X349.195 Y2229.14 I0. J-1.537
G3 X351.263 Y2231.208 I1.034 J1.034
G2 X350.813 Y2232.296 I1.087 J1.087
G3 X350.505 Y2232.603 I-0.307 J0.
G1 X350.198
G18 G3 X349.89 Z-17.693 I0. K0.308
G0 Z5.
X398.54 Y2272.495
G1 Z2. F833.
Z-2.693
G2 X398.848 Z-3. I0.307 K0. F2500.
G1 X399.155
G17 G3 X399.462 Y2272.803 I0. J0.308
G1 Y2309.56
G2 X399.913 Y2310.647 I1.538 J0.
G3 Y2312.716 I-1.034 J1.034
X397.845 I-1.034 J-1.034
G2 X396.757 Y2312.265 I-1.087 J1.087
G1 X387.243
G2 X386.155 Y2312.716 I0. J1.538
G3 X384.087 I-1.034 J-1.034
Y2310.647 I1.034 J-1.034
G2 X384.538 Y2309.56 I-1.087 J-1.087
G1 Y2268.046
G2 X384.087 Y2266.958 I-1.538 J0.
G3 Y2264.89 I1.034 J-1.034
X386.155 I1.034 J1.034
G2 X387.243 Y2265.34 I1.087 J-1.087
G1 X396.757
G2 X397.845 Y2264.89 I0. J-1.537
G3 X399.913 I1.034 J1.034
Y2266.958 I-1.034 J1.034
G2 X399.462 Y2268.046 I1.087 J1.087
G1 Y2272.803
G3 X399.155 Y2273.11 I-0.307 J0.
G1 X398.848
G18 G3 X398.54 Z-2.693 I0. K0.307
G1 Y2272.495
Z-5.693 F833.
G2 X398.848 Z-6. I0.307 K0. F2500.
G1 X399.155
G17 G3 X399.462 Y2272.803 I0. J0.308
G1 Y2309.56
G2 X399.913 Y2310.647 I1.538 J0.
G3 Y2312.716 I-1.034 J1.034
X397.845 I-1.034 J-1.034
G2 X396.757 Y2312.265 I-1.087 J1.087
G1 X387.243
G2 X386.155 Y2312.716 I0. J1.538
G3 X384.087 I-1.034 J-1.034
Y2310.647 I1.034 J-1.034
G2 X384.538 Y2309.56 I-1.087 J-1.087
G1 Y2268.046
G2 X384.087 Y2266.958 I-1.538 J0.
G3 Y2264.89 I1.034 J-1.034
X386.155 I1.034 J1.034
G2 X387.243 Y2265.34 I1.087 J-1.087
G1 X396.757
G2 X397.845 Y2264.89 I0. J-1.537
G3 X399.913 I1.034 J1.034
Y2266.958 I-1.034 J1.034
G2 X399.462 Y2268.046 I1.087 J1.087
G1 Y2272.803
G3 X399.155 Y2273.11 I-0.307 J0.
G1 X398.848
G18 G3 X398.54 Z-5.693 I0. K0.307
G1 Y2272.495
Z-8.693 F833.
G2 X398.848 Z-9. I0.307 K0. F2500.
G1 X399.155
G17 G3 X399.462 Y2272.803 I0. J0.308
G1 Y2309.56
G2 X399.913 Y2310.647 I1.538 J0.
G3 Y2312.716 I-1.034 J1.034
X397.845 I-1.034 J-1.034
G2 X396.757 Y2312.265 I-1.087 J1.087
G1 X387.243
G2 X386.155 Y2312.716 I0. J1.538
G3 X384.087 I-1.034 J-1.034
Y2310.647 I1.034 J-1.034
G2 X384.538 Y2309.56 I-1.087 J-1.087
G1 Y2268.046
G2 X384.087 Y2266.958 I-1.538 J0.
G3 Y2264.89 I1.034 J-1.034
X386.155 I1.034 J1.034
G2 X387.243 Y2265.34 I1.087 J-1.087
G1 X396.757
G2 X397.845 Y2264.89 I0. J-1.537
G3 X399.913 I1.034 J1.034
Y2266.958 I-1.034 J1.034
G2 X399.462 Y2268.046 I1.087 J1.087
G1 Y2272.803
G3 X399.155 Y2273.11 I-0.307 J0.
G1 X398.848
G18 G3 X398.54 Z-8.693 I0. K0.307
G1 Y2272.495
Z-11.693 F833.
G2 X398.848 Z-12. I0.307 K0. F2500.
G1 X399.155
G17 G3 X399.462 Y2272.803 I0. J0.308
G1 Y2309.56
G2 X399.913 Y2310.647 I1.538 J0.
G3 Y2312.716 I-1.034 J1.034
X397.845 I-1.034 J-1.034
G2 X396.757 Y2312.265 I-1.087 J1.087
G1 X387.243
G2 X386.155 Y2312.716 I0. J1.538
G3 X384.087 I-1.034 J-1.034
Y2310.647 I1.034 J-1.034
G2 X384.538 Y2309.56 I-1.087 J-1.087
G1 Y2268.046
G2 X384.087 Y2266.958 I-1.538 J0.
G3 Y2264.89 I1.034 J-1.034
X386.155 I1.034 J1.034
G2 X387.243 Y2265.34 I1.087 J-1.087
G1 X396.757
G2 X397.845 Y2264.89 I0. J-1.537
G3 X399.913 I1.034 J1.034
Y2266.958 I-1.034 J1.034
G2 X399.462 Y2268.046 I1.087 J1.087
G1 Y2272.803
G3 X399.155 Y2273.11 I-0.307 J0.
G1 X398.848
G18 G3 X398.54 Z-11.693 I0. K0.307
G1 Y2272.495
Z-14.693 F833.
G2 X398.848 Z-15. I0.307 K0. F2500.
G1 X399.155
G17 G3 X399.462 Y2272.803 I0. J0.308
G1 Y2309.56
G2 X399.913 Y2310.647 I1.538 J0.
G3 Y2312.716 I-1.034 J1.034
X397.845 I-1.034 J-1.034
G2 X396.757 Y2312.265 I-1.087 J1.087
G1 X387.243
G2 X386.155 Y2312.716 I0. J1.538
G3 X384.087 I-1.034 J-1.034
Y2310.647 I1.034 J-1.034
G2 X384.538 Y2309.56 I-1.087 J-1.087
G1 Y2268.046
G2 X384.087 Y2266.958 I-1.538 J0.
G3 Y2264.89 I1.034 J-1.034
X386.155 I1.034 J1.034
G2 X387.243 Y2265.34 I1.087 J-1.087
G1 X396.757
G2 X397.845 Y2264.89 I0. J-1.537
G3 X399.913 I1.034 J1.034
Y2266.958 I-1.034 J1.034
G2 X399.462 Y2268.046 I1.087 J1.087
G1 Y2272.803
G3 X399.155 Y2273.11 I-0.307 J0.
G1 X398.848
G18 G3 X398.54 Z-14.693 I0. K0.307
G1 Y2272.495
Z-17.693 F833.
G2 X398.848 Z-18. I0.307 K0. F2500.
G1 X399.155
G17 G3 X399.462 Y2272.803 I0. J0.308
G1 Y2309.56
G2 X399.913 Y2310.647 I1.538 J0.
G3 Y2312.716 I-1.034 J1.034
X397.845 I-1.034 J-1.034
G2 X396.757 Y2312.265 I-1.087 J1.087
G1 X387.243
G2 X386.155 Y2312.716 I0. J1.538
G3 X384.087 I-1.034 J-1.034
Y2310.647 I1.034 J-1.034
G2 X384.538 Y2309.56 I-1.087 J-1.087
G1 Y2268.046
G2 X384.087 Y2266.958 I-1.538 J0.
G3 Y2264.89 I1.034 J-1.034
X386.155 I1.034 J1.034
G2 X387.243 Y2265.34 I1.087 J-1.087
G1 X396.757
G2 X397.845 Y2264.89 I0. J-1.537
G3 X399.913 I1.034 J1.034
Y2266.958 I-1.034 J1.034
G2 X399.462 Y2268.046 I1.087 J1.087
G1 Y2272.803
G3 X399.155 Y2273.11 I-0.307 J0.
G1 X398.848
G18 G3 X398.54 Z-17.693 I0. K0.308
G0 Z5.
X349.89 Y2422.495
G1 Z2. F833.
Z-2.693
G2 X350.198 Z-3. I0.307 K0. F2500.
G1 X350.505
G17 G3 X350.813 Y2422.803 I0. J0.308
G1 Y2427.56
G2 X351.263 Y2428.647 I1.538 J0.
G3 X349.195 Y2430.716 I-1.034 J1.034
G2 X348.107 Y2430.265 I-1.087 J1.087
G1 X338.593
G2 X337.505 Y2430.716 I0. J1.538
G3 X335.437 Y2428.647 I-1.034 J-1.034
G2 X335.888 Y2427.56 I-1.087 J-1.087
G1 Y2406.046
G2 X335.437 Y2404.958 I-1.538 J0.
G3 X337.505 Y2402.89 I1.034 J-1.034
G2 X338.593 Y2403.34 I1.087 J-1.087
G1 X348.107
G2 X349.195 Y2402.89 I0. J-1.537
G3 X351.263 Y2404.958 I1.034 J1.034
G2 X350.813 Y2406.046 I1.087 J1.087
G1 Y2422.803
G3 X350.505 Y2423.11 I-0.307 J0.
G1 X350.198
G18 G3 X349.89 Z-2.693 I0. K0.307
G1 Y2422.495
Z-5.693 F833.
G2 X350.198 Z-6. I0.307 K0. F2500.
G1 X350.505
G17 G3 X350.813 Y2422.803 I0. J0.308
G1 Y2427.56
G2 X351.263 Y2428.647 I1.538 J0.
G3 X349.195 Y2430.716 I-1.034 J1.034
G2 X348.107 Y2430.265 I-1.087 J1.087
G1 X338.593
G2 X337.505 Y2430.716 I0. J1.538
G3 X335.437 Y2428.647 I-1.034 J-1.034
G2 X335.888 Y2427.56 I-1.087 J-1.087
G1 Y2406.046
G2 X335.437 Y2404.958 I-1.538 J0.
G3 X337.505 Y2402.89 I1.034 J-1.034
G2 X338.593 Y2403.34 I1.087 J-1.087
G1 X348.107
G2 X349.195 Y2402.89 I0. J-1.537
G3 X351.263 Y2404.958 I1.034 J1.034
G2 X350.813 Y2406.046 I1.087 J1.087
G1 Y2422.803
G3 X350.505 Y2423.11 I-0.307 J0.
G1 X350.198
G18 G3 X349.89 Z-5.693 I0. K0.307
G1 Y2422.495
Z-8.693 F833.
G2 X350.198 Z-9. I0.307 K0. F2500.
G1 X350.505
G17 G3 X350.813 Y2422.803 I0. J0.308
G1 Y2427.56
G2 X351.263 Y2428.647 I1.538 J0.
G3 X349.195 Y2430.716 I-1.034 J1.034
G2 X348.107 Y2430.265 I-1.087 J1.087
G1 X338.593
G2 X337.505 Y2430.716 I0. J1.538
G3 X335.437 Y2428.647 I-1.034 J-1.034
G2 X335.888 Y2427.56 I-1.087 J-1.087
G1 Y2406.046
G2 X335.437 Y2404.958 I-1.538 J0.
G3 X337.505 Y2402.89 I1.034 J-1.034
G2 X338.593 Y2403.34 I1.087 J-1.087
G1 X348.107
G2 X349.195 Y2402.89 I0. J-1.537
G3 X351.263 Y2404.958 I1.034 J1.034
G2 X350.813 Y2406.046 I1.087 J1.087
G1 Y2422.803
G3 X350.505 Y2423.11 I-0.307 J0.
G1 X350.198
G18 G3 X349.89 Z-8.693 I0. K0.307
G1 Y2422.495
Z-11.693 F833.
G2 X350.198 Z-12. I0.307 K0. F2500.
G1 X350.505
G17 G3 X350.813 Y2422.803 I0. J0.308
G1 Y2427.56
G2 X351.263 Y2428.647 I1.538 J0.
G3 X349.195 Y2430.716 I-1.034 J1.034
G2 X348.107 Y2430.265 I-1.087 J1.087
G1 X338.593
G2 X337.505 Y2430.716 I0. J1.538
G3 X335.437 Y2428.647 I-1.034 J-1.034
G2 X335.888 Y2427.56 I-1.087 J-1.087
G1 Y2406.046
G2 X335.437 Y2404.958 I-1.538 J0.
G3 X337.505 Y2402.89 I1.034 J-1.034
G2 X338.593 Y2403.34 I1.087 J-1.087
G1 X348.107
G2 X349.195 Y2402.89 I0. J-1.537
G3 X351.263 Y2404.958 I1.034 J1.034
G2 X350.813 Y2406.046 I1.087 J1.087
G1 Y2422.803
G3 X350.505 Y2423.11 I-0.307 J0.
G1 X350.198
G18 G3 X349.89 Z-11.693 I0. K0.307
G1 Y2422.495
Z-14.693 F833.
G2 X350.198 Z-15. I0.307 K0. F2500.
G1 X350.505
G17 G3 X350.813 Y2422.803 I0. J0.308
G1 Y2427.56
G2 X351.263 Y2428.647 I1.538 J0.
G3 X349.195 Y2430.716 I-1.034 J1.034
G2 X348.107 Y2430.265 I-1.087 J1.087
G1 X338.593
G2 X337.505 Y2430.716 I0. J1.538
G3 X335.437 Y2428.647 I-1.034 J-1.034
G2 X335.888 Y2427.56 I-1.087 J-1.087
G1 Y2406.046
G2 X335.437 Y2404.958 I-1.538 J0.
G3 X337.505 Y2402.89 I1.034 J-1.034
G2 X338.593 Y2403.34 I1.087 J-1.087
G1 X348.107
G2 X349.195 Y2402.89 I0. J-1.537
G3 X351.263 Y2404.958 I1.034 J1.034
G2 X350.813 Y2406.046 I1.087 J1.087
G1 Y2422.803
G3 X350.505 Y2423.11 I-0.307 J0.
G1 X350.198
G18 G3 X349.89 Z-14.693 I0. K0.307
G1 Y2422.495
Z-17.693 F833.
G2 X350.198 Z-18. I0.307 K0. F2500.
G1 X350.505
G17 G3 X350.813 Y2422.803 I0. J0.308
G1 Y2427.56
G2 X351.263 Y2428.647 I1.538 J0.
G3 X349.195 Y2430.716 I-1.034 J1.034
G2 X348.107 Y2430.265 I-1.087 J1.087
G1 X338.593
G2 X337.505 Y2430.716 I0. J1.538
G3 X335.437 Y2428.647 I-1.034 J-1.034
G2 X335.888 Y2427.56 I-1.087 J-1.087
G1 Y2406.046
G2 X335.437 Y2404.958 I-1.538 J0.
G3 X337.505 Y2402.89 I1.034 J-1.034
G2 X338.593 Y2403.34 I1.087 J-1.087
G1 X348.107
G2 X349.195 Y2402.89 I0. J-1.537
G3 X351.263 Y2404.958 I1.034 J1.034
G2 X350.813 Y2406.046 I1.087 J1.087
G1 Y2422.803
G3 X350.505 Y2423.11 I-0.307 J0.
G1 X350.198
G18 G3 X349.89 Z-17.693 I0. K0.308
G0 Z5.
X654.225 Y2213.593
G1 Z2. F833.
Z-2.693
G19 G3 Y2213.9 Z-3. J0.307 K0. F2500.
G1 Y2214.208
G17 G3 X653.918 Y2214.515 I-0.307 J0.
G2 X652.83 Y2214.966 I0. J1.538
G3 X650.762 Y2212.897 I-1.034 J-1.034
G2 X651.213 Y2211.81 I-1.087 J-1.087
G1 Y2202.296
G2 X650.762 Y2201.208 I-1.538 J0.
G3 X652.83 Y2199.14 I1.034 J-1.034
G2 X653.918 Y2199.59 I1.087 J-1.087
G1 X675.432
G2 X676.52 Y2199.14 I0. J-1.537
G3 X678.588 Y2201.208 I1.034 J1.034
G2 X678.138 Y2202.296 I1.087 J1.087
G1 Y2211.81
G2 X678.588 Y2212.897 I1.537 J0.
G3 X676.52 Y2214.966 I-1.034 J1.034
G2 X675.432 Y2214.515 I-1.087 J1.087
G1 X653.918
G3 X653.61 Y2214.208 I0. J-0.307
G1 Y2213.9
G19 G2 Y2213.593 Z-2.693 J0. K0.307
G1 X654.225
Z-5.693 F833.
G3 Y2213.9 Z-6. J0.307 K0. F2500.
G1 Y2214.208
G17 G3 X653.918 Y2214.515 I-0.307 J0.
G2 X652.83 Y2214.966 I0. J1.538
G3 X650.762 Y2212.897 I-1.034 J-1.034
G2 X651.213 Y2211.81 I-1.087 J-1.087
G1 Y2202.296
G2 X650.762 Y2201.208 I-1.538 J0.
G3 X652.83 Y2199.14 I1.034 J-1.034
G2 X653.918 Y2199.59 I1.087 J-1.087
G1 X675.432
G2 X676.52 Y2199.14 I0. J-1.537
G3 X678.588 Y2201.208 I1.034 J1.034
G2 X678.138 Y2202.296 I1.087 J1.087
G1 Y2211.81
G2 X678.588 Y2212.897 I1.537 J0.
G3 X676.52 Y2214.966 I-1.034 J1.034
G2 X675.432 Y2214.515 I-1.087 J1.087
G1 X653.918
G3 X653.61 Y2214.208 I0. J-0.307
G1 Y2213.9
G19 G2 Y2213.593 Z-5.693 J0. K0.307
G1 X654.225
Z-8.693 F833.
G3 Y2213.9 Z-9. J0.307 K0. F2500.
G1 Y2214.208
G17 G3 X653.918 Y2214.515 I-0.307 J0.
G2 X652.83 Y2214.966 I0. J1.538
G3 X650.762 Y2212.897 I-1.034 J-1.034
G2 X651.213 Y2211.81 I-1.087 J-1.087
G1 Y2202.296
G2 X650.762 Y2201.208 I-1.538 J0.
G3 X652.83 Y2199.14 I1.034 J-1.034
G2 X653.918 Y2199.59 I1.087 J-1.087
G1 X675.432
G2 X676.52 Y2199.14 I0. J-1.537
G3 X678.588 Y2201.208 I1.034 J1.034
G2 X678.138 Y2202.296 I1.087 J1.087
G1 Y2211.81
G2 X678.588 Y2212.897 I1.537 J0.
G3 X676.52 Y2214.966 I-1.034 J1.034
G2 X675.432 Y2214.515 I-1.087 J1.087
G1 X653.918
G3 X653.61 Y2214.208 I0. J-0.307
G1 Y2213.9
G19 G2 Y2213.593 Z-8.693 J0. K0.307
G1 X654.225
Z-11.693 F833.
G3 Y2213.9 Z-12. J0.307 K0. F2500.
G1 Y2214.208
G17 G3 X653.918 Y2214.515 I-0.307 J0.
G2 X652.83 Y2214.966 I0. J1.538
G3 X650.762 Y2212.897 I-1.034 J-1.034
G2 X651.213 Y2211.81 I-1.087 J-1.087
G1 Y2202.296
G2 X650.762 Y2201.208 I-1.538 J0.
G3 X652.83 Y2199.14 I1.034 J-1.034
G2 X653.918 Y2199.59 I1.087 J-1.087
G1 X675.432
G2 X676.52 Y2199.14 I0. J-1.537
G3 X678.588 Y2201.208 I1.034 J1.034
G2 X678.138 Y2202.296 I1.087 J1.087
G1 Y2211.81
G2 X678.588 Y2212.897 I1.537 J0.
G3 X676.52 Y2214.966 I-1.034 J1.034
G2 X675.432 Y2214.515 I-1.087 J1.087
G1 X653.918
G3 X653.61 Y2214.208 I0. J-0.307
G1 Y2213.9
G19 G2 Y2213.593 Z-11.693 J0. K0.307
G1 X654.225
Z-14.693 F833.
G3 Y2213.9 Z-15. J0.307 K0. F2500.
G1 Y2214.208
G17 G3 X653.918 Y2214.515 I-0.307 J0.
G2 X652.83 Y2214.966 I0. J1.538
G3 X650.762 Y2212.897 I-1.034 J-1.034
G2 X651.213 Y2211.81 I-1.087 J-1.087
G1 Y2202.296
G2 X650.762 Y2201.208 I-1.538 J0.
G3 X652.83 Y2199.14 I1.034 J-1.034
G2 X653.918 Y2199.59 I1.087 J-1.087
G1 X675.432
G2 X676.52 Y2199.14 I0. J-1.537
G3 X678.588 Y2201.208 I1.034 J1.034
G2 X678.138 Y2202.296 I1.087 J1.087
G1 Y2211.81
G2 X678.588 Y2212.897 I1.537 J0.
G3 X676.52 Y2214.966 I-1.034 J1.034
G2 X675.432 Y2214.515 I-1.087 J1.087
G1 X653.918
G3 X653.61 Y2214.208 I0. J-0.307
G1 Y2213.9
G19 G2 Y2213.593 Z-14.693 J0. K0.307
G1 X654.225
Z-17.693 F833.
G3 Y2213.9 Z-18. J0.307 K0. F2500.
G1 Y2214.208
G17 G3 X653.918 Y2214.515 I-0.307 J0.
G2 X652.83 Y2214.966 I0. J1.538
G3 X650.762 Y2212.897 I-1.034 J-1.034
G2 X651.213 Y2211.81 I-1.087 J-1.087
G1 Y2202.296
G2 X650.762 Y2201.208 I-1.538 J0.
G3 X652.83 Y2199.14 I1.034 J-1.034
G2 X653.918 Y2199.59 I1.087 J-1.087
G1 X675.432
G2 X676.52 Y2199.14 I0. J-1.537
G3 X678.588 Y2201.208 I1.034 J1.034
G2 X678.138 Y2202.296 I1.087 J1.087
G1 Y2211.81
G2 X678.588 Y2212.897 I1.537 J0.
G3 X676.52 Y2214.966 I-1.034 J1.034
G2 X675.432 Y2214.515 I-1.087 J1.087
G1 X653.918
G3 X653.61 Y2214.208 I0. J-0.307
G1 Y2213.9
G19 G2 Y2213.593 Z-17.693 J0. K0.308
G0 Z5.
X756.89 Y2248.745
G1 Z2. F833.
Z-2.693
G18 G2 X757.198 Z-3. I0.307 K0. F2500.
G1 X757.505
G17 G3 X757.813 Y2249.053 I0. J0.308
G1 Y2253.81
G2 X758.263 Y2254.897 I1.537 J0.
G3 Y2256.966 I-1.034 J1.034
X756.195 I-1.034 J-1.034
G2 X755.107 Y2256.515 I-1.087 J1.087
G1 X745.593
G2 X744.505 Y2256.966 I0. J1.538
G3 X742.437 I-1.034 J-1.034
Y2254.897 I1.034 J-1.034
G2 X742.888 Y2253.81 I-1.087 J-1.087
G1 Y2232.296
G2 X742.437 Y2231.208 I-1.538 J0.
G3 Y2229.14 I1.034 J-1.034
X744.505 I1.034 J1.034
G2 X745.593 Y2229.59 I1.087 J-1.087
G1 X755.107
G2 X756.195 Y2229.14 I0. J-1.537
G3 X758.263 I1.034 J1.034
Y2231.208 I-1.034 J1.034
G2 X757.813 Y2232.296 I1.087 J1.087
G1 Y2249.053
G3 X757.505 Y2249.36 I-0.307 J0.
G1 X757.198
G18 G3 X756.89 Z-2.693 I0. K0.307
G1 Y2253.503
Z-5.693 F833.
G2 X757.198 Z-6. I0.307 K0. F2500.
G1 X757.505
G17 G3 X757.813 Y2253.81 I0. J0.308
G2 X758.263 Y2254.897 I1.537 J0.
G3 Y2256.966 I-1.034 J1.034
X756.195 I-1.034 J-1.034
G2 X755.107 Y2256.515 I-1.087 J1.087
G1 X745.593
G2 X744.505 Y2256.966 I0. J1.538
G3 X742.437 I-1.034 J-1.034
Y2254.897 I1.034 J-1.034
G2 X742.888 Y2253.81 I-1.087 J-1.087
G1 Y2232.296
G2 X742.437 Y2231.208 I-1.538 J0.
G3 Y2229.14 I1.034 J-1.034
X744.505 I1.034 J1.034
G2 X745.593 Y2229.59 I1.087 J-1.087
G1 X755.107
G2 X756.195 Y2229.14 I0. J-1.537
G3 X758.263 I1.034 J1.034
Y2231.208 I-1.034 J1.034
G2 X757.813 Y2232.296 I1.087 J1.087
G1 Y2253.81
G3 X757.505 Y2254.118 I-0.307 J0.
G1 X757.198
G18 G3 X756.89 Z-5.693 I0. K0.307
G1 Y2253.503
Z-8.693 F833.
G2 X757.198 Z-9. I0.307 K0. F2500.
G1 X757.505
G17 G3 X757.813 Y2253.81 I0. J0.308
G2 X758.263 Y2254.897 I1.537 J0.
G3 Y2256.966 I-1.034 J1.034
X756.195 I-1.034 J-1.034
G2 X755.107 Y2256.515 I-1.087 J1.087
G1 X745.593
G2 X744.505 Y2256.966 I0. J1.538
G3 X742.437 I-1.034 J-1.034
Y2254.897 I1.034 J-1.034
G2 X742.888 Y2253.81 I-1.087 J-1.087
G1 Y2232.296
G2 X742.437 Y2231.208 I-1.538 J0.
G3 Y2229.14 I1.034 J-1.034
X744.505 I1.034 J1.034
G2 X745.593 Y2229.59 I1.087 J-1.087
G1 X755.107
G2 X756.195 Y2229.14 I0. J-1.537
G3 X758.263 I1.034 J1.034
Y2231.208 I-1.034 J1.034
G2 X757.813 Y2232.296 I1.087 J1.087
G1 Y2253.81
G3 X757.505 Y2254.118 I-0.307 J0.
G1 X757.198
G18 G3 X756.89 Z-8.693 I0. K0.307
G1 Y2253.503
Z-11.693 F833.
G2 X757.198 Z-12. I0.307 K0. F2500.
G1 X757.505
G17 G3 X757.813 Y2253.81 I0. J0.308
G2 X758.263 Y2254.897 I1.537 J0.
G3 Y2256.966 I-1.034 J1.034
X756.195 I-1.034 J-1.034
G2 X755.107 Y2256.515 I-1.087 J1.087
G1 X745.593
G2 X744.505 Y2256.966 I0. J1.538
G3 X742.437 I-1.034 J-1.034
Y2254.897 I1.034 J-1.034
G2 X742.888 Y2253.81 I-1.087 J-1.087
G1 Y2232.296
G2 X742.437 Y2231.208 I-1.538 J0.
G3 Y2229.14 I1.034 J-1.034
X744.505 I1.034 J1.034
G2 X745.593 Y2229.59 I1.087 J-1.087
G1 X755.107
G2 X756.195 Y2229.14 I0. J-1.537
G3 X758.263 I1.034 J1.034
Y2231.208 I-1.034 J1.034
G2 X757.813 Y2232.296 I1.087 J1.087
G1 Y2253.81
G3 X757.505 Y2254.118 I-0.307 J0.
G1 X757.198
G18 G3 X756.89 Z-11.693 I0. K0.307
G1 Y2253.503
Z-14.693 F833.
G2 X757.198 Z-15. I0.307 K0. F2500.
G1 X757.505
G17 G3 X757.813 Y2253.81 I0. J0.308
G2 X758.263 Y2254.897 I1.537 J0.
G3 Y2256.966 I-1.034 J1.034
X756.195 I-1.034 J-1.034
G2 X755.107 Y2256.515 I-1.087 J1.087
G1 X745.593
G2 X744.505 Y2256.966 I0. J1.538
G3 X742.437 I-1.034 J-1.034
Y2254.897 I1.034 J-1.034
G2 X742.888 Y2253.81 I-1.087 J-1.087
G1 Y2232.296
G2 X742.437 Y2231.208 I-1.538 J0.
G3 Y2229.14 I1.034 J-1.034
X744.505 I1.034 J1.034
G2 X745.593 Y2229.59 I1.087 J-1.087
G1 X755.107
G2 X756.195 Y2229.14 I0. J-1.537
G3 X758.263 I1.034 J1.034
Y2231.208 I-1.034 J1.034
G2 X757.813 Y2232.296 I1.087 J1.087
G1 Y2253.81
G3 X757.505 Y2254.118 I-0.307 J0.
G1 X757.198
G18 G3 X756.89 Z-14.693 I0. K0.307
G1 Y2253.503
Z-17.693 F833.
G2 X757.198 Z-18. I0.307 K0. F2500.
G1 X757.505
G17 G3 X757.813 Y2253.81 I0. J0.308
G2 X758.263 Y2254.897 I1.537 J0.
G3 Y2256.966 I-1.034 J1.034
X756.195 I-1.034 J-1.034
G2 X755.107 Y2256.515 I-1.087 J1.087
G1 X745.593
G2 X744.505 Y2256.966 I0. J1.538
G3 X742.437 I-1.034 J-1.034
Y2254.897 I1.034 J-1.034
G2 X742.888 Y2253.81 I-1.087 J-1.087
G1 Y2232.296
G2 X742.437 Y2231.208 I-1.538 J0.
G3 Y2229.14 I1.034 J-1.034
X744.505 I1.034 J1.034
G2 X745.593 Y2229.59 I1.087 J-1.087
G1 X755.107
G2 X756.195 Y2229.14 I0. J-1.537
G3 X758.263 I1.034 J1.034
Y2231.208 I-1.034 J1.034
G2 X757.813 Y2232.296 I1.087 J1.087
G1 Y2253.81
G3 X757.505 Y2254.118 I-0.307 J0.
G1 X757.198
G18 G3 X756.89 Z-17.693 I0. K0.308
G0 Z5.
X805.54 Y2304.495
G1 Z2. F833.
Z-2.693
G2 X805.847 Z-3. I0.307 K0. F2500.
G1 X806.155
G17 G3 X806.463 Y2304.803 I0. J0.308
G1 Y2309.56
G2 X806.913 Y2310.647 I1.537 J0.
G3 X804.845 Y2312.716 I-1.034 J1.034
G2 X803.757 Y2312.265 I-1.087 J1.087
G1 X794.243
G2 X793.155 Y2312.716 I0. J1.538
G3 X791.087 Y2310.647 I-1.034 J-1.034
G2 X791.537 Y2309.56 I-1.087 J-1.087
G1 Y2268.046
G2 X791.087 Y2266.958 I-1.537 J0.
G3 X793.155 Y2264.89 I1.034 J-1.034
G2 X794.243 Y2265.34 I1.087 J-1.087
G1 X803.757
G2 X804.845 Y2264.89 I0. J-1.537
G3 X806.913 Y2266.958 I1.034 J1.034
G2 X806.463 Y2268.046 I1.087 J1.087
G1 Y2304.803
G3 X806.155 Y2305.11 I-0.307 J0.
G1 X805.847
G18 G3 X805.54 Z-2.693 I0. K0.307
G1 Y2304.495
Z-5.693 F833.
G2 X805.847 Z-6. I0.307 K0. F2500.
G1 X806.155
G17 G3 X806.463 Y2304.803 I0. J0.308
G1 Y2309.56
G2 X806.913 Y2310.647 I1.537 J0.
G3 X804.845 Y2312.716 I-1.034 J1.034
G2 X803.757 Y2312.265 I-1.087 J1.087
G1 X794.243
G2 X793.155 Y2312.716 I0. J1.538
G3 X791.087 Y2310.647 I-1.034 J-1.034
G2 X791.537 Y2309.56 I-1.087 J-1.087
G1 Y2268.046
G2 X791.087 Y2266.958 I-1.537 J0.
G3 X793.155 Y2264.89 I1.034 J-1.034
G2 X794.243 Y2265.34 I1.087 J-1.087
G1 X803.757
G2 X804.845 Y2264.89 I0. J-1.537
G3 X806.913 Y2266.958 I1.034 J1.034
G2 X806.463 Y2268.046 I1.087 J1.087
G1 Y2304.803
G3 X806.155 Y2305.11 I-0.307 J0.
G1 X805.847
G18 G3 X805.54 Z-5.693 I0. K0.307
G1 Y2304.495
Z-8.693 F833.
G2 X805.847 Z-9. I0.307 K0. F2500.
G1 X806.155
G17 G3 X806.463 Y2304.803 I0. J0.308
G1 Y2309.56
G2 X806.913 Y2310.647 I1.537 J0.
G3 X804.845 Y2312.716 I-1.034 J1.034
G2 X803.757 Y2312.265 I-1.087 J1.087
G1 X794.243
G2 X793.155 Y2312.716 I0. J1.538
G3 X791.087 Y2310.647 I-1.034 J-1.034
G2 X791.537 Y2309.56 I-1.087 J-1.087
G1 Y2268.046
G2 X791.087 Y2266.958 I-1.537 J0.
G3 X793.155 Y2264.89 I1.034 J-1.034
G2 X794.243 Y2265.34 I1.087 J-1.087
G1 X803.757
G2 X804.845 Y2264.89 I0. J-1.537
G3 X806.913 Y2266.958 I1.034 J1.034
G2 X806.463 Y2268.046 I1.087 J1.087
G1 Y2304.803
G3 X806.155 Y2305.11 I-0.307 J0.
G1 X805.847
G18 G3 X805.54 Z-8.693 I0. K0.307
G1 Y2304.495
Z-11.693 F833.
G2 X805.847 Z-12. I0.307 K0. F2500.
G1 X806.155
G17 G3 X806.463 Y2304.803 I0. J0.308
G1 Y2309.56
G2 X806.913 Y2310.647 I1.537 J0.
G3 X804.845 Y2312.716 I-1.034 J1.034
G2 X803.757 Y2312.265 I-1.087 J1.087
G1 X794.243
G2 X793.155 Y2312.716 I0. J1.538
G3 X791.087 Y2310.647 I-1.034 J-1.034
G2 X791.537 Y2309.56 I-1.087 J-1.087
G1 Y2268.046
G2 X791.087 Y2266.958 I-1.537 J0.
G3 X793.155 Y2264.89 I1.034 J-1.034
G2 X794.243 Y2265.34 I1.087 J-1.087
G1 X803.757
G2 X804.845 Y2264.89 I0. J-1.537
G3 X806.913 Y2266.958 I1.034 J1.034
G2 X806.463 Y2268.046 I1.087 J1.087
G1 Y2304.803
G3 X806.155 Y2305.11 I-0.307 J0.
G1 X805.847
G18 G3 X805.54 Z-11.693 I0. K0.307
G1 Y2304.495
Z-14.693 F833.
G2 X805.847 Z-15. I0.307 K0. F2500.
G1 X806.155
G17 G3 X806.463 Y2304.803 I0. J0.308
G1 Y2309.56
G2 X806.913 Y2310.647 I1.537 J0.
G3 X804.845 Y2312.716 I-1.034 J1.034
G2 X803.757 Y2312.265 I-1.087 J1.087
G1 X794.243
G2 X793.155 Y2312.716 I0. J1.538
G3 X791.087 Y2310.647 I-1.034 J-1.034
G2 X791.537 Y2309.56 I-1.087 J-1.087
G1 Y2268.046
G2 X791.087 Y2266.958 I-1.537 J0.
G3 X793.155 Y2264.89 I1.034 J-1.034
G2 X794.243 Y2265.34 I1.087 J-1.087
G1 X803.757
G2 X804.845 Y2264.89 I0. J-1.537
G3 X806.913 Y2266.958 I1.034 J1.034
G2 X806.463 Y2268.046 I1.087 J1.087
G1 Y2304.803
G3 X806.155 Y2305.11 I-0.307 J0.
G1 X805.847
G18 G3 X805.54 Z-14.693 I0. K0.307
G1 Y2304.495
Z-17.693 F833.
G2 X805.847 Z-18. I0.307 K0. F2500.
G1 X806.155
G17 G3 X806.463 Y2304.803 I0. J0.308
G1 Y2309.56
G2 X806.913 Y2310.647 I1.537 J0.
G3 X804.845 Y2312.716 I-1.034 J1.034
G2 X803.757 Y2312.265 I-1.087 J1.087
G1 X794.243
G2 X793.155 Y2312.716 I0. J1.538
G3 X791.087 Y2310.647 I-1.034 J-1.034
G2 X791.537 Y2309.56 I-1.087 J-1.087
G1 Y2268.046
G2 X791.087 Y2266.958 I-1.537 J0.
G3 X793.155 Y2264.89 I1.034 J-1.034
G2 X794.243 Y2265.34 I1.087 J-1.087
G1 X803.757
G2 X804.845 Y2264.89 I0. J-1.537
G3 X806.913 Y2266.958 I1.034 J1.034
G2 X806.463 Y2268.046 I1.087 J1.087
G1 Y2304.803
G3 X806.155 Y2305.11 I-0.307 J0.
G1 X805.847
G18 G3 X805.54 Z-17.693 I0. K0.308
G0 Z5.
X756.89 Y2410.495
G1 Z2. F833.
Z-2.693
G2 X757.198 Z-3. I0.307 K0. F2500.
G1 X757.505
G17 G3 X757.813 Y2410.803 I0. J0.308
G1 Y2427.56
G2 X758.263 Y2428.647 I1.537 J0.
G3 Y2430.716 I-1.034 J1.034
X756.195 I-1.034 J-1.034
G2 X755.107 Y2430.265 I-1.087 J1.087
G1 X745.593
G2 X744.505 Y2430.716 I0. J1.538
G3 X742.437 I-1.034 J-1.034
Y2428.647 I1.034 J-1.034
G2 X742.888 Y2427.56 I-1.087 J-1.087
G1 Y2406.046
G2 X742.437 Y2404.958 I-1.538 J0.
G3 Y2402.89 I1.034 J-1.034
X744.505 I1.034 J1.034
G2 X745.593 Y2403.34 I1.087 J-1.087
G1 X755.107
G2 X756.195 Y2402.89 I0. J-1.537
G3 X758.263 I1.034 J1.034
Y2404.958 I-1.034 J1.034
G2 X757.813 Y2406.046 I1.087 J1.087
G1 Y2410.803
G3 X757.505 Y2411.11 I-0.307 J0.
G1 X757.198
G18 G3 X756.89 Z-2.693 I0. K0.307
G1 Y2410.495
Z-5.693 F833.
G2 X757.198 Z-6. I0.307 K0. F2500.
G1 X757.505
G17 G3 X757.813 Y2410.803 I0. J0.308
G1 Y2427.56
G2 X758.263 Y2428.647 I1.537 J0.
G3 Y2430.716 I-1.034 J1.034
X756.195 I-1.034 J-1.034
G2 X755.107 Y2430.265 I-1.087 J1.087
G1 X745.593
G2 X744.505 Y2430.716 I0. J1.538
G3 X742.437 I-1.034 J-1.034
Y2428.647 I1.034 J-1.034
G2 X742.888 Y2427.56 I-1.087 J-1.087
G1 Y2406.046
G2 X742.437 Y2404.958 I-1.538 J0.
G3 Y2402.89 I1.034 J-1.034
X744.505 I1.034 J1.034
G2 X745.593 Y2403.34 I1.087 J-1.087
G1 X755.107
G2 X756.195 Y2402.89 I0. J-1.537
G3 X758.263 I1.034 J1.034
Y2404.958 I-1.034 J1.034
G2 X757.813 Y2406.046 I1.087 J1.087
G1 Y2410.803
G3 X757.505 Y2411.11 I-0.307 J0.
G1 X757.198
G18 G3 X756.89 Z-5.693 I0. K0.307
G1 Y2410.495
Z-8.693 F833.
G2 X757.198 Z-9. I0.307 K0. F2500.
G1 X757.505
G17 G3 X757.813 Y2410.803 I0. J0.308
G1 Y2427.56
G2 X758.263 Y2428.647 I1.537 J0.
G3 Y2430.716 I-1.034 J1.034
X756.195 I-1.034 J-1.034
G2 X755.107 Y2430.265 I-1.087 J1.087
G1 X745.593
G2 X744.505 Y2430.716 I0. J1.538
G3 X742.437 I-1.034 J-1.034
Y2428.647 I1.034 J-1.034
G2 X742.888 Y2427.56 I-1.087 J-1.087
G1 Y2406.046
G2 X742.437 Y2404.958 I-1.538 J0.
G3 Y2402.89 I1.034 J-1.034
X744.505 I1.034 J1.034
G2 X745.593 Y2403.34 I1.087 J-1.087
G1 X755.107
G2 X756.195 Y2402.89 I0. J-1.537
G3 X758.263 I1.034 J1.034
Y2404.958 I-1.034 J1.034
G2 X757.813 Y2406.046 I1.087 J1.087
G1 Y2410.803
G3 X757.505 Y2411.11 I-0.307 J0.
G1 X757.198
G18 G3 X756.89 Z-8.693 I0. K0.307
G1 Y2410.495
Z-11.693 F833.
G2 X757.198 Z-12. I0.307 K0. F2500.
G1 X757.505
G17 G3 X757.813 Y2410.803 I0. J0.308
G1 Y2427.56
G2 X758.263 Y2428.647 I1.537 J0.
G3 Y2430.716 I-1.034 J1.034
X756.195 I-1.034 J-1.034
G2 X755.107 Y2430.265 I-1.087 J1.087
G1 X745.593
G2 X744.505 Y2430.716 I0. J1.538
G3 X742.437 I-1.034 J-1.034
Y2428.647 I1.034 J-1.034
G2 X742.888 Y2427.56 I-1.087 J-1.087
G1 Y2406.046
G2 X742.437 Y2404.958 I-1.538 J0.
G3 Y2402.89 I1.034 J-1.034
X744.505 I1.034 J1.034
G2 X745.593 Y2403.34 I1.087 J-1.087
G1 X755.107
G2 X756.195 Y2402.89 I0. J-1.537
G3 X758.263 I1.034 J1.034
Y2404.958 I-1.034 J1.034
G2 X757.813 Y2406.046 I1.087 J1.087
G1 Y2410.803
G3 X757.505 Y2411.11 I-0.307 J0.
G1 X757.198
G18 G3 X756.89 Z-11.693 I0. K0.307
G1 Y2410.495
Z-14.693 F833.
G2 X757.198 Z-15. I0.307 K0. F2500.
G1 X757.505
G17 G3 X757.813 Y2410.803 I0. J0.308
G1 Y2427.56
G2 X758.263 Y2428.647 I1.537 J0.
G3 Y2430.716 I-1.034 J1.034
X756.195 I-1.034 J-1.034
G2 X755.107 Y2430.265 I-1.087 J1.087
G1 X745.593
G2 X744.505 Y2430.716 I0. J1.538
G3 X742.437 I-1.034 J-1.034
Y2428.647 I1.034 J-1.034
G2 X742.888 Y2427.56 I-1.087 J-1.087
G1 Y2406.046
G2 X742.437 Y2404.958 I-1.538 J0.
G3 Y2402.89 I1.034 J-1.034
X744.505 I1.034 J1.034
G2 X745.593 Y2403.34 I1.087 J-1.087
G1 X755.107
G2 X756.195 Y2402.89 I0. J-1.537
G3 X758.263 I1.034 J1.034
Y2404.958 I-1.034 J1.034
G2 X757.813 Y2406.046 I1.087 J1.087
G1 Y2410.803
G3 X757.505 Y2411.11 I-0.307 J0.
G1 X757.198
G18 G3 X756.89 Z-14.693 I0. K0.307
G1 Y2410.495
Z-17.693 F833.
G2 X757.198 Z-18. I0.307 K0. F2500.
G1 X757.505
G17 G3 X757.813 Y2410.803 I0. J0.308
G1 Y2427.56
G2 X758.263 Y2428.647 I1.537 J0.
G3 Y2430.716 I-1.034 J1.034
X756.195 I-1.034 J-1.034
G2 X755.107 Y2430.265 I-1.087 J1.087
G1 X745.593
G2 X744.505 Y2430.716 I0. J1.538
G3 X742.437 I-1.034 J-1.034
Y2428.647 I1.034 J-1.034
G2 X742.888 Y2427.56 I-1.087 J-1.087
G1 Y2406.046
G2 X742.437 Y2404.958 I-1.538 J0.
G3 Y2402.89 I1.034 J-1.034
X744.505 I1.034 J1.034
G2 X745.593 Y2403.34 I1.087 J-1.087
G1 X755.107
G2 X756.195 Y2402.89 I0. J-1.537
G3 X758.263 I1.034 J1.034
Y2404.958 I-1.034 J1.034
G2 X757.813 Y2406.046 I1.087 J1.087
G1 Y2410.803
G3 X757.505 Y2411.11 I-0.307 J0.
G1 X757.198
G18 G3 X756.89 Z-17.693 I0. K0.308
G0 Z5.
X794.55 Y2012.392
G1 Z2. F833.
Z-2.693
G19 G3 Y2012.7 Z-3. J0.307 K0. F2500.
G1 Y2013.007
G17 G3 X794.243 Y2013.315 I-0.308 J0.
G2 X793.155 Y2013.765 I0. J1.537
G3 X791.087 Y2011.697 I-1.034 J-1.034
G2 X791.537 Y2010.61 I-1.087 J-1.087
G1 Y1969.095
G2 X791.087 Y1968.008 I-1.537 J0.
G3 X793.155 Y1965.939 I1.034 J-1.034
G2 X794.243 Y1966.39 I1.087 J-1.087
G1 X803.757
G2 X804.845 Y1965.939 I0. J-1.537
G3 X806.913 Y1968.008 I1.034 J1.034
G2 X806.463 Y1969.095 I1.087 J1.087
G1 Y2010.61
G2 X806.913 Y2011.697 I1.537 J0.
G3 X804.845 Y2013.765 I-1.034 J1.034
G2 X803.757 Y2013.315 I-1.087 J1.087
G1 X794.243
G3 X793.935 Y2013.007 I0. J-0.307
G1 Y2012.7
G19 G2 Y2012.392 Z-2.693 J0. K0.307
G1 X794.55
Z-5.693 F833.
G3 Y2012.7 Z-6. J0.307 K0. F2500.
G1 Y2013.007
G17 G3 X794.243 Y2013.315 I-0.308 J0.
G2 X793.155 Y2013.765 I0. J1.537
G3 X791.087 Y2011.697 I-1.034 J-1.034
G2 X791.537 Y2010.61 I-1.087 J-1.087
G1 Y1969.095
G2 X791.087 Y1968.008 I-1.537 J0.
G3 X793.155 Y1965.939 I1.034 J-1.034
G2 X794.243 Y1966.39 I1.087 J-1.087
G1 X803.757
G2 X804.845 Y1965.939 I0. J-1.537
G3 X806.913 Y1968.008 I1.034 J1.034
G2 X806.463 Y1969.095 I1.087 J1.087
G1 Y2010.61
G2 X806.913 Y2011.697 I1.537 J0.
G3 X804.845 Y2013.765 I-1.034 J1.034
G2 X803.757 Y2013.315 I-1.087 J1.087
G1 X794.243
G3 X793.935 Y2013.007 I0. J-0.307
G1 Y2012.7
G19 G2 Y2012.392 Z-5.693 J0. K0.307
G1 X794.55
Z-8.693 F833.
G3 Y2012.7 Z-9. J0.307 K0. F2500.
G1 Y2013.007
G17 G3 X794.243 Y2013.315 I-0.308 J0.
G2 X793.155 Y2013.765 I0. J1.537
G3 X791.087 Y2011.697 I-1.034 J-1.034
G2 X791.537 Y2010.61 I-1.087 J-1.087
G1 Y1969.095
G2 X791.087 Y1968.008 I-1.537 J0.
G3 X793.155 Y1965.939 I1.034 J-1.034
G2 X794.243 Y1966.39 I1.087 J-1.087
G1 X803.757
G2 X804.845 Y1965.939 I0. J-1.537
G3 X806.913 Y1968.008 I1.034 J1.034
G2 X806.463 Y1969.095 I1.087 J1.087
G1 Y2010.61
G2 X806.913 Y2011.697 I1.537 J0.
G3 X804.845 Y2013.765 I-1.034 J1.034
G2 X803.757 Y2013.315 I-1.087 J1.087
G1 X794.243
G3 X793.935 Y2013.007 I0. J-0.307
G1 Y2012.7
G19 G2 Y2012.392 Z-8.693 J0. K0.307
G1 X794.55
Z-11.693 F833.
G3 Y2012.7 Z-12. J0.307 K0. F2500.
G1 Y2013.007
G17 G3 X794.243 Y2013.315 I-0.308 J0.
G2 X793.155 Y2013.765 I0. J1.537
G3 X791.087 Y2011.697 I-1.034 J-1.034
G2 X791.537 Y2010.61 I-1.087 J-1.087
G1 Y1969.095
G2 X791.087 Y1968.008 I-1.537 J0.
G3 X793.155 Y1965.939 I1.034 J-1.034
G2 X794.243 Y1966.39 I1.087 J-1.087
G1 X803.757
G2 X804.845 Y1965.939 I0. J-1.537
G3 X806.913 Y1968.008 I1.034 J1.034
G2 X806.463 Y1969.095 I1.087 J1.087
G1 Y2010.61
G2 X806.913 Y2011.697 I1.537 J0.
G3 X804.845 Y2013.765 I-1.034 J1.034
G2 X803.757 Y2013.315 I-1.087 J1.087
G1 X794.243
G3 X793.935 Y2013.007 I0. J-0.307
G1 Y2012.7
G19 G2 Y2012.392 Z-11.693 J0. K0.307
G1 X794.55
Z-14.693 F833.
G3 Y2012.7 Z-15. J0.307 K0. F2500.
G1 Y2013.007
G17 G3 X794.243 Y2013.315 I-0.308 J0.
G2 X793.155 Y2013.765 I0. J1.537
G3 X791.087 Y2011.697 I-1.034 J-1.034
G2 X791.537 Y2010.61 I-1.087 J-1.087
G1 Y1969.095
G2 X791.087 Y1968.008 I-1.537 J0.
G3 X793.155 Y1965.939 I1.034 J-1.034
G2 X794.243 Y1966.39 I1.087 J-1.087
G1 X803.757
G2 X804.845 Y1965.939 I0. J-1.537
G3 X806.913 Y1968.008 I1.034 J1.034
G2 X806.463 Y1969.095 I1.087 J1.087
G1 Y2010.61
G2 X806.913 Y2011.697 I1.537 J0.
G3 X804.845 Y2013.765 I-1.034 J1.034
G2 X803.757 Y2013.315 I-1.087 J1.087
G1 X794.243
G3 X793.935 Y2013.007 I0. J-0.307
G1 Y2012.7
G19 G2 Y2012.392 Z-14.693 J0. K0.307
G1 X794.55
Z-17.693 F833.
G3 Y2012.7 Z-18. J0.307 K0. F2500.
G1 Y2013.007
G17 G3 X794.243 Y2013.315 I-0.308 J0.
G2 X793.155 Y2013.765 I0. J1.537
G3 X791.087 Y2011.697 I-1.034 J-1.034
G2 X791.537 Y2010.61 I-1.087 J-1.087
G1 Y1969.095
G2 X791.087 Y1968.008 I-1.537 J0.
G3 X793.155 Y1965.939 I1.034 J-1.034
G2 X794.243 Y1966.39 I1.087 J-1.087
G1 X803.757
G2 X804.845 Y1965.939 I0. J-1.537
G3 X806.913 Y1968.008 I1.034 J1.034
G2 X806.463 Y1969.095 I1.087 J1.087
G1 Y2010.61
G2 X806.913 Y2011.697 I1.537 J0.
G3 X804.845 Y2013.765 I-1.034 J1.034
G2 X803.757 Y2013.315 I-1.087 J1.087
G1 X794.243
G3 X793.935 Y2013.007 I0. J-0.307
G1 Y2012.7
G19 G2 Y2012.392 Z-17.693 J0. K0.308
G0 Z5.
X805.54 Y1674.594
G1 Z2. F833.
Z-2.693
G18 G2 X805.847 Z-3. I0.307 K0. F2500.
G1 X806.155
G17 G3 X806.463 Y1674.901 I0. J0.307
G1 Y1711.659
G2 X806.913 Y1712.746 I1.537 J0.
G3 X804.845 Y1714.814 I-1.034 J1.034
G2 X803.757 Y1714.364 I-1.087 J1.087
G1 X794.243
G2 X793.155 Y1714.814 I0. J1.537
G3 X791.087 Y1712.746 I-1.034 J-1.034
G2 X791.537 Y1711.659 I-1.087 J-1.087
G1 Y1670.144
G2 X791.087 Y1669.057 I-1.537 J0.
G3 X793.155 Y1666.989 I1.034 J-1.034
G2 X794.243 Y1667.439 I1.087 J-1.087
G1 X803.757
G2 X804.845 Y1666.989 I0. J-1.537
G3 X806.913 Y1669.057 I1.034 J1.034
G2 X806.463 Y1670.144 I1.087 J1.087
G1 Y1674.901
G3 X806.155 Y1675.209 I-0.307 J0.
G1 X805.847
G18 G3 X805.54 Z-2.693 I0. K0.307
G1 Y1669.837
Z-5.693 F833.
G2 X805.847 Z-6. I0.307 K0. F2500.
G1 X806.155
G17 G3 X806.463 Y1670.144 I0. J0.307
G1 Y1711.659
G2 X806.913 Y1712.746 I1.537 J0.
G3 X804.845 Y1714.814 I-1.034 J1.034
G2 X803.757 Y1714.364 I-1.087 J1.087
G1 X794.243
G2 X793.155 Y1714.814 I0. J1.537
G3 X791.087 Y1712.746 I-1.034 J-1.034
G2 X791.537 Y1711.659 I-1.087 J-1.087
G1 Y1670.144
G2 X791.087 Y1669.057 I-1.537 J0.
G3 X793.155 Y1666.989 I1.034 J-1.034
G2 X794.243 Y1667.439 I1.087 J-1.087
G1 X803.757
G2 X804.845 Y1666.989 I0. J-1.537
G3 X806.913 Y1669.057 I1.034 J1.034
G2 X806.463 Y1670.144 I1.087 J1.087
G3 X806.155 Y1670.452 I-0.307 J0.
G1 X805.847
G18 G3 X805.54 Z-5.693 I0. K0.307
G1 Y1669.837
Z-8.693 F833.
G2 X805.847 Z-9. I0.307 K0. F2500.
G1 X806.155
G17 G3 X806.463 Y1670.144 I0. J0.307
G1 Y1711.659
G2 X806.913 Y1712.746 I1.537 J0.
G3 X804.845 Y1714.814 I-1.034 J1.034
G2 X803.757 Y1714.364 I-1.087 J1.087
G1 X794.243
G2 X793.155 Y1714.814 I0. J1.537
G3 X791.087 Y1712.746 I-1.034 J-1.034
G2 X791.537 Y1711.659 I-1.087 J-1.087
G1 Y1670.144
G2 X791.087 Y1669.057 I-1.537 J0.
G3 X793.155 Y1666.989 I1.034 J-1.034
G2 X794.243 Y1667.439 I1.087 J-1.087
G1 X803.757
G2 X804.845 Y1666.989 I0. J-1.537
G3 X806.913 Y1669.057 I1.034 J1.034
G2 X806.463 Y1670.144 I1.087 J1.087
G3 X806.155 Y1670.452 I-0.307 J0.
G1 X805.847
G18 G3 X805.54 Z-8.693 I0. K0.307
G1 Y1669.837
Z-11.693 F833.
G2 X805.847 Z-12. I0.307 K0. F2500.
G1 X806.155
G17 G3 X806.463 Y1670.144 I0. J0.307
G1 Y1711.659
G2 X806.913 Y1712.746 I1.537 J0.
G3 X804.845 Y1714.814 I-1.034 J1.034
G2 X803.757 Y1714.364 I-1.087 J1.087
G1 X794.243
G2 X793.155 Y1714.814 I0. J1.537
G3 X791.087 Y1712.746 I-1.034 J-1.034
G2 X791.537 Y1711.659 I-1.087 J-1.087
G1 Y1670.144
G2 X791.087 Y1669.057 I-1.537 J0.
G3 X793.155 Y1666.989 I1.034 J-1.034
G2 X794.243 Y1667.439 I1.087 J-1.087
G1 X803.757
G2 X804.845 Y1666.989 I0. J-1.537
G3 X806.913 Y1669.057 I1.034 J1.034
G2 X806.463 Y1670.144 I1.087 J1.087
G3 X806.155 Y1670.452 I-0.307 J0.
G1 X805.847
G18 G3 X805.54 Z-11.693 I0. K0.307
G1 Y1669.837
Z-14.693 F833.
G2 X805.847 Z-15. I0.307 K0. F2500.
G1 X806.155
G17 G3 X806.463 Y1670.144 I0. J0.307
G1 Y1711.659
G2 X806.913 Y1712.746 I1.537 J0.
G3 X804.845 Y1714.814 I-1.034 J1.034
G2 X803.757 Y1714.364 I-1.087 J1.087
G1 X794.243
G2 X793.155 Y1714.814 I0. J1.537
G3 X791.087 Y1712.746 I-1.034 J-1.034
G2 X791.537 Y1711.659 I-1.087 J-1.087
G1 Y1670.144
G2 X791.087 Y1669.057 I-1.537 J0.
G3 X793.155 Y1666.989 I1.034 J-1.034
G2 X794.243 Y1667.439 I1.087 J-1.087
G1 X803.757
G2 X804.845 Y1666.989 I0. J-1.537
G3 X806.913 Y1669.057 I1.034 J1.034
G2 X806.463 Y1670.144 I1.087 J1.087
G3 X806.155 Y1670.452 I-0.307 J0.
G1 X805.847
G18 G3 X805.54 Z-14.693 I0. K0.307
G1 Y1669.837
Z-17.693 F833.
G2 X805.847 Z-18. I0.307 K0. F2500.
G1 X806.155
G17 G3 X806.463 Y1670.144 I0. J0.307
G1 Y1711.659
G2 X806.913 Y1712.746 I1.537 J0.
G3 X804.845 Y1714.814 I-1.034 J1.034
G2 X803.757 Y1714.364 I-1.087 J1.087
G1 X794.243
G2 X793.155 Y1714.814 I0. J1.537
G3 X791.087 Y1712.746 I-1.034 J-1.034
G2 X791.537 Y1711.659 I-1.087 J-1.087
G1 Y1670.144
G2 X791.087 Y1669.057 I-1.537 J0.
G3 X793.155 Y1666.989 I1.034 J-1.034
G2 X794.243 Y1667.439 I1.087 J-1.087
G1 X803.757
G2 X804.845 Y1666.989 I0. J-1.537
G3 X806.913 Y1669.057 I1.034 J1.034
G2 X806.463 Y1670.144 I1.087 J1.087
G3 X806.155 Y1670.452 I-0.307 J0.
G1 X805.847
G18 G3 X805.54 Z-17.693 I0. K0.308
G0 Z5.
X774.67 Y1185.091
G1 Z2. F833.
Z-2.693
G19 G3 Y1185.399 Z-3. J0.307 K0. F2500.
G1 Y1185.706
G17 G3 X774.363 Y1186.014 I-0.308 J0.
G1 X774.359
G2 X773.272 Y1186.464 I0. J1.538
G3 X771.203 I-1.034 J-1.034
X771.205 Y1184.395 I1.035 J-1.034
G2 X771.656 Y1183.307 I-1.086 J-1.088
G1 Y1173.796
G2 X771.205 Y1172.708 I-1.537 J0.
G3 X771.203 Y1170.639 I1.033 J-1.035
X773.272 I1.035 J1.034
G2 X774.359 Y1171.089 I1.087 J-1.087
G1 X795.874
G2 X796.961 Y1170.639 I0. J-1.537
G3 X799.03 Y1172.706 I1.034 J1.034
G2 X798.581 Y1173.792 I1.088 J1.086
G1 Y1183.311
G2 X799.03 Y1184.397 I1.538 J0.
G3 X796.961 Y1186.464 I-1.035 J1.033
G2 X795.874 Y1186.014 I-1.087 J1.087
G1 X774.363
G3 X774.055 Y1185.706 I0. J-0.307
G1 Y1185.399
G19 G2 Y1185.091 Z-2.693 J0. K0.307
G1 X774.67
Z-5.693 F833.
G3 Y1185.399 Z-6. J0.307 K0. F2500.
G1 Y1185.706
G17 G3 X774.363 Y1186.014 I-0.308 J0.
G1 X774.359
G2 X773.272 Y1186.464 I0. J1.538
G3 X771.203 I-1.034 J-1.034
X771.205 Y1184.395 I1.035 J-1.034
G2 X771.656 Y1183.307 I-1.086 J-1.088
G1 Y1173.796
G2 X771.205 Y1172.708 I-1.537 J0.
G3 X771.203 Y1170.639 I1.033 J-1.035
X773.272 I1.035 J1.034
G2 X774.359 Y1171.089 I1.087 J-1.087
G1 X795.874
G2 X796.961 Y1170.639 I0. J-1.537
G3 X799.03 Y1172.706 I1.034 J1.034
G2 X798.581 Y1173.792 I1.088 J1.086
G1 Y1183.311
G2 X799.03 Y1184.397 I1.538 J0.
G3 X796.961 Y1186.464 I-1.035 J1.033
G2 X795.874 Y1186.014 I-1.087 J1.087
G1 X774.363
G3 X774.055 Y1185.706 I0. J-0.307
G1 Y1185.399
G19 G2 Y1185.091 Z-5.693 J0. K0.307
G1 X774.67
Z-8.693 F833.
G3 Y1185.399 Z-9. J0.307 K0. F2500.
G1 Y1185.706
G17 G3 X774.363 Y1186.014 I-0.308 J0.
G1 X774.359
G2 X773.272 Y1186.464 I0. J1.538
G3 X771.203 I-1.034 J-1.034
X771.205 Y1184.395 I1.035 J-1.034
G2 X771.656 Y1183.307 I-1.086 J-1.088
G1 Y1173.796
G2 X771.205 Y1172.708 I-1.537 J0.
G3 X771.203 Y1170.639 I1.033 J-1.035
X773.272 I1.035 J1.034
G2 X774.359 Y1171.089 I1.087 J-1.087
G1 X795.874
G2 X796.961 Y1170.639 I0. J-1.537
G3 X799.03 Y1172.706 I1.034 J1.034
G2 X798.581 Y1173.792 I1.088 J1.086
G1 Y1183.311
G2 X799.03 Y1184.397 I1.538 J0.
G3 X796.961 Y1186.464 I-1.035 J1.033
G2 X795.874 Y1186.014 I-1.087 J1.087
G1 X774.363
G3 X774.055 Y1185.706 I0. J-0.307
G1 Y1185.399
G19 G2 Y1185.091 Z-8.693 J0. K0.307
G1 X774.67
Z-11.693 F833.
G3 Y1185.399 Z-12. J0.307 K0. F2500.
G1 Y1185.706
G17 G3 X774.363 Y1186.014 I-0.308 J0.
G1 X774.359
G2 X773.272 Y1186.464 I0. J1.538
G3 X771.203 I-1.034 J-1.034
X771.205 Y1184.395 I1.035 J-1.034
G2 X771.656 Y1183.307 I-1.086 J-1.088
G1 Y1173.796
G2 X771.205 Y1172.708 I-1.537 J0.
G3 X771.203 Y1170.639 I1.033 J-1.035
X773.272 I1.035 J1.034
G2 X774.359 Y1171.089 I1.087 J-1.087
G1 X795.874
G2 X796.961 Y1170.639 I0. J-1.537
G3 X799.03 Y1172.706 I1.034 J1.034
G2 X798.581 Y1173.792 I1.088 J1.086
G1 Y1183.311
G2 X799.03 Y1184.397 I1.538 J0.
G3 X796.961 Y1186.464 I-1.035 J1.033
G2 X795.874 Y1186.014 I-1.087 J1.087
G1 X774.363
G3 X774.055 Y1185.706 I0. J-0.307
G1 Y1185.399
G19 G2 Y1185.091 Z-11.693 J0. K0.307
G1 X774.67
Z-14.693 F833.
G3 Y1185.399 Z-15. J0.307 K0. F2500.
G1 Y1185.706
G17 G3 X774.363 Y1186.014 I-0.308 J0.
G1 X774.359
G2 X773.272 Y1186.464 I0. J1.538
G3 X771.203 I-1.034 J-1.034
X771.205 Y1184.395 I1.035 J-1.034
G2 X771.656 Y1183.307 I-1.086 J-1.088
G1 Y1173.796
G2 X771.205 Y1172.708 I-1.537 J0.
G3 X771.203 Y1170.639 I1.033 J-1.035
X773.272 I1.035 J1.034
G2 X774.359 Y1171.089 I1.087 J-1.087
G1 X795.874
G2 X796.961 Y1170.639 I0. J-1.537
G3 X799.03 Y1172.706 I1.034 J1.034
G2 X798.581 Y1173.792 I1.088 J1.086
G1 Y1183.311
G2 X799.03 Y1184.397 I1.538 J0.
G3 X796.961 Y1186.464 I-1.035 J1.033
G2 X795.874 Y1186.014 I-1.087 J1.087
G1 X774.363
G3 X774.055 Y1185.706 I0. J-0.307
G1 Y1185.399
G19 G2 Y1185.091 Z-14.693 J0. K0.307
G1 X774.67
Z-17.693 F833.
G3 Y1185.399 Z-18. J0.307 K0. F2500.
G1 Y1185.706
G17 G3 X774.363 Y1186.014 I-0.308 J0.
G1 X774.359
G2 X773.272 Y1186.464 I0. J1.538
G3 X771.203 I-1.034 J-1.034
X771.205 Y1184.395 I1.035 J-1.034
G2 X771.656 Y1183.307 I-1.086 J-1.088
G1 Y1173.796
G2 X771.205 Y1172.708 I-1.537 J0.
G3 X771.203 Y1170.639 I1.033 J-1.035
X773.272 I1.035 J1.034
G2 X774.359 Y1171.089 I1.087 J-1.087
G1 X795.874
G2 X796.961 Y1170.639 I0. J-1.537
G3 X799.03 Y1172.706 I1.034 J1.034
G2 X798.581 Y1173.792 I1.088 J1.086
G1 Y1183.311
G2 X799.03 Y1184.397 I1.538 J0.
G3 X796.961 Y1186.464 I-1.035 J1.033
G2 X795.874 Y1186.014 I-1.087 J1.087
G1 X774.363
G3 X774.055 Y1185.706 I0. J-0.307
G1 Y1185.399
G19 G2 Y1185.091 Z-17.693 J0. K0.308
G0 Z5.
X958.787 Y1136.442
G1 Z2. F833.
Z-2.693
G3 Y1136.749 Z-3. J0.307 K0. F2500.
G1 Y1137.057
G17 G3 X958.479 Y1137.364 I-0.307 J0.
G2 X957.392 Y1137.814 I0. J1.537
G3 X955.324 Y1135.746 I-1.034 J-1.034
G2 X955.774 Y1134.659 I-1.087 J-1.087
G1 Y1125.144
G2 X955.324 Y1124.057 I-1.537 J0.
G3 X957.392 Y1121.989 I1.034 J-1.034
G2 X958.479 Y1122.439 I1.087 J-1.087
G1 X999.994
G2 X1001.081 Y1121.989 I0. J-1.537
G3 X1003.149 Y1124.057 I1.034 J1.034
G2 X1002.699 Y1125.144 I1.087 J1.087
G1 Y1134.659
G2 X1003.149 Y1135.746 I1.537 J0.
G3 X1001.081 Y1137.814 I-1.034 J1.034
G2 X999.994 Y1137.364 I-1.087 J1.087
G1 X958.479
G3 X958.172 Y1137.057 I0. J-0.307
G1 Y1136.749
G19 G2 Y1136.442 Z-2.693 J0. K0.307
G1 X958.787
Z-5.693 F833.
G3 Y1136.749 Z-6. J0.307 K0. F2500.
G1 Y1137.057
G17 G3 X958.479 Y1137.364 I-0.307 J0.
G2 X957.392 Y1137.814 I0. J1.537
G3 X955.324 Y1135.746 I-1.034 J-1.034
G2 X955.774 Y1134.659 I-1.087 J-1.087
G1 Y1125.144
G2 X955.324 Y1124.057 I-1.537 J0.
G3 X957.392 Y1121.989 I1.034 J-1.034
G2 X958.479 Y1122.439 I1.087 J-1.087
G1 X999.994
G2 X1001.081 Y1121.989 I0. J-1.537
G3 X1003.149 Y1124.057 I1.034 J1.034
G2 X1002.699 Y1125.144 I1.087 J1.087
G1 Y1134.659
G2 X1003.149 Y1135.746 I1.537 J0.
G3 X1001.081 Y1137.814 I-1.034 J1.034
G2 X999.994 Y1137.364 I-1.087 J1.087
G1 X958.479
G3 X958.172 Y1137.057 I0. J-0.307
G1 Y1136.749
G19 G2 Y1136.442 Z-5.693 J0. K0.307
G1 X958.787
Z-8.693 F833.
G3 Y1136.749 Z-9. J0.307 K0. F2500.
G1 Y1137.057
G17 G3 X958.479 Y1137.364 I-0.307 J0.
G2 X957.392 Y1137.814 I0. J1.537
G3 X955.324 Y1135.746 I-1.034 J-1.034
G2 X955.774 Y1134.659 I-1.087 J-1.087
G1 Y1125.144
G2 X955.324 Y1124.057 I-1.537 J0.
G3 X957.392 Y1121.989 I1.034 J-1.034
G2 X958.479 Y1122.439 I1.087 J-1.087
G1 X999.994
G2 X1001.081 Y1121.989 I0. J-1.537
G3 X1003.149 Y1124.057 I1.034 J1.034
G2 X1002.699 Y1125.144 I1.087 J1.087
G1 Y1134.659
G2 X1003.149 Y1135.746 I1.537 J0.
G3 X1001.081 Y1137.814 I-1.034 J1.034
G2 X999.994 Y1137.364 I-1.087 J1.087
G1 X958.479
G3 X958.172 Y1137.057 I0. J-0.307
G1 Y1136.749
G19 G2 Y1136.442 Z-8.693 J0. K0.307
G1 X958.787
Z-11.693 F833.
G3 Y1136.749 Z-12. J0.307 K0. F2500.
G1 Y1137.057
G17 G3 X958.479 Y1137.364 I-0.307 J0.
G2 X957.392 Y1137.814 I0. J1.537
G3 X955.324 Y1135.746 I-1.034 J-1.034
G2 X955.774 Y1134.659 I-1.087 J-1.087
G1 Y1125.144
G2 X955.324 Y1124.057 I-1.537 J0.
G3 X957.392 Y1121.989 I1.034 J-1.034
G2 X958.479 Y1122.439 I1.087 J-1.087
G1 X999.994
G2 X1001.081 Y1121.989 I0. J-1.537
G3 X1003.149 Y1124.057 I1.034 J1.034
G2 X1002.699 Y1125.144 I1.087 J1.087
G1 Y1134.659
G2 X1003.149 Y1135.746 I1.537 J0.
G3 X1001.081 Y1137.814 I-1.034 J1.034
G2 X999.994 Y1137.364 I-1.087 J1.087
G1 X958.479
G3 X958.172 Y1137.057 I0. J-0.307
G1 Y1136.749
G19 G2 Y1136.442 Z-11.693 J0. K0.307
G1 X958.787
Z-14.693 F833.
G3 Y1136.749 Z-15. J0.307 K0. F2500.
G1 Y1137.057
G17 G3 X958.479 Y1137.364 I-0.307 J0.
G2 X957.392 Y1137.814 I0. J1.537
G3 X955.324 Y1135.746 I-1.034 J-1.034
G2 X955.774 Y1134.659 I-1.087 J-1.087
G1 Y1125.144
G2 X955.324 Y1124.057 I-1.537 J0.
G3 X957.392 Y1121.989 I1.034 J-1.034
G2 X958.479 Y1122.439 I1.087 J-1.087
G1 X999.994
G2 X1001.081 Y1121.989 I0. J-1.537
G3 X1003.149 Y1124.057 I1.034 J1.034
G2 X1002.699 Y1125.144 I1.087 J1.087
G1 Y1134.659
G2 X1003.149 Y1135.746 I1.537 J0.
G3 X1001.081 Y1137.814 I-1.034 J1.034
G2 X999.994 Y1137.364 I-1.087 J1.087
G1 X958.479
G3 X958.172 Y1137.057 I0. J-0.307
G1 Y1136.749
G19 G2 Y1136.442 Z-14.693 J0. K0.307
G1 X958.787
Z-17.693 F833.
G3 Y1136.749 Z-18. J0.307 K0. F2500.
G1 Y1137.057
G17 G3 X958.479 Y1137.364 I-0.307 J0.
G2 X957.392 Y1137.814 I0. J1.537
G3 X955.324 Y1135.746 I-1.034 J-1.034
G2 X955.774 Y1134.659 I-1.087 J-1.087
G1 Y1125.144
G2 X955.324 Y1124.057 I-1.537 J0.
G3 X957.392 Y1121.989 I1.034 J-1.034
G2 X958.479 Y1122.439 I1.087 J-1.087
G1 X999.994
G2 X1001.081 Y1121.989 I0. J-1.537
G3 X1003.149 Y1124.057 I1.034 J1.034
G2 X1002.699 Y1125.144 I1.087 J1.087
G1 Y1134.659
G2 X1003.149 Y1135.746 I1.537 J0.
G3 X1001.081 Y1137.814 I-1.034 J1.034
G2 X999.994 Y1137.364 I-1.087 J1.087
G1 X958.479
G3 X958.172 Y1137.057 I0. J-0.307
G1 Y1136.749
G19 G2 Y1136.442 Z-17.693 J0. K0.308
G0 Z5.
X976.172 Y1172.011
G1 Z2. F833.
Z-2.693
G2 Y1171.704 Z-3. J-0.307 K0. F2500.
G1 Y1171.396
G17 G3 X976.479 Y1171.089 I0.308 J0.
G1 X997.994
G2 X999.081 Y1170.639 I0. J-1.537
G3 X1001.149 Y1172.707 I1.034 J1.034
G2 X1000.699 Y1173.794 I1.087 J1.087
G1 Y1183.309
G2 X1001.149 Y1184.396 I1.537 J0.
G3 X999.081 Y1186.464 I-1.034 J1.034
G2 X997.994 Y1186.014 I-1.087 J1.087
G1 X976.479
G2 X975.392 Y1186.464 I0. J1.538
G3 X973.324 Y1184.396 I-1.034 J-1.034
G2 X973.774 Y1183.309 I-1.087 J-1.087
G1 Y1173.794
G2 X973.324 Y1172.707 I-1.537 J0.
G3 X975.392 Y1170.639 I1.034 J-1.034
G2 X976.479 Y1171.089 I1.087 J-1.087
G3 X976.787 Y1171.396 I0. J0.307
G1 Y1171.704
G19 G3 Y1172.011 Z-2.693 J0. K0.307
G1 X976.172
Z-5.693 F833.
G2 Y1171.704 Z-6. J-0.307 K0. F2500.
G1 Y1171.396
G17 G3 X976.479 Y1171.089 I0.308 J0.
G1 X997.994
G2 X999.081 Y1170.639 I0. J-1.537
G3 X1001.149 Y1172.707 I1.034 J1.034
G2 X1000.699 Y1173.794 I1.087 J1.087
G1 Y1183.309
G2 X1001.149 Y1184.396 I1.537 J0.
G3 X999.081 Y1186.464 I-1.034 J1.034
G2 X997.994 Y1186.014 I-1.087 J1.087
G1 X976.479
G2 X975.392 Y1186.464 I0. J1.538
G3 X973.324 Y1184.396 I-1.034 J-1.034
G2 X973.774 Y1183.309 I-1.087 J-1.087
G1 Y1173.794
G2 X973.324 Y1172.707 I-1.537 J0.
G3 X975.392 Y1170.639 I1.034 J-1.034
G2 X976.479 Y1171.089 I1.087 J-1.087
G3 X976.787 Y1171.396 I0. J0.307
G1 Y1171.704
G19 G3 Y1172.011 Z-5.693 J0. K0.307
G1 X976.172
Z-8.693 F833.
G2 Y1171.704 Z-9. J-0.307 K0. F2500.
G1 Y1171.396
G17 G3 X976.479 Y1171.089 I0.308 J0.
G1 X997.994
G2 X999.081 Y1170.639 I0. J-1.537
G3 X1001.149 Y1172.707 I1.034 J1.034
G2 X1000.699 Y1173.794 I1.087 J1.087
G1 Y1183.309
G2 X1001.149 Y1184.396 I1.537 J0.
G3 X999.081 Y1186.464 I-1.034 J1.034
G2 X997.994 Y1186.014 I-1.087 J1.087
G1 X976.479
G2 X975.392 Y1186.464 I0. J1.538
G3 X973.324 Y1184.396 I-1.034 J-1.034
G2 X973.774 Y1183.309 I-1.087 J-1.087
G1 Y1173.794
G2 X973.324 Y1172.707 I-1.537 J0.
G3 X975.392 Y1170.639 I1.034 J-1.034
G2 X976.479 Y1171.089 I1.087 J-1.087
G3 X976.787 Y1171.396 I0. J0.307
G1 Y1171.704
G19 G3 Y1172.011 Z-8.693 J0. K0.307
G1 X976.172
Z-11.693 F833.
G2 Y1171.704 Z-12. J-0.307 K0. F2500.
G1 Y1171.396
G17 G3 X976.479 Y1171.089 I0.308 J0.
G1 X997.994
G2 X999.081 Y1170.639 I0. J-1.537
G3 X1001.149 Y1172.707 I1.034 J1.034
G2 X1000.699 Y1173.794 I1.087 J1.087
G1 Y1183.309
G2 X1001.149 Y1184.396 I1.537 J0.
G3 X999.081 Y1186.464 I-1.034 J1.034
G2 X997.994 Y1186.014 I-1.087 J1.087
G1 X976.479
G2 X975.392 Y1186.464 I0. J1.538
G3 X973.324 Y1184.396 I-1.034 J-1.034
G2 X973.774 Y1183.309 I-1.087 J-1.087
G1 Y1173.794
G2 X973.324 Y1172.707 I-1.537 J0.
G3 X975.392 Y1170.639 I1.034 J-1.034
G2 X976.479 Y1171.089 I1.087 J-1.087
G3 X976.787 Y1171.396 I0. J0.307
G1 Y1171.704
G19 G3 Y1172.011 Z-11.693 J0. K0.307
G1 X976.172
Z-14.693 F833.
G2 Y1171.704 Z-15. J-0.307 K0. F2500.
G1 Y1171.396
G17 G3 X976.479 Y1171.089 I0.308 J0.
G1 X997.994
G2 X999.081 Y1170.639 I0. J-1.537
G3 X1001.149 Y1172.707 I1.034 J1.034
G2 X1000.699 Y1173.794 I1.087 J1.087
G1 Y1183.309
G2 X1001.149 Y1184.396 I1.537 J0.
G3 X999.081 Y1186.464 I-1.034 J1.034
G2 X997.994 Y1186.014 I-1.087 J1.087
G1 X976.479
G2 X975.392 Y1186.464 I0. J1.538
G3 X973.324 Y1184.396 I-1.034 J-1.034
G2 X973.774 Y1183.309 I-1.087 J-1.087
G1 Y1173.794
G2 X973.324 Y1172.707 I-1.537 J0.
G3 X975.392 Y1170.639 I1.034 J-1.034
G2 X976.479 Y1171.089 I1.087 J-1.087
G3 X976.787 Y1171.396 I0. J0.307
G1 Y1171.704
G19 G3 Y1172.011 Z-14.693 J0. K0.307
G1 X976.172
Z-17.693 F833.
G2 Y1171.704 Z-18. J-0.307 K0. F2500.
G1 Y1171.396
G17 G3 X976.479 Y1171.089 I0.308 J0.
G1 X997.994
G2 X999.081 Y1170.639 I0. J-1.537
G3 X1001.149 Y1172.707 I1.034 J1.034
G2 X1000.699 Y1173.794 I1.087 J1.087
G1 Y1183.309
G2 X1001.149 Y1184.396 I1.537 J0.
G3 X999.081 Y1186.464 I-1.034 J1.034
G2 X997.994 Y1186.014 I-1.087 J1.087
G1 X976.479
G2 X975.392 Y1186.464 I0. J1.538
G3 X973.324 Y1184.396 I-1.034 J-1.034
G2 X973.774 Y1183.309 I-1.087 J-1.087
G1 Y1173.794
G2 X973.324 Y1172.707 I-1.537 J0.
G3 X975.392 Y1170.639 I1.034 J-1.034
G2 X976.479 Y1171.089 I1.087 J-1.087
G3 X976.787 Y1171.396 I0. J0.307
G1 Y1171.704
G19 G3 Y1172.011 Z-17.693 J0. K0.308
G0 Z5.
X597.66 Y1053.389
G1 Z2. F833.
Z-2.693
G18 G2 X597.968 Z-3. I0.307 K0. F2500.
G1 X598.275
G17 G3 X598.583 Y1053.697 I0. J0.307
X511.657 Y1053.696 I-43.463 J0.
X598.583 Y1053.697 I43.463 J0.
X598.275 Y1054.004 I-0.307 J0.
G1 X597.967
G18 G3 X597.66 Z-2.693 I0. K0.307
G1 Y1053.389
Z-5.693 F833.
G2 X597.968 Z-6. I0.307 K0. F2500.
G1 X598.275
G17 G3 X598.583 Y1053.697 I0. J0.307
X511.657 Y1053.696 I-43.463 J0.
X598.583 Y1053.697 I43.463 J0.
X598.275 Y1054.004 I-0.307 J0.
G1 X597.967
G18 G3 X597.66 Z-5.693 I0. K0.307
G1 Y1053.389
Z-8.693 F833.
G2 X597.968 Z-9. I0.307 K0. F2500.
G1 X598.275
G17 G3 X598.583 Y1053.697 I0. J0.307
X511.657 Y1053.696 I-43.463 J0.
X598.583 Y1053.697 I43.463 J0.
X598.275 Y1054.004 I-0.307 J0.
G1 X597.967
G18 G3 X597.66 Z-8.693 I0. K0.307
G1 Y1053.389
Z-11.693 F833.
G2 X597.968 Z-12. I0.307 K0. F2500.
G1 X598.275
G17 G3 X598.583 Y1053.697 I0. J0.307
X511.657 Y1053.696 I-43.463 J0.
X598.583 Y1053.697 I43.463 J0.
X598.275 Y1054.004 I-0.307 J0.
G1 X597.967
G18 G3 X597.66 Z-11.693 I0. K0.307
G1 Y1053.389
Z-14.693 F833.
G2 X597.968 Z-15. I0.307 K0. F2500.
G1 X598.275
G17 G3 X598.583 Y1053.697 I0. J0.307
X511.657 Y1053.696 I-43.463 J0.
X598.583 Y1053.697 I43.463 J0.
X598.275 Y1054.004 I-0.307 J0.
G1 X597.967
G18 G3 X597.66 Z-14.693 I0. K0.307
G1 Y1053.389
Z-17.693 F833.
G2 X597.968 Z-18. I0.307 K0. F2500.
G1 X598.275
G17 G3 X598.583 Y1053.697 I0. J0.307
X511.657 Y1053.696 I-43.463 J0.
X598.583 Y1053.697 I43.463 J0.
X598.275 Y1054.004 I-0.307 J0.
G1 X597.967
G18 G3 X597.66 Z-17.693 I0. K0.308
G0 Z5.
X567.658 Y1173.488
G1 Z2. F833.
Z-2.693
G2 X567.966 Z-3. I0.307 K0. F2500.
G1 X568.273
G17 G3 X568.581 Y1173.796 I0. J0.307
G1 Y1183.307
G2 X569.032 Y1184.395 I1.538 J0.
G3 X569.033 Y1186.464 I-1.033 J1.035
X566.965 I-1.035 J-1.034
G2 X565.877 Y1186.014 I-1.087 J1.087
G1 X544.363
G2 X543.275 Y1186.464 I0. J1.538
G3 X541.206 Y1184.397 I-1.034 J-1.034
G2 X541.656 Y1183.311 I-1.088 J-1.086
G1 Y1173.792
G2 X541.206 Y1172.706 I-1.537 J0.
G3 X543.275 Y1170.639 I1.035 J-1.033
G2 X544.363 Y1171.089 I1.087 J-1.087
G1 X565.877
G2 X566.965 Y1170.639 I0. J-1.537
G3 X569.033 I1.034 J1.034
X569.032 Y1172.708 I-1.035 J1.034
G2 X568.581 Y1173.796 I1.086 J1.088
G3 X568.273 Y1174.103 I-0.307 J0.
G1 X567.966
G18 G3 X567.658 Z-2.693 I0. K0.307
G1 Y1173.488
Z-5.693 F833.
G2 X567.966 Z-6. I0.307 K0. F2500.
G1 X568.273
G17 G3 X568.581 Y1173.796 I0. J0.307
G1 Y1183.307
G2 X569.032 Y1184.395 I1.538 J0.
G3 X569.033 Y1186.464 I-1.033 J1.035
X566.965 I-1.035 J-1.034
G2 X565.877 Y1186.014 I-1.087 J1.087
G1 X544.363
G2 X543.275 Y1186.464 I0. J1.538
G3 X541.206 Y1184.397 I-1.034 J-1.034
G2 X541.656 Y1183.311 I-1.088 J-1.086
G1 Y1173.792
G2 X541.206 Y1172.706 I-1.537 J0.
G3 X543.275 Y1170.639 I1.035 J-1.033
G2 X544.363 Y1171.089 I1.087 J-1.087
G1 X565.877
G2 X566.965 Y1170.639 I0. J-1.537
G3 X569.033 I1.034 J1.034
X569.032 Y1172.708 I-1.035 J1.034
G2 X568.581 Y1173.796 I1.086 J1.088
G3 X568.273 Y1174.103 I-0.307 J0.
G1 X567.966
G18 G3 X567.658 Z-5.693 I0. K0.307
G1 Y1173.488
Z-8.693 F833.
G2 X567.966 Z-9. I0.307 K0. F2500.
G1 X568.273
G17 G3 X568.581 Y1173.796 I0. J0.307
G1 Y1183.307
G2 X569.032 Y1184.395 I1.538 J0.
G3 X569.033 Y1186.464 I-1.033 J1.035
X566.965 I-1.035 J-1.034
G2 X565.877 Y1186.014 I-1.087 J1.087
G1 X544.363
G2 X543.275 Y1186.464 I0. J1.538
G3 X541.206 Y1184.397 I-1.034 J-1.034
G2 X541.656 Y1183.311 I-1.088 J-1.086
G1 Y1173.792
G2 X541.206 Y1172.706 I-1.537 J0.
G3 X543.275 Y1170.639 I1.035 J-1.033
G2 X544.363 Y1171.089 I1.087 J-1.087
G1 X565.877
G2 X566.965 Y1170.639 I0. J-1.537
G3 X569.033 I1.034 J1.034
X569.032 Y1172.708 I-1.035 J1.034
G2 X568.581 Y1173.796 I1.086 J1.088
G3 X568.273 Y1174.103 I-0.307 J0.
G1 X567.966
G18 G3 X567.658 Z-8.693 I0. K0.307
G1 Y1173.488
Z-11.693 F833.
G2 X567.966 Z-12. I0.307 K0. F2500.
G1 X568.273
G17 G3 X568.581 Y1173.796 I0. J0.307
G1 Y1183.307
G2 X569.032 Y1184.395 I1.538 J0.
G3 X569.033 Y1186.464 I-1.033 J1.035
X566.965 I-1.035 J-1.034
G2 X565.877 Y1186.014 I-1.087 J1.087
G1 X544.363
G2 X543.275 Y1186.464 I0. J1.538
G3 X541.206 Y1184.397 I-1.034 J-1.034
G2 X541.656 Y1183.311 I-1.088 J-1.086
G1 Y1173.792
G2 X541.206 Y1172.706 I-1.537 J0.
G3 X543.275 Y1170.639 I1.035 J-1.033
G2 X544.363 Y1171.089 I1.087 J-1.087
G1 X565.877
G2 X566.965 Y1170.639 I0. J-1.537
G3 X569.033 I1.034 J1.034
X569.032 Y1172.708 I-1.035 J1.034
G2 X568.581 Y1173.796 I1.086 J1.088
G3 X568.273 Y1174.103 I-0.307 J0.
G1 X567.966
G18 G3 X567.658 Z-11.693 I0. K0.307
G1 Y1173.488
Z-14.693 F833.
G2 X567.966 Z-15. I0.307 K0. F2500.
G1 X568.273
G17 G3 X568.581 Y1173.796 I0. J0.307
G1 Y1183.307
G2 X569.032 Y1184.395 I1.538 J0.
G3 X569.033 Y1186.464 I-1.033 J1.035
X566.965 I-1.035 J-1.034
G2 X565.877 Y1186.014 I-1.087 J1.087
G1 X544.363
G2 X543.275 Y1186.464 I0. J1.538
G3 X541.206 Y1184.397 I-1.034 J-1.034
G2 X541.656 Y1183.311 I-1.088 J-1.086
G1 Y1173.792
G2 X541.206 Y1172.706 I-1.537 J0.
G3 X543.275 Y1170.639 I1.035 J-1.033
G2 X544.363 Y1171.089 I1.087 J-1.087
G1 X565.877
G2 X566.965 Y1170.639 I0. J-1.537
G3 X569.033 I1.034 J1.034
X569.032 Y1172.708 I-1.035 J1.034
G2 X568.581 Y1173.796 I1.086 J1.088
G3 X568.273 Y1174.103 I-0.307 J0.
G1 X567.966
G18 G3 X567.658 Z-14.693 I0. K0.307
G1 Y1173.488
Z-17.693 F833.
G2 X567.966 Z-18. I0.307 K0. F2500.
G1 X568.273
G17 G3 X568.581 Y1173.796 I0. J0.307
G1 Y1183.307
G2 X569.032 Y1184.395 I1.538 J0.
G3 X569.033 Y1186.464 I-1.033 J1.035
X566.965 I-1.035 J-1.034
G2 X565.877 Y1186.014 I-1.087 J1.087
G1 X544.363
G2 X543.275 Y1186.464 I0. J1.538
G3 X541.206 Y1184.397 I-1.034 J-1.034
G2 X541.656 Y1183.311 I-1.088 J-1.086
G1 Y1173.792
G2 X541.206 Y1172.706 I-1.537 J0.
G3 X543.275 Y1170.639 I1.035 J-1.033
G2 X544.363 Y1171.089 I1.087 J-1.087
G1 X565.877
G2 X566.965 Y1170.639 I0. J-1.537
G3 X569.033 I1.034 J1.034
X569.032 Y1172.708 I-1.035 J1.034
G2 X568.581 Y1173.796 I1.086 J1.088
G3 X568.273 Y1174.103 I-0.307 J0.
G1 X567.966
G18 G3 X567.658 Z-17.693 I0. K0.308
G0 Z5.
X337.658 Y1173.488
G1 Z2. F833.
Z-2.693
G2 X337.966 Z-3. I0.307 K0. F2500.
G1 X338.273
G17 G3 X338.581 Y1173.796 I0. J0.307
G1 Y1183.307
G2 X339.032 Y1184.395 I1.538 J0.
G3 X339.033 Y1186.464 I-1.033 J1.035
X336.965 I-1.035 J-1.034
G2 X335.877 Y1186.014 I-1.087 J1.087
G1 X314.363
G2 X313.275 Y1186.464 I0. J1.538
G3 X311.206 Y1184.397 I-1.034 J-1.034
G2 X311.656 Y1183.311 I-1.088 J-1.086
G1 Y1173.792
G2 X311.206 Y1172.706 I-1.538 J0.
G3 X313.275 Y1170.639 I1.035 J-1.033
G2 X314.363 Y1171.089 I1.087 J-1.087
G1 X335.877
G2 X336.964 Y1170.639 I0. J-1.537
G3 X339.033 I1.035 J1.034
X339.032 Y1172.708 I-1.034 J1.034
G2 X338.581 Y1173.796 I1.086 J1.088
G3 X338.273 Y1174.103 I-0.307 J0.
G1 X337.966
G18 G3 X337.658 Z-2.693 I0. K0.307
G1 Y1173.488
Z-5.693 F833.
G2 X337.966 Z-6. I0.307 K0. F2500.
G1 X338.273
G17 G3 X338.581 Y1173.796 I0. J0.307
G1 Y1183.307
G2 X339.032 Y1184.395 I1.538 J0.
G3 X339.033 Y1186.464 I-1.033 J1.035
X336.965 I-1.035 J-1.034
G2 X335.877 Y1186.014 I-1.087 J1.087
G1 X314.363
G2 X313.275 Y1186.464 I0. J1.538
G3 X311.206 Y1184.397 I-1.034 J-1.034
G2 X311.656 Y1183.311 I-1.088 J-1.086
G1 Y1173.792
G2 X311.206 Y1172.706 I-1.538 J0.
G3 X313.275 Y1170.639 I1.035 J-1.033
G2 X314.363 Y1171.089 I1.087 J-1.087
G1 X335.877
G2 X336.964 Y1170.639 I0. J-1.537
G3 X339.033 I1.035 J1.034
X339.032 Y1172.708 I-1.034 J1.034
G2 X338.581 Y1173.796 I1.086 J1.088
G3 X338.273 Y1174.103 I-0.307 J0.
G1 X337.966
G18 G3 X337.658 Z-5.693 I0. K0.307
G1 Y1173.488
Z-8.693 F833.
G2 X337.966 Z-9. I0.307 K0. F2500.
G1 X338.273
G17 G3 X338.581 Y1173.796 I0. J0.307
G1 Y1183.307
G2 X339.032 Y1184.395 I1.538 J0.
G3 X339.033 Y1186.464 I-1.033 J1.035
X336.965 I-1.035 J-1.034
G2 X335.877 Y1186.014 I-1.087 J1.087
G1 X314.363
G2 X313.275 Y1186.464 I0. J1.538
G3 X311.206 Y1184.397 I-1.034 J-1.034
G2 X311.656 Y1183.311 I-1.088 J-1.086
G1 Y1173.792
G2 X311.206 Y1172.706 I-1.538 J0.
G3 X313.275 Y1170.639 I1.035 J-1.033
G2 X314.363 Y1171.089 I1.087 J-1.087
G1 X335.877
G2 X336.964 Y1170.639 I0. J-1.537
G3 X339.033 I1.035 J1.034
X339.032 Y1172.708 I-1.034 J1.034
G2 X338.581 Y1173.796 I1.086 J1.088
G3 X338.273 Y1174.103 I-0.307 J0.
G1 X337.966
G18 G3 X337.658 Z-8.693 I0. K0.307
G1 Y1173.488
Z-11.693 F833.
G2 X337.966 Z-12. I0.307 K0. F2500.
G1 X338.273
G17 G3 X338.581 Y1173.796 I0. J0.307
G1 Y1183.307
G2 X339.032 Y1184.395 I1.538 J0.
G3 X339.033 Y1186.464 I-1.033 J1.035
X336.965 I-1.035 J-1.034
G2 X335.877 Y1186.014 I-1.087 J1.087
G1 X314.363
G2 X313.275 Y1186.464 I0. J1.538
G3 X311.206 Y1184.397 I-1.034 J-1.034
G2 X311.656 Y1183.311 I-1.088 J-1.086
G1 Y1173.792
G2 X311.206 Y1172.706 I-1.538 J0.
G3 X313.275 Y1170.639 I1.035 J-1.033
G2 X314.363 Y1171.089 I1.087 J-1.087
G1 X335.877
G2 X336.964 Y1170.639 I0. J-1.537
G3 X339.033 I1.035 J1.034
X339.032 Y1172.708 I-1.034 J1.034
G2 X338.581 Y1173.796 I1.086 J1.088
G3 X338.273 Y1174.103 I-0.307 J0.
G1 X337.966
G18 G3 X337.658 Z-11.693 I0. K0.307
G1 Y1173.488
Z-14.693 F833.
G2 X337.966 Z-15. I0.307 K0. F2500.
G1 X338.273
G17 G3 X338.581 Y1173.796 I0. J0.307
G1 Y1183.307
G2 X339.032 Y1184.395 I1.538 J0.
G3 X339.033 Y1186.464 I-1.033 J1.035
X336.965 I-1.035 J-1.034
G2 X335.877 Y1186.014 I-1.087 J1.087
G1 X314.363
G2 X313.275 Y1186.464 I0. J1.538
G3 X311.206 Y1184.397 I-1.034 J-1.034
G2 X311.656 Y1183.311 I-1.088 J-1.086
G1 Y1173.792
G2 X311.206 Y1172.706 I-1.538 J0.
G3 X313.275 Y1170.639 I1.035 J-1.033
G2 X314.363 Y1171.089 I1.087 J-1.087
G1 X335.877
G2 X336.964 Y1170.639 I0. J-1.537
G3 X339.033 I1.035 J1.034
X339.032 Y1172.708 I-1.034 J1.034
G2 X338.581 Y1173.796 I1.086 J1.088
G3 X338.273 Y1174.103 I-0.307 J0.
G1 X337.966
G18 G3 X337.658 Z-14.693 I0. K0.307
G1 Y1173.488
Z-17.693 F833.
G2 X337.966 Z-18. I0.307 K0. F2500.
G1 X338.273
G17 G3 X338.581 Y1173.796 I0. J0.307
G1 Y1183.307
G2 X339.032 Y1184.395 I1.538 J0.
G3 X339.033 Y1186.464 I-1.033 J1.035
X336.965 I-1.035 J-1.034
G2 X335.877 Y1186.014 I-1.087 J1.087
G1 X314.363
G2 X313.275 Y1186.464 I0. J1.538
G3 X311.206 Y1184.397 I-1.034 J-1.034
G2 X311.656 Y1183.311 I-1.088 J-1.086
G1 Y1173.792
G2 X311.206 Y1172.706 I-1.538 J0.
G3 X313.275 Y1170.639 I1.035 J-1.033
G2 X314.363 Y1171.089 I1.087 J-1.087
G1 X335.877
G2 X336.964 Y1170.639 I0. J-1.537
G3 X339.033 I1.035 J1.034
X339.032 Y1172.708 I-1.034 J1.034
G2 X338.581 Y1173.796 I1.086 J1.088
G3 X338.273 Y1174.103 I-0.307 J0.
G1 X337.966
G18 G3 X337.658 Z-17.693 I0. K0.308
G0 Z5.
X153.54 Y1134.351
G1 Z2. F833.
Z-2.693
G2 X153.848 Z-3. I0.308 K0. F2500.
G1 X154.155
G17 G3 X154.462 Y1134.659 I0. J0.307
G2 X154.913 Y1135.746 I1.538 J0.
G3 X152.845 Y1137.814 I-1.034 J1.034
G2 X151.757 Y1137.364 I-1.087 J1.087
G1 X110.243
G2 X109.155 Y1137.814 I0. J1.537
G3 X107.087 Y1135.746 I-1.034 J-1.034
G2 X107.537 Y1134.659 I-1.087 J-1.087
G1 Y1125.144
G2 X107.087 Y1124.057 I-1.537 J0.
G3 X109.155 Y1121.989 I1.034 J-1.034
G2 X110.243 Y1122.439 I1.087 J-1.087
G1 X151.757
G2 X152.845 Y1121.989 I0. J-1.537
G3 X154.913 Y1124.057 I1.034 J1.034
G2 X154.462 Y1125.144 I1.087 J1.087
G1 Y1134.659
G3 X154.155 Y1134.966 I-0.307 J0.
G1 X153.848
G18 G3 X153.54 Z-2.693 I0. K0.307
G1 Y1134.351
Z-5.693 F833.
G2 X153.848 Z-6. I0.308 K0. F2500.
G1 X154.155
G17 G3 X154.462 Y1134.659 I0. J0.307
G2 X154.913 Y1135.746 I1.538 J0.
G3 X152.845 Y1137.814 I-1.034 J1.034
G2 X151.757 Y1137.364 I-1.087 J1.087
G1 X110.243
G2 X109.155 Y1137.814 I0. J1.537
G3 X107.087 Y1135.746 I-1.034 J-1.034
G2 X107.537 Y1134.659 I-1.087 J-1.087
G1 Y1125.144
G2 X107.087 Y1124.057 I-1.537 J0.
G3 X109.155 Y1121.989 I1.034 J-1.034
G2 X110.243 Y1122.439 I1.087 J-1.087
G1 X151.757
G2 X152.845 Y1121.989 I0. J-1.537
G3 X154.913 Y1124.057 I1.034 J1.034
G2 X154.462 Y1125.144 I1.087 J1.087
G1 Y1134.659
G3 X154.155 Y1134.966 I-0.307 J0.
G1 X153.848
G18 G3 X153.54 Z-5.693 I0. K0.307
G1 Y1134.351
Z-8.693 F833.
G2 X153.848 Z-9. I0.308 K0. F2500.
G1 X154.155
G17 G3 X154.462 Y1134.659 I0. J0.307
G2 X154.913 Y1135.746 I1.538 J0.
G3 X152.845 Y1137.814 I-1.034 J1.034
G2 X151.757 Y1137.364 I-1.087 J1.087
G1 X110.243
G2 X109.155 Y1137.814 I0. J1.537
G3 X107.087 Y1135.746 I-1.034 J-1.034
G2 X107.537 Y1134.659 I-1.087 J-1.087
G1 Y1125.144
G2 X107.087 Y1124.057 I-1.537 J0.
G3 X109.155 Y1121.989 I1.034 J-1.034
G2 X110.243 Y1122.439 I1.087 J-1.087
G1 X151.757
G2 X152.845 Y1121.989 I0. J-1.537
G3 X154.913 Y1124.057 I1.034 J1.034
G2 X154.462 Y1125.144 I1.087 J1.087
G1 Y1134.659
G3 X154.155 Y1134.966 I-0.307 J0.
G1 X153.848
G18 G3 X153.54 Z-8.693 I0. K0.307
G1 Y1134.351
Z-11.693 F833.
G2 X153.848 Z-12. I0.308 K0. F2500.
G1 X154.155
G17 G3 X154.462 Y1134.659 I0. J0.307
G2 X154.913 Y1135.746 I1.538 J0.
G3 X152.845 Y1137.814 I-1.034 J1.034
G2 X151.757 Y1137.364 I-1.087 J1.087
G1 X110.243
G2 X109.155 Y1137.814 I0. J1.537
G3 X107.087 Y1135.746 I-1.034 J-1.034
G2 X107.537 Y1134.659 I-1.087 J-1.087
G1 Y1125.144
G2 X107.087 Y1124.057 I-1.537 J0.
G3 X109.155 Y1121.989 I1.034 J-1.034
G2 X110.243 Y1122.439 I1.087 J-1.087
G1 X151.757
G2 X152.845 Y1121.989 I0. J-1.537
G3 X154.913 Y1124.057 I1.034 J1.034
G2 X154.462 Y1125.144 I1.087 J1.087
G1 Y1134.659
G3 X154.155 Y1134.966 I-0.307 J0.
G1 X153.848
G18 G3 X153.54 Z-11.693 I0. K0.307
G1 Y1134.351
Z-14.693 F833.
G2 X153.848 Z-15. I0.308 K0. F2500.
G1 X154.155
G17 G3 X154.462 Y1134.659 I0. J0.307
G2 X154.913 Y1135.746 I1.538 J0.
G3 X152.845 Y1137.814 I-1.034 J1.034
G2 X151.757 Y1137.364 I-1.087 J1.087
G1 X110.243
G2 X109.155 Y1137.814 I0. J1.537
G3 X107.087 Y1135.746 I-1.034 J-1.034
G2 X107.537 Y1134.659 I-1.087 J-1.087
G1 Y1125.144
G2 X107.087 Y1124.057 I-1.537 J0.
G3 X109.155 Y1121.989 I1.034 J-1.034
G2 X110.243 Y1122.439 I1.087 J-1.087
G1 X151.757
G2 X152.845 Y1121.989 I0. J-1.537
G3 X154.913 Y1124.057 I1.034 J1.034
G2 X154.462 Y1125.144 I1.087 J1.087
G1 Y1134.659
G3 X154.155 Y1134.966 I-0.307 J0.
G1 X153.848
G18 G3 X153.54 Z-14.693 I0. K0.307
G1 Y1134.351
Z-17.693 F833.
G2 X153.848 Z-18. I0.308 K0. F2500.
G1 X154.155
G17 G3 X154.462 Y1134.659 I0. J0.307
G2 X154.913 Y1135.746 I1.538 J0.
G3 X152.845 Y1137.814 I-1.034 J1.034
G2 X151.757 Y1137.364 I-1.087 J1.087
G1 X110.243
G2 X109.155 Y1137.814 I0. J1.537
G3 X107.087 Y1135.746 I-1.034 J-1.034
G2 X107.537 Y1134.659 I-1.087 J-1.087
G1 Y1125.144
G2 X107.087 Y1124.057 I-1.537 J0.
G3 X109.155 Y1121.989 I1.034 J-1.034
G2 X110.243 Y1122.439 I1.087 J-1.087
G1 X151.757
G2 X152.845 Y1121.989 I0. J-1.537
G3 X154.913 Y1124.057 I1.034 J1.034
G2 X154.462 Y1125.144 I1.087 J1.087
G1 Y1134.659
G3 X154.155 Y1134.966 I-0.307 J0.
G1 X153.848
G18 G3 X153.54 Z-17.693 I0. K0.308
G0 Z5.
X116.692 Y1172.011
G1 Z2. F833.
Z-2.693
G19 G2 Y1171.704 Z-3. J-0.307 K0. F2500.
G1 Y1171.396
G17 G3 X117. Y1171.089 I0.308 J0.
G1 X133.757
G2 X134.845 Y1170.639 I0. J-1.537
G3 X136.913 Y1172.707 I1.034 J1.034
G2 X136.462 Y1173.794 I1.087 J1.087
G1 Y1183.309
G2 X136.913 Y1184.396 I1.538 J0.
G3 X134.845 Y1186.464 I-1.034 J1.034
G2 X133.757 Y1186.014 I-1.087 J1.087
G1 X112.243
G2 X111.155 Y1186.464 I0. J1.538
G3 X109.087 Y1184.396 I-1.034 J-1.034
G2 X109.537 Y1183.309 I-1.087 J-1.087
G1 Y1173.794
G2 X109.087 Y1172.707 I-1.537 J0.
G3 X111.155 Y1170.639 I1.034 J-1.034
G2 X112.243 Y1171.089 I1.087 J-1.087
G1 X117.
G3 X117.308 Y1171.396 I0. J0.307
G1 Y1171.704
G19 G3 Y1172.011 Z-2.693 J0. K0.307
G1 X116.692
Z-5.693 F833.
G2 Y1171.704 Z-6. J-0.307 K0. F2500.
G1 Y1171.396
G17 G3 X117. Y1171.089 I0.308 J0.
G1 X133.757
G2 X134.845 Y1170.639 I0. J-1.537
G3 X136.913 Y1172.707 I1.034 J1.034
G2 X136.462 Y1173.794 I1.087 J1.087
G1 Y1183.309
G2 X136.913 Y1184.396 I1.538 J0.
G3 X134.845 Y1186.464 I-1.034 J1.034
G2 X133.757 Y1186.014 I-1.087 J1.087
G1 X112.243
G2 X111.155 Y1186.464 I0. J1.538
G3 X109.087 Y1184.396 I-1.034 J-1.034
G2 X109.537 Y1183.309 I-1.087 J-1.087
G1 Y1173.794
G2 X109.087 Y1172.707 I-1.537 J0.
G3 X111.155 Y1170.639 I1.034 J-1.034
G2 X112.243 Y1171.089 I1.087 J-1.087
G1 X117.
G3 X117.308 Y1171.396 I0. J0.307
G1 Y1171.704
G19 G3 Y1172.011 Z-5.693 J0. K0.307
G1 X116.692
Z-8.693 F833.
G2 Y1171.704 Z-9. J-0.307 K0. F2500.
G1 Y1171.396
G17 G3 X117. Y1171.089 I0.308 J0.
G1 X133.757
G2 X134.845 Y1170.639 I0. J-1.537
G3 X136.913 Y1172.707 I1.034 J1.034
G2 X136.462 Y1173.794 I1.087 J1.087
G1 Y1183.309
G2 X136.913 Y1184.396 I1.538 J0.
G3 X134.845 Y1186.464 I-1.034 J1.034
G2 X133.757 Y1186.014 I-1.087 J1.087
G1 X112.243
G2 X111.155 Y1186.464 I0. J1.538
G3 X109.087 Y1184.396 I-1.034 J-1.034
G2 X109.537 Y1183.309 I-1.087 J-1.087
G1 Y1173.794
G2 X109.087 Y1172.707 I-1.537 J0.
G3 X111.155 Y1170.639 I1.034 J-1.034
G2 X112.243 Y1171.089 I1.087 J-1.087
G1 X117.
G3 X117.308 Y1171.396 I0. J0.307
G1 Y1171.704
G19 G3 Y1172.011 Z-8.693 J0. K0.307
G1 X116.692
Z-11.693 F833.
G2 Y1171.704 Z-12. J-0.307 K0. F2500.
G1 Y1171.396
G17 G3 X117. Y1171.089 I0.308 J0.
G1 X133.757
G2 X134.845 Y1170.639 I0. J-1.537
G3 X136.913 Y1172.707 I1.034 J1.034
G2 X136.462 Y1173.794 I1.087 J1.087
G1 Y1183.309
G2 X136.913 Y1184.396 I1.538 J0.
G3 X134.845 Y1186.464 I-1.034 J1.034
G2 X133.757 Y1186.014 I-1.087 J1.087
G1 X112.243
G2 X111.155 Y1186.464 I0. J1.538
G3 X109.087 Y1184.396 I-1.034 J-1.034
G2 X109.537 Y1183.309 I-1.087 J-1.087
G1 Y1173.794
G2 X109.087 Y1172.707 I-1.537 J0.
G3 X111.155 Y1170.639 I1.034 J-1.034
G2 X112.243 Y1171.089 I1.087 J-1.087
G1 X117.
G3 X117.308 Y1171.396 I0. J0.307
G1 Y1171.704
G19 G3 Y1172.011 Z-11.693 J0. K0.307
G1 X116.692
Z-14.693 F833.
G2 Y1171.704 Z-15. J-0.307 K0. F2500.
G1 Y1171.396
G17 G3 X117. Y1171.089 I0.308 J0.
G1 X133.757
G2 X134.845 Y1170.639 I0. J-1.537
G3 X136.913 Y1172.707 I1.034 J1.034
G2 X136.462 Y1173.794 I1.087 J1.087
G1 Y1183.309
G2 X136.913 Y1184.396 I1.538 J0.
G3 X134.845 Y1186.464 I-1.034 J1.034
G2 X133.757 Y1186.014 I-1.087 J1.087
G1 X112.243
G2 X111.155 Y1186.464 I0. J1.538
G3 X109.087 Y1184.396 I-1.034 J-1.034
G2 X109.537 Y1183.309 I-1.087 J-1.087
G1 Y1173.794
G2 X109.087 Y1172.707 I-1.537 J0.
G3 X111.155 Y1170.639 I1.034 J-1.034
G2 X112.243 Y1171.089 I1.087 J-1.087
G1 X117.
G3 X117.308 Y1171.396 I0. J0.307
G1 Y1171.704
G19 G3 Y1172.011 Z-14.693 J0. K0.307
G1 X116.692
Z-17.693 F833.
G2 Y1171.704 Z-18. J-0.307 K0. F2500.
G1 Y1171.396
G17 G3 X117. Y1171.089 I0.308 J0.
G1 X133.757
G2 X134.845 Y1170.639 I0. J-1.537
G3 X136.913 Y1172.707 I1.034 J1.034
G2 X136.462 Y1173.794 I1.087 J1.087
G1 Y1183.309
G2 X136.913 Y1184.396 I1.538 J0.
G3 X134.845 Y1186.464 I-1.034 J1.034
G2 X133.757 Y1186.014 I-1.087 J1.087
G1 X112.243
G2 X111.155 Y1186.464 I0. J1.538
G3 X109.087 Y1184.396 I-1.034 J-1.034
G2 X109.537 Y1183.309 I-1.087 J-1.087
G1 Y1173.794
G2 X109.087 Y1172.707 I-1.537 J0.
G3 X111.155 Y1170.639 I1.034 J-1.034
G2 X112.243 Y1171.089 I1.087 J-1.087
G1 X117.
G3 X117.308 Y1171.396 I0. J0.307
G1 Y1171.704
G19 G3 Y1172.011 Z-17.693 J0. K0.308
G0 Z15.
G17

(2D CONTOUR2)
G0 X533.742 Y1361.361
Z15.
Z5.
G1 Z2. F833.
Z-2.693
G19 G2 Y1361.054 Z-3. J-0.307 K0. F2500.
G1 Y1360.746
G17 G3 X534.049 Y1360.439 I0.307 J0.
G1 X1102.237
G2 X1103.774 Y1358.901 I0. J-1.537
G1 Y1308.901
G2 X1102.237 Y1307.364 I-1.537 J0.
G1 X1088.479
G2 X1087.392 Y1307.814 I0. J1.537
G3 X1085.324 I-1.034 J-1.034
Y1305.746 I1.034 J-1.034
G2 X1085.774 Y1304.659 I-1.087 J-1.087
G1 Y1263.144
G2 X1085.324 Y1262.057 I-1.537 J0.
G3 X1087.392 Y1259.989 I1.034 J-1.034
G2 X1088.479 Y1260.439 I1.087 J-1.087
G1 X1102.237
G2 X1103.774 Y1258.901 I0. J-1.537
G1 Y1058.901
G2 X1102.237 Y1057.364 I-1.537 J0.
G1 X1088.479
G2 X1087.392 Y1057.814 I0. J1.537
G3 X1085.324 I-1.034 J-1.034
Y1055.746 I1.034 J-1.034
G2 X1085.774 Y1054.659 I-1.087 J-1.087
G1 Y1013.144
G2 X1085.324 Y1012.057 I-1.537 J0.
G3 Y1009.989 I1.034 J-1.034
X1087.392 I1.034 J1.034
G2 X1088.479 Y1010.439 I1.087 J-1.087
G1 X1102.237
G2 X1103.774 Y1008.901 I0. J-1.537
G1 Y958.901
G2 X1102.237 Y957.364 I-1.537 J0.
G1 X984.237
G2 X982.699 Y958.901 I0. J1.538
G1 Y973.901
G2 X984.237 Y975.439 I1.537 J0.
G3 Y978.364 I0. J1.463
X982.774 Y976.901 I0. J-1.463
G2 X981.237 Y975.364 I-1.537 J0.
G1 X937.237
G2 X935.699 Y976.901 I0. J1.538
G3 X932.774 I-1.463 J0.
X934.237 Y975.439 I1.463 J0.
G2 X935.774 Y973.901 I0. J-1.537
G1 Y958.901
G2 X934.237 Y957.364 I-1.537 J0.
G1 X580.118
G2 X578.581 Y958.901 I0. J1.538
G1 Y973.901
G2 X580.119 Y975.439 I1.538 J0.
G3 X580.121 Y978.364 I0.001 J1.463
X578.657 Y976.901 I-0.001 J-1.463
G2 X577.12 Y975.364 I-1.537 J0.
G1 X533.12
G2 X531.583 Y976.901 I0. J1.538
G3 X528.657 I-1.463 J0.
X530.119 Y975.439 I1.463 J0.
G2 X531.656 Y973.901 I-0.001 J-1.537
G1 Y958.901
G2 X530.118 Y957.364 I-1.537 J0.
G1 X176.
G2 X174.462 Y958.901 I0. J1.538
G1 Y973.901
G2 X176. Y975.439 I1.538 J0.
G3 Y978.364 I0. J1.463
X174.538 Y976.901 I0. J-1.463
G2 X173. Y975.364 I-1.538 J0.
G1 X129.
G2 X127.463 Y976.901 I0. J1.538
G3 X124.537 I-1.463 J0.
X126. Y975.439 I1.463 J0.
G2 X127.537 Y973.901 I0. J-1.537
G1 Y958.901
G2 X126. Y957.364 I-1.537 J0.
G1 X8.
G2 X6.463 Y958.901 I0. J1.538
G1 Y1008.901
G2 X8. Y1010.439 I1.537 J0.
G1 X21.757
G2 X22.845 Y1009.989 I0. J-1.537
G3 X24.913 I1.034 J1.034
Y1012.057 I-1.034 J1.034
G2 X24.462 Y1013.144 I1.087 J1.087
G1 Y1054.659
G2 X24.913 Y1055.746 I1.538 J0.
G3 X22.845 Y1057.814 I-1.034 J1.034
G2 X21.757 Y1057.364 I-1.087 J1.087
G1 X8.
G2 X6.463 Y1058.901 I0. J1.537
G1 Y1258.901
G2 X8. Y1260.439 I1.537 J0.
G1 X21.757
G2 X22.845 Y1259.989 I0. J-1.537
G3 X24.913 Y1262.057 I1.034 J1.034
G2 X24.462 Y1263.144 I1.087 J1.087
G1 Y1304.659
G2 X24.913 Y1305.746 I1.538 J0.
G3 X22.845 Y1307.814 I-1.034 J1.034
G2 X21.757 Y1307.364 I-1.087 J1.087
G1 X8.
G2 X6.463 Y1308.901 I0. J1.537
G1 Y1358.901
G2 X8. Y1360.439 I1.537 J0.
G1 X534.049
G3 X534.357 Y1360.746 I0. J0.307
G1 Y1361.054
G19 G3 Y1361.361 Z-2.693 J0. K0.307
G1 Y1378.442
G3 Y1378.749 Z-3. J0.307 K0.
G1 Y1379.057
G17 G3 X534.049 Y1379.364 I-0.307 J0.
G1 X527.292
G2 X526.205 Y1379.814 I0. J1.537
G3 X524.136 Y1377.746 I-1.034 J-1.034
G2 X524.587 Y1376.659 I-1.087 J-1.087
G1 Y1362.901
G2 X523.049 Y1361.364 I-1.538 J0.
G1 X473.049
G2 X471.512 Y1362.901 I0. J1.537
G1 Y1376.659
G2 X471.962 Y1377.746 I1.538 J0.
G3 X469.894 Y1379.814 I-1.034 J1.034
G2 X468.807 Y1379.364 I-1.087 J1.087
G1 X228.341
G2 X227.254 Y1379.814 I0. J1.537
G3 X225.186 Y1377.746 I-1.034 J-1.034
G2 X225.636 Y1376.659 I-1.087 J-1.087
G1 Y1362.901
G2 X224.099 Y1361.364 I-1.538 J0.
G1 X174.099
G2 X172.561 Y1362.901 I0. J1.537
G1 Y1376.659
G2 X173.011 Y1377.746 I1.537 J0.
G3 X170.943 Y1379.814 I-1.034 J1.034
G2 X169.856 Y1379.364 I-1.087 J1.087
G1 X44.099
G2 X42.561 Y1380.901 I0. J1.537
G1 Y1456.659
G2 X43.011 Y1457.746 I1.538 J0.
G3 X40.943 Y1459.814 I-1.034 J1.034
G2 X39.856 Y1459.364 I-1.087 J1.087
G1 X26.099
G2 X24.561 Y1460.901 I0. J1.537
G1 Y1510.901
G2 X26.099 Y1512.439 I1.538 J0.
G1 X970.
G2 X971.537 Y1510.901 I0. J-1.537
G1 Y1460.901
G2 X970. Y1459.364 I-1.537 J0.
G1 X956.243
G2 X955.155 Y1459.814 I0. J1.537
G3 X953.087 Y1457.746 I-1.034 J-1.034
G2 X953.537 Y1456.659 I-1.087 J-1.087
G1 Y1380.901
G2 X952. Y1379.364 I-1.537 J0.
G1 X826.243
G2 X825.155 Y1379.814 I0. J1.537
G3 X823.087 Y1377.746 I-1.034 J-1.034
G2 X823.537 Y1376.659 I-1.087 J-1.087
G1 Y1362.901
G2 X822. Y1361.364 I-1.537 J0.
G1 X772.
G2 X770.463 Y1362.901 I0. J1.537
G1 Y1376.659
G2 X770.913 Y1377.746 I1.537 J0.
G3 X768.845 Y1379.814 I-1.034 J1.034
G2 X767.757 Y1379.364 I-1.087 J1.087
G1 X534.049
G3 X533.742 Y1379.057 I0. J-0.307
G1 Y1378.749
G19 G2 Y1378.442 Z-2.693 J0. K0.307
G1 X527.599
Z-5.693 F833.
G3 Y1378.749 Z-6. J0.307 K0. F2500.
G1 Y1379.057
G17 G3 X527.292 Y1379.364 I-0.307 J0.
G2 X526.205 Y1379.814 I0. J1.537
G3 X524.136 Y1377.746 I-1.034 J-1.034
G2 X524.587 Y1376.659 I-1.087 J-1.087
G1 Y1362.901
G2 X523.049 Y1361.364 I-1.538 J0.
G1 X473.049
G2 X471.512 Y1362.901 I0. J1.537
G1 Y1376.659
G2 X471.962 Y1377.746 I1.538 J0.
G3 X469.894 Y1379.814 I-1.034 J1.034
G2 X468.807 Y1379.364 I-1.087 J1.087
G1 X228.341
G2 X227.254 Y1379.814 I0. J1.537
G3 X225.186 Y1377.746 I-1.034 J-1.034
G2 X225.636 Y1376.659 I-1.087 J-1.087
G1 Y1362.901
G2 X224.099 Y1361.364 I-1.538 J0.
G1 X174.099
G2 X172.561 Y1362.901 I0. J1.537
G1 Y1376.659
G2 X173.011 Y1377.746 I1.537 J0.
G3 X170.943 Y1379.814 I-1.034 J1.034
G2 X169.856 Y1379.364 I-1.087 J1.087
G1 X44.099
G2 X42.561 Y1380.901 I0. J1.537
G1 Y1456.659
G2 X43.011 Y1457.746 I1.538 J0.
G3 X40.943 Y1459.814 I-1.034 J1.034
G2 X39.856 Y1459.364 I-1.087 J1.087
G1 X26.099
G2 X24.561 Y1460.901 I0. J1.537
G1 Y1510.901
G2 X26.099 Y1512.439 I1.538 J0.
G1 X970.
G2 X971.537 Y1510.901 I0. J-1.537
G1 Y1460.901
G2 X970. Y1459.364 I-1.537 J0.
G1 X956.243
G2 X955.155 Y1459.814 I0. J1.537
G3 X953.087 Y1457.746 I-1.034 J-1.034
G2 X953.537 Y1456.659 I-1.087 J-1.087
G1 Y1380.901
G2 X952. Y1379.364 I-1.537 J0.
G1 X826.243
G2 X825.155 Y1379.814 I0. J1.537
G3 X823.087 Y1377.746 I-1.034 J-1.034
G2 X823.537 Y1376.659 I-1.087 J-1.087
G1 Y1362.901
G2 X822. Y1361.364 I-1.537 J0.
G1 X772.
G2 X770.463 Y1362.901 I0. J1.537
G1 Y1376.659
G2 X770.913 Y1377.746 I1.537 J0.
G3 X768.845 Y1379.814 I-1.034 J1.034
G2 X767.757 Y1379.364 I-1.087 J1.087
G1 X527.292
G3 X526.984 Y1379.057 I0. J-0.307
G1 Y1378.749
G19 G2 Y1378.442 Z-5.693 J0. K0.307
G1 X533.742 Y1361.361
G2 Y1361.054 Z-6. J-0.307 K0.
G1 Y1360.746
G17 G3 X534.049 Y1360.439 I0.307 J0.
G1 X1102.237
G2 X1103.774 Y1358.901 I0. J-1.537
G1 Y1308.901
G2 X1102.237 Y1307.364 I-1.537 J0.
G1 X1088.479
G2 X1087.392 Y1307.814 I0. J1.537
G3 X1085.324 I-1.034 J-1.034
Y1305.746 I1.034 J-1.034
G2 X1085.774 Y1304.659 I-1.087 J-1.087
G1 Y1263.144
G2 X1085.324 Y1262.057 I-1.537 J0.
G3 X1087.392 Y1259.989 I1.034 J-1.034
G2 X1088.479 Y1260.439 I1.087 J-1.087
G1 X1102.237
G2 X1103.774 Y1258.901 I0. J-1.537
G1 Y1058.901
G2 X1102.237 Y1057.364 I-1.537 J0.
G1 X1088.479
G2 X1087.392 Y1057.814 I0. J1.537
G3 X1085.324 I-1.034 J-1.034
Y1055.746 I1.034 J-1.034
G2 X1085.774 Y1054.659 I-1.087 J-1.087
G1 Y1013.144
G2 X1085.324 Y1012.057 I-1.537 J0.
G3 Y1009.989 I1.034 J-1.034
X1087.392 I1.034 J1.034
G2 X1088.479 Y1010.439 I1.087 J-1.087
G1 X1102.237
G2 X1103.774 Y1008.901 I0. J-1.537
G1 Y958.901
G2 X1102.237 Y957.364 I-1.537 J0.
G1 X984.237
G2 X982.699 Y958.901 I0. J1.538
G1 Y973.901
G2 X984.237 Y975.439 I1.537 J0.
G3 Y978.364 I0. J1.463
X982.774 Y976.901 I0. J-1.463
G2 X981.237 Y975.364 I-1.537 J0.
G1 X937.237
G2 X935.699 Y976.901 I0. J1.538
G3 X932.774 I-1.463 J0.
X934.237 Y975.439 I1.463 J0.
G2 X935.774 Y973.901 I0. J-1.537
G1 Y958.901
G2 X934.237 Y957.364 I-1.537 J0.
G1 X580.118
G2 X578.581 Y958.901 I0. J1.538
G1 Y973.901
G2 X580.119 Y975.439 I1.538 J0.
G3 X580.121 Y978.364 I0.001 J1.463
X578.657 Y976.901 I-0.001 J-1.463
G2 X577.12 Y975.364 I-1.537 J0.
G1 X533.12
G2 X531.583 Y976.901 I0. J1.538
G3 X528.657 I-1.463 J0.
X530.119 Y975.439 I1.463 J0.
G2 X531.656 Y973.901 I-0.001 J-1.537
G1 Y958.901
G2 X530.118 Y957.364 I-1.537 J0.
G1 X176.
G2 X174.462 Y958.901 I0. J1.538
G1 Y973.901
G2 X176. Y975.439 I1.538 J0.
G3 Y978.364 I0. J1.463
X174.538 Y976.901 I0. J-1.463
G2 X173. Y975.364 I-1.538 J0.
G1 X129.
G2 X127.463 Y976.901 I0. J1.538
G3 X124.537 I-1.463 J0.
X126. Y975.439 I1.463 J0.
G2 X127.537 Y973.901 I0. J-1.537
G1 Y958.901
G2 X126. Y957.364 I-1.537 J0.
G1 X8.
G2 X6.463 Y958.901 I0. J1.538
G1 Y1008.901
G2 X8. Y1010.439 I1.537 J0.
G1 X21.757
G2 X22.845 Y1009.989 I0. J-1.537
G3 X24.913 I1.034 J1.034
Y1012.057 I-1.034 J1.034
G2 X24.462 Y1013.144 I1.087 J1.087
G1 Y1054.659
G2 X24.913 Y1055.746 I1.538 J0.
G3 X22.845 Y1057.814 I-1.034 J1.034
G2 X21.757 Y1057.364 I-1.087 J1.087
G1 X8.
G2 X6.463 Y1058.901 I0. J1.537
G1 Y1258.901
G2 X8. Y1260.439 I1.537 J0.
G1 X21.757
G2 X22.845 Y1259.989 I0. J-1.537
G3 X24.913 Y1262.057 I1.034 J1.034
G2 X24.462 Y1263.144 I1.087 J1.087
G1 Y1304.659
G2 X24.913 Y1305.746 I1.538 J0.
G3 X22.845 Y1307.814 I-1.034 J1.034
G2 X21.757 Y1307.364 I-1.087 J1.087
G1 X8.
G2 X6.463 Y1308.901 I0. J1.537
G1 Y1358.901
G2 X8. Y1360.439 I1.537 J0.
G1 X534.049
G3 X534.357 Y1360.746 I0. J0.307
G1 Y1361.054
G19 G3 Y1361.361 Z-5.693 J0. K0.307
G1 X533.742
Z-8.693 F833.
G2 Y1361.054 Z-9. J-0.307 K0. F2500.
G1 Y1360.746
G17 G3 X534.049 Y1360.439 I0.307 J0.
G1 X1102.237
G2 X1103.774 Y1358.901 I0. J-1.537
G1 Y1308.901
G2 X1102.237 Y1307.364 I-1.537 J0.
G1 X1088.479
G2 X1087.392 Y1307.814 I0. J1.537
G3 X1085.324 I-1.034 J-1.034
Y1305.746 I1.034 J-1.034
G2 X1085.774 Y1304.659 I-1.087 J-1.087
G1 Y1263.144
G2 X1085.324 Y1262.057 I-1.537 J0.
G3 X1087.392 Y1259.989 I1.034 J-1.034
G2 X1088.479 Y1260.439 I1.087 J-1.087
G1 X1102.237
G2 X1103.774 Y1258.901 I0. J-1.537
G1 Y1058.901
G2 X1102.237 Y1057.364 I-1.537 J0.
G1 X1088.479
G2 X1087.392 Y1057.814 I0. J1.537
G3 X1085.324 I-1.034 J-1.034
Y1055.746 I1.034 J-1.034
G2 X1085.774 Y1054.659 I-1.087 J-1.087
G1 Y1013.144
G2 X1085.324 Y1012.057 I-1.537 J0.
G3 Y1009.989 I1.034 J-1.034
X1087.392 I1.034 J1.034
G2 X1088.479 Y1010.439 I1.087 J-1.087
G1 X1102.237
G2 X1103.774 Y1008.901 I0. J-1.537
G1 Y958.901
G2 X1102.237 Y957.364 I-1.537 J0.
G1 X984.237
G2 X982.699 Y958.901 I0. J1.538
G1 Y973.901
G2 X984.237 Y975.439 I1.537 J0.
G3 Y978.364 I0. J1.463
X982.774 Y976.901 I0. J-1.463
G2 X981.237 Y975.364 I-1.537 J0.
G1 X937.237
G2 X935.699 Y976.901 I0. J1.538
G3 X932.774 I-1.463 J0.
X934.237 Y975.439 I1.463 J0.
G2 X935.774 Y973.901 I0. J-1.537
G1 Y958.901
G2 X934.237 Y957.364 I-1.537 J0.
G1 X580.118
G2 X578.581 Y958.901 I0. J1.538
G1 Y973.901
G2 X580.119 Y975.439 I1.538 J0.
G3 X580.121 Y978.364 I0.001 J1.463
X578.657 Y976.901 I-0.001 J-1.463
G2 X577.12 Y975.364 I-1.537 J0.
G1 X533.12
G2 X531.583 Y976.901 I0. J1.538
G3 X528.657 I-1.463 J0.
X530.119 Y975.439 I1.463 J0.
G2 X531.656 Y973.901 I-0.001 J-1.537
G1 Y958.901
G2 X530.118 Y957.364 I-1.537 J0.
G1 X176.
G2 X174.462 Y958.901 I0. J1.538
G1 Y973.901
G2 X176. Y975.439 I1.538 J0.
G3 Y978.364 I0. J1.463
X174.538 Y976.901 I0. J-1.463
G2 X173. Y975.364 I-1.538 J0.
G1 X129.
G2 X127.463 Y976.901 I0. J1.538
G3 X124.537 I-1.463 J0.
X126. Y975.439 I1.463 J0.
G2 X127.537 Y973.901 I0. J-1.537
G1 Y958.901
G2 X126. Y957.364 I-1.537 J0.
G1 X8.
G2 X6.463 Y958.901 I0. J1.538
G1 Y1008.901
G2 X8. Y1010.439 I1.537 J0.
G1 X21.757
G2 X22.845 Y1009.989 I0. J-1.537
G3 X24.913 I1.034 J1.034
Y1012.057 I-1.034 J1.034
G2 X24.462 Y1013.144 I1.087 J1.087
G1 Y1054.659
G2 X24.913 Y1055.746 I1.538 J0.
G3 X22.845 Y1057.814 I-1.034 J1.034
G2 X21.757 Y1057.364 I-1.087 J1.087
G1 X8.
G2 X6.463 Y1058.901 I0. J1.537
G1 Y1258.901
G2 X8. Y1260.439 I1.537 J0.
G1 X21.757
G2 X22.845 Y1259.989 I0. J-1.537
G3 X24.913 Y1262.057 I1.034 J1.034
G2 X24.462 Y1263.144 I1.087 J1.087
G1 Y1304.659
G2 X24.913 Y1305.746 I1.538 J0.
G3 X22.845 Y1307.814 I-1.034 J1.034
G2 X21.757 Y1307.364 I-1.087 J1.087
G1 X8.
G2 X6.463 Y1308.901 I0. J1.537
G1 Y1358.901
G2 X8. Y1360.439 I1.537 J0.
G1 X534.049
G3 X534.357 Y1360.746 I0. J0.307
G1 Y1361.054
G19 G3 Y1361.361 Z-8.693 J0. K0.307
G1 Y1378.442
G3 Y1378.749 Z-9. J0.307 K0.
G1 Y1379.057
G17 G3 X534.049 Y1379.364 I-0.307 J0.
G1 X527.292
G2 X526.205 Y1379.814 I0. J1.537
G3 X524.136 Y1377.746 I-1.034 J-1.034
G2 X524.587 Y1376.659 I-1.087 J-1.087
G1 Y1362.901
G2 X523.049 Y1361.364 I-1.538 J0.
G1 X473.049
G2 X471.512 Y1362.901 I0. J1.537
G1 Y1376.659
G2 X471.962 Y1377.746 I1.538 J0.
G3 X469.894 Y1379.814 I-1.034 J1.034
G2 X468.807 Y1379.364 I-1.087 J1.087
G1 X228.341
G2 X227.254 Y1379.814 I0. J1.537
G3 X225.186 Y1377.746 I-1.034 J-1.034
G2 X225.636 Y1376.659 I-1.087 J-1.087
G1 Y1362.901
G2 X224.099 Y1361.364 I-1.538 J0.
G1 X174.099
G2 X172.561 Y1362.901 I0. J1.537
G1 Y1376.659
G2 X173.011 Y1377.746 I1.537 J0.
G3 X170.943 Y1379.814 I-1.034 J1.034
G2 X169.856 Y1379.364 I-1.087 J1.087
G1 X44.099
G2 X42.561 Y1380.901 I0. J1.537
G1 Y1456.659
G2 X43.011 Y1457.746 I1.538 J0.
G3 X40.943 Y1459.814 I-1.034 J1.034
G2 X39.856 Y1459.364 I-1.087 J1.087
G1 X26.099
G2 X24.561 Y1460.901 I0. J1.537
G1 Y1510.901
G2 X26.099 Y1512.439 I1.538 J0.
G1 X970.
G2 X971.537 Y1510.901 I0. J-1.537
G1 Y1460.901
G2 X970. Y1459.364 I-1.537 J0.
G1 X956.243
G2 X955.155 Y1459.814 I0. J1.537
G3 X953.087 Y1457.746 I-1.034 J-1.034
