(FRAME2)
(T1  D=3.075 CR=0. - ZMIN=-18. - FLAT END MILL)
(T2  D=3. CR=0. TAPER=118DEG - ZMIN=-18. - DRILL)
G90 G94 G91.1 G40 G49 G17
G21

(79.401MM DRILL)
M5
T2 M6
S9700 M3
G54
G0 X965.701 Y101.6
G43 Z15. H2
Z5.
G98 G81 X965.701 Y101.6 Z-18. R5. F728.
G80
Z15.

(3.4MM DRILL)
G0 X17. Y576.35
Z15.
Z5.
G81 X17. Y576.35 Z-18. R5. F728.
Y401.35
X66. Y372.35
X17. Y226.35
X66. Y210.35
X67. Y188.35
X17. Y102.675
X353.059 Y210.35
X440.118 Y188.35
X670.118
X757.177 Y210.35
X1093.237 Y102.675
X1043.237 Y188.35
X1034.237 Y210.35
X1093.237 Y226.35
X1044.237 Y372.35
X1093.237 Y401.35
Y576.35
G80
Z15.

(2D CONTOUR1)
M5
M1
T1 M6
S18000 M3
G54
G0 X243.607 Y359.49
G43 Z15. H1
Z5.
G1 Z2. F833.
Z-2.693
G19 G3 Y359.797 Z-3. J0.307 K0. F2500.
G1 Y360.105
G17 G3 X243.3 Y360.413 I-0.307 J0.
G1 X189.538
Y252.887
X920.699
Y360.413
X243.3
G3 X242.993 Y360.105 I0. J-0.307
G1 Y359.797
G19 G2 Y359.49 Z-2.693 J0. K0.307
G1 X243.607
Z-5.693 F833.
G3 Y359.797 Z-6. J0.307 K0. F2500.
G1 Y360.105
G17 G3 X243.3 Y360.413 I-0.307 J0.
G1 X189.538
Y252.887
X920.699
Y360.413
X243.3
G3 X242.993 Y360.105 I0. J-0.307
G1 Y359.797
G19 G2 Y359.49 Z-5.693 J0. K0.307
G1 X243.607
Z-8.693 F833.
G3 Y359.797 Z-9. J0.307 K0. F2500.
G1 Y360.105
G17 G3 X243.3 Y360.413 I-0.307 J0.
G1 X189.538
Y252.887
X920.699
Y360.413
X243.3
G3 X242.993 Y360.105 I0. J-0.307
G1 Y359.797
G19 G2 Y359.49 Z-8.693 J0. K0.307
G1 X243.607
Z-11.693 F833.
G3 Y359.797 Z-12. J0.307 K0. F2500.
G1 Y360.105
G17 G3 X243.3 Y360.413 I-0.307 J0.
G1 X189.538
Y252.887
X920.699
Y360.413
X243.3
G3 X242.993 Y360.105 I0. J-0.307
G1 Y359.797
G19 G2 Y359.49 Z-11.693 J0. K0.307
G1 X243.607
Z-14.693 F833.
G3 Y359.797 Z-15. J0.307 K0. F2500.
G1 Y360.105
G17 G3 X243.3 Y360.413 I-0.307 J0.
G1 X189.538
Y252.887
X920.699
Y360.413
X243.3
G3 X242.993 Y360.105 I0. J-0.307
G1 Y359.797
G19 G2 Y359.49 Z-14.693 J0. K0.307
G1 X243.607
Z-17.693 F833.
G3 Y359.797 Z-18. J0.307 K0. F2500.
G1 Y360.105
G17 G3 X243.3 Y360.413 I-0.307 J0.
G1 X189.538
Y252.887
X920.699
Y360.413
X243.3
G3 X242.993 Y360.105 I0. J-0.307
G1 Y359.797
G19 G2 Y359.49 Z-17.693 J0. K0.308
G0 Z5.
X153.54 Y367.285
G1 Z2. F833.
Z-2.693
G18 G2 X153.848 Z-3. I0.308 K0. F2500.
G1 X154.155
G17 G3 X154.462 Y367.593 I0. J0.308
G1 Y377.107
G2 X154.913 Y378.195 I1.538 J0.
G3 X152.845 Y380.263 I-1.034 J1.034
G2 X151.757 Y379.813 I-1.087 J1.087
G1 X110.243
G2 X109.155 Y380.263 I0. J1.538
G3 X107.087 Y378.195 I-1.034 J-1.034
G2 X107.537 Y377.107 I-1.087 J-1.087
G1 Y367.593
G2 X107.087 Y366.505 I-1.537 J0.
G3 X109.155 Y364.437 I1.034 J-1.034
G2 X110.243 Y364.888 I1.087 J-1.087
G1 X151.757
G2 X152.845 Y364.437 I0. J-1.538
G3 X154.913 Y366.505 I1.034 J1.034
G2 X154.462 Y367.593 I1.087 J1.087
G3 X154.155 Y367.9 I-0.307 J0.
G1 X153.848
G18 G3 X153.54 Z-2.693 I0. K0.307
G1 Y367.285
Z-5.693 F833.
G2 X153.848 Z-6. I0.308 K0. F2500.
G1 X154.155
G17 G3 X154.462 Y367.593 I0. J0.308
G1 Y377.107
G2 X154.913 Y378.195 I1.538 J0.
G3 X152.845 Y380.263 I-1.034 J1.034
G2 X151.757 Y379.813 I-1.087 J1.087
G1 X110.243
G2 X109.155 Y380.263 I0. J1.538
G3 X107.087 Y378.195 I-1.034 J-1.034
G2 X107.537 Y377.107 I-1.087 J-1.087
G1 Y367.593
G2 X107.087 Y366.505 I-1.537 J0.
G3 X109.155 Y364.437 I1.034 J-1.034
G2 X110.243 Y364.888 I1.087 J-1.087
G1 X151.757
G2 X152.845 Y364.437 I0. J-1.538
G3 X154.913 Y366.505 I1.034 J1.034
G2 X154.462 Y367.593 I1.087 J1.087
G3 X154.155 Y367.9 I-0.307 J0.
G1 X153.848
G18 G3 X153.54 Z-5.693 I0. K0.307
G1 Y367.285
Z-8.693 F833.
G2 X153.848 Z-9. I0.308 K0. F2500.
G1 X154.155
G17 G3 X154.462 Y367.593 I0. J0.308
G1 Y377.107
G2 X154.913 Y378.195 I1.538 J0.
G3 X152.845 Y380.263 I-1.034 J1.034
G2 X151.757 Y379.813 I-1.087 J1.087
G1 X110.243
G2 X109.155 Y380.263 I0. J1.538
G3 X107.087 Y378.195 I-1.034 J-1.034
G2 X107.537 Y377.107 I-1.087 J-1.087
G1 Y367.593
G2 X107.087 Y366.505 I-1.537 J0.
G3 X109.155 Y364.437 I1.034 J-1.034
G2 X110.243 Y364.888 I1.087 J-1.087
G1 X151.757
G2 X152.845 Y364.437 I0. J-1.538
G3 X154.913 Y366.505 I1.034 J1.034
G2 X154.462 Y367.593 I1.087 J1.087
G3 X154.155 Y367.9 I-0.307 J0.
G1 X153.848
G18 G3 X153.54 Z-8.693 I0. K0.307
G1 Y367.285
Z-11.693 F833.
G2 X153.848 Z-12. I0.308 K0. F2500.
G1 X154.155
G17 G3 X154.462 Y367.593 I0. J0.308
G1 Y377.107
G2 X154.913 Y378.195 I1.538 J0.
G3 X152.845 Y380.263 I-1.034 J1.034
G2 X151.757 Y379.813 I-1.087 J1.087
G1 X110.243
G2 X109.155 Y380.263 I0. J1.538
G3 X107.087 Y378.195 I-1.034 J-1.034
G2 X107.537 Y377.107 I-1.087 J-1.087
G1 Y367.593
G2 X107.087 Y366.505 I-1.537 J0.
G3 X109.155 Y364.437 I1.034 J-1.034
G2 X110.243 Y364.888 I1.087 J-1.087
G1 X151.757
G2 X152.845 Y364.437 I0. J-1.538
G3 X154.913 Y366.505 I1.034 J1.034
G2 X154.462 Y367.593 I1.087 J1.087
G3 X154.155 Y367.9 I-0.307 J0.
G1 X153.848
G18 G3 X153.54 Z-11.693 I0. K0.307
G1 Y367.285
Z-14.693 F833.
G2 X153.848 Z-15. I0.308 K0. F2500.
G1 X154.155
G17 G3 X154.462 Y367.593 I0. J0.308
G1 Y377.107
G2 X154.913 Y378.195 I1.538 J0.
G3 X152.845 Y380.263 I-1.034 J1.034
G2 X151.757 Y379.813 I-1.087 J1.087
G1 X110.243
G2 X109.155 Y380.263 I0. J1.538
G3 X107.087 Y378.195 I-1.034 J-1.034
G2 X107.537 Y377.107 I-1.087 J-1.087
G1 Y367.593
G2 X107.087 Y366.505 I-1.537 J0.
G3 X109.155 Y364.437 I1.034 J-1.034
G2 X110.243 Y364.888 I1.087 J-1.087
G1 X151.757
G2 X152.845 Y364.437 I0. J-1.538
G3 X154.913 Y366.505 I1.034 J1.034
G2 X154.462 Y367.593 I1.087 J1.087
G3 X154.155 Y367.9 I-0.307 J0.
G1 X153.848
G18 G3 X153.54 Z-14.693 I0. K0.307
G1 Y367.285
Z-17.693 F833.
G2 X153.848 Z-18. I0.308 K0. F2500.
G1 X154.155
G17 G3 X154.462 Y367.593 I0. J0.308
G1 Y377.107
G2 X154.913 Y378.195 I1.538 J0.
G3 X152.845 Y380.263 I-1.034 J1.034
G2 X151.757 Y379.813 I-1.087 J1.087
G1 X110.243
G2 X109.155 Y380.263 I0. J1.538
G3 X107.087 Y378.195 I-1.034 J-1.034
G2 X107.537 Y377.107 I-1.087 J-1.087
G1 Y367.593
G2 X107.087 Y366.505 I-1.537 J0.
G3 X109.155 Y364.437 I1.034 J-1.034
G2 X110.243 Y364.888 I1.087 J-1.087
G1 X151.757
G2 X152.845 Y364.437 I0. J-1.538
G3 X154.913 Y366.505 I1.034 J1.034
G2 X154.462 Y367.593 I1.087 J1.087
G3 X154.155 Y367.9 I-0.307 J0.
G1 X153.848
G18 G3 X153.54 Z-17.693 I0. K0.308
G0 Z5.
X958.172 Y365.81
G1 Z2. F833.
Z-2.693
G19 G2 Y365.503 Z-3. J-0.307 K0. F2500.
G1 Y365.195
G17 G3 X958.479 Y364.888 I0.308 J0.
G1 X999.994
G2 X1001.081 Y364.437 I0. J-1.538
G3 X1003.149 Y366.505 I1.034 J1.034
G2 X1002.699 Y367.593 I1.087 J1.087
G1 Y377.107
G2 X1003.149 Y378.195 I1.537 J0.
G3 X1001.081 Y380.263 I-1.034 J1.034
G2 X999.994 Y379.813 I-1.087 J1.087
G1 X958.479
G2 X957.392 Y380.263 I0. J1.538
G3 X955.324 Y378.195 I-1.034 J-1.034
G2 X955.774 Y377.107 I-1.087 J-1.087
G1 Y367.593
G2 X955.324 Y366.505 I-1.537 J0.
G3 X957.392 Y364.437 I1.034 J-1.034
G2 X958.479 Y364.888 I1.087 J-1.087
G3 X958.787 Y365.195 I0. J0.307
G1 Y365.503
G19 G3 Y365.81 Z-2.693 J0. K0.307
G1 X958.172
Z-5.693 F833.
G2 Y365.503 Z-6. J-0.307 K0. F2500.
G1 Y365.195
G17 G3 X958.479 Y364.888 I0.308 J0.
G1 X999.994
G2 X1001.081 Y364.437 I0. J-1.538
G3 X1003.149 Y366.505 I1.034 J1.034
G2 X1002.699 Y367.593 I1.087 J1.087
G1 Y377.107
G2 X1003.149 Y378.195 I1.537 J0.
G3 X1001.081 Y380.263 I-1.034 J1.034
G2 X999.994 Y379.813 I-1.087 J1.087
G1 X958.479
G2 X957.392 Y380.263 I0. J1.538
G3 X955.324 Y378.195 I-1.034 J-1.034
G2 X955.774 Y377.107 I-1.087 J-1.087
G1 Y367.593
G2 X955.324 Y366.505 I-1.537 J0.
G3 X957.392 Y364.437 I1.034 J-1.034
G2 X958.479 Y364.888 I1.087 J-1.087
G3 X958.787 Y365.195 I0. J0.307
G1 Y365.503
G19 G3 Y365.81 Z-5.693 J0. K0.307
G1 X958.172
Z-8.693 F833.
G2 Y365.503 Z-9. J-0.307 K0. F2500.
G1 Y365.195
G17 G3 X958.479 Y364.888 I0.308 J0.
G1 X999.994
G2 X1001.081 Y364.437 I0. J-1.538
G3 X1003.149 Y366.505 I1.034 J1.034
G2 X1002.699 Y367.593 I1.087 J1.087
G1 Y377.107
G2 X1003.149 Y378.195 I1.537 J0.
G3 X1001.081 Y380.263 I-1.034 J1.034
G2 X999.994 Y379.813 I-1.087 J1.087
G1 X958.479
G2 X957.392 Y380.263 I0. J1.538
G3 X955.324 Y378.195 I-1.034 J-1.034
G2 X955.774 Y377.107 I-1.087 J-1.087
G1 Y367.593
G2 X955.324 Y366.505 I-1.537 J0.
G3 X957.392 Y364.437 I1.034 J-1.034
G2 X958.479 Y364.888 I1.087 J-1.087
G3 X958.787 Y365.195 I0. J0.307
G1 Y365.503
G19 G3 Y365.81 Z-8.693 J0. K0.307
G1 X958.172
Z-11.693 F833.
G2 Y365.503 Z-12. J-0.307 K0. F2500.
G1 Y365.195
G17 G3 X958.479 Y364.888 I0.308 J0.
G1 X999.994
G2 X1001.081 Y364.437 I0. J-1.538
G3 X1003.149 Y366.505 I1.034 J1.034
G2 X1002.699 Y367.593 I1.087 J1.087
G1 Y377.107
G2 X1003.149 Y378.195 I1.537 J0.
G3 X1001.081 Y380.263 I-1.034 J1.034
G2 X999.994 Y379.813 I-1.087 J1.087
G1 X958.479
G2 X957.392 Y380.263 I0. J1.538
G3 X955.324 Y378.195 I-1.034 J-1.034
G2 X955.774 Y377.107 I-1.087 J-1.087
G1 Y367.593
G2 X955.324 Y366.505 I-1.537 J0.
G3 X957.392 Y364.437 I1.034 J-1.034
G2 X958.479 Y364.888 I1.087 J-1.087
G3 X958.787 Y365.195 I0. J0.307
G1 Y365.503
G19 G3 Y365.81 Z-11.693 J0. K0.307
G1 X958.172
Z-14.693 F833.
G2 Y365.503 Z-15. J-0.307 K0. F2500.
G1 Y365.195
G17 G3 X958.479 Y364.888 I0.308 J0.
G1 X999.994
G2 X1001.081 Y364.437 I0. J-1.538
G3 X1003.149 Y366.505 I1.034 J1.034
G2 X1002.699 Y367.593 I1.087 J1.087
G1 Y377.107
G2 X1003.149 Y378.195 I1.537 J0.
G3 X1001.081 Y380.263 I-1.034 J1.034
G2 X999.994 Y379.813 I-1.087 J1.087
G1 X958.479
G2 X957.392 Y380.263 I0. J1.538
G3 X955.324 Y378.195 I-1.034 J-1.034
G2 X955.774 Y377.107 I-1.087 J-1.087
G1 Y367.593
G2 X955.324 Y366.505 I-1.537 J0.
G3 X957.392 Y364.437 I1.034 J-1.034
G2 X958.479 Y364.888 I1.087 J-1.087
G3 X958.787 Y365.195 I0. J0.307
G1 Y365.503
G19 G3 Y365.81 Z-14.693 J0. K0.307
G1 X958.172
Z-17.693 F833.
G2 Y365.503 Z-18. J-0.307 K0. F2500.
G1 Y365.195
G17 G3 X958.479 Y364.888 I0.308 J0.
G1 X999.994
G2 X1001.081 Y364.437 I0. J-1.538
G3 X1003.149 Y366.505 I1.034 J1.034
G2 X1002.699 Y367.593 I1.087 J1.087
G1 Y377.107
G2 X1003.149 Y378.195 I1.537 J0.
G3 X1001.081 Y380.263 I-1.034 J1.034
G2 X999.994 Y379.813 I-1.087 J1.087
G1 X958.479
G2 X957.392 Y380.263 I0. J1.538
G3 X955.324 Y378.195 I-1.034 J-1.034
G2 X955.774 Y377.107 I-1.087 J-1.087
G1 Y367.593
G2 X955.324 Y366.505 I-1.537 J0.
G3 X957.392 Y364.437 I1.034 J-1.034
G2 X958.479 Y364.888 I1.087 J-1.087
G3 X958.787 Y365.195 I0. J0.307
G1 Y365.503
G19 G3 Y365.81 Z-17.693 J0. K0.308
G0 Z5.
X1002.941 Y101.284
G1 Z2. F833.
Z-2.693
X1002.949 Z-2.761 F2500.
X1002.972 Z-2.826
X1003.008 Z-2.884
X1003.057 Z-2.933
X1003.115 Z-2.97
X1003.18 Z-2.992
X1003.249 Z-3.
X1003.556
G17 G3 X1003.864 Y101.591 I0. J0.308
X927.538 Y101.609 I-38.163 J0.009
X1003.864 Y101.591 I38.163 J-0.009
X1003.557 Y101.899 I-0.307 J0.
G1 X1003.249
X1003.181 Z-2.992
X1003.116 Z-2.97
X1003.057 Z-2.933
X1003.009 Z-2.884
X1002.972 Z-2.826
X1002.949 Z-2.761
X1002.942 Z-2.693
X1002.941 Y101.284
Z-5.693 F833.
X1002.949 Z-5.761 F2500.
X1002.972 Z-5.826
X1003.008 Z-5.884
X1003.057 Z-5.933
X1003.115 Z-5.97
X1003.18 Z-5.992
X1003.249 Z-6.
X1003.556
G3 X1003.864 Y101.591 I0. J0.308
X927.538 Y101.609 I-38.163 J0.009
X1003.864 Y101.591 I38.163 J-0.009
X1003.557 Y101.899 I-0.307 J0.
G1 X1003.249
X1003.181 Z-5.992
X1003.116 Z-5.97
X1003.057 Z-5.933
X1003.009 Z-5.884
X1002.972 Z-5.826
X1002.949 Z-5.761
X1002.942 Z-5.693
X1002.941 Y101.284
Z-8.693 F833.
X1002.949 Z-8.761 F2500.
X1002.972 Z-8.826
X1003.008 Z-8.884
X1003.057 Z-8.933
X1003.115 Z-8.97
X1003.18 Z-8.992
X1003.249 Z-9.
X1003.556
G3 X1003.864 Y101.591 I0. J0.308
X927.538 Y101.609 I-38.163 J0.009
X1003.864 Y101.591 I38.163 J-0.009
X1003.557 Y101.899 I-0.307 J0.
G1 X1003.249
X1003.181 Z-8.992
X1003.116 Z-8.97
X1003.057 Z-8.933
X1003.009 Z-8.884
X1002.972 Z-8.826
X1002.949 Z-8.761
X1002.942 Z-8.693
X1002.941 Y101.284
Z-11.693 F833.
X1002.949 Z-11.761 F2500.
X1002.972 Z-11.826
X1003.008 Z-11.884
X1003.057 Z-11.933
X1003.115 Z-11.97
X1003.18 Z-11.992
X1003.249 Z-12.
X1003.556
G3 X1003.864 Y101.591 I0. J0.308
X927.538 Y101.609 I-38.163 J0.009
X1003.864 Y101.591 I38.163 J-0.009
X1003.557 Y101.899 I-0.307 J0.
G1 X1003.249
X1003.181 Z-11.992
X1003.116 Z-11.97
X1003.057 Z-11.933
X1003.009 Z-11.884
X1002.972 Z-11.826
X1002.949 Z-11.761
X1002.942 Z-11.693
X1002.941 Y101.284
Z-14.693 F833.
X1002.949 Z-14.761 F2500.
X1002.972 Z-14.826
X1003.008 Z-14.884
X1003.057 Z-14.933
X1003.115 Z-14.97
X1003.18 Z-14.992
X1003.249 Z-15.
X1003.556
G3 X1003.864 Y101.591 I0. J0.308
X927.538 Y101.609 I-38.163 J0.009
X1003.864 Y101.591 I38.163 J-0.009
X1003.557 Y101.899 I-0.307 J0.
G1 X1003.249
X1003.181 Z-14.992
X1003.116 Z-14.97
X1003.057 Z-14.933
X1003.009 Z-14.884
X1002.972 Z-14.826
X1002.949 Z-14.761
X1002.942 Z-14.693
X1002.941 Y101.284
Z-17.693 F833.
X1002.949 Z-17.761 F2500.
X1002.972 Z-17.826
X1003.008 Z-17.884
X1003.057 Z-17.933
X1003.115 Z-17.97
X1003.18 Z-17.992
X1003.249 Z-18.
X1003.556
G3 X1003.864 Y101.591 I0. J0.308
X927.538 Y101.609 I-38.163 J0.009
X1003.864 Y101.591 I38.163 J-0.009
X1003.557 Y101.899 I-0.307 J0.
G1 X1003.249
X1003.181 Z-17.992
X1003.116 Z-17.97
X1003.057 Z-17.933
X1003.009 Z-17.884
X1002.972 Z-17.826
X1002.949 Z-17.761
X1002.942 Z-17.693
G0 Z15.

(2D CONTOUR2)
G0 X530.656 Y219.042
Z15.
Z5.
G1 Z2. F833.
Z-2.693
G18 G2 X530.964 Z-3. I0.307 K0. F2500.
G1 X531.272
G17 G3 X531.579 Y219.35 I0. J0.308
X528.654 I-1.463 J0.
X530.117 Y217.887 I1.463 J0.
G2 X531.656 Y216.35 I0.001 J-1.537
G1 Y201.35
G2 X530.118 Y199.813 I-1.537 J0.
G1 X176.
G2 X174.462 Y201.35 I0. J1.538
G1 Y216.35
G2 X176. Y217.887 I1.538 J0.
G3 Y220.813 I0. J1.463
X174.538 Y219.35 I0. J-1.462
G2 X173. Y217.813 I-1.538 J0.
G1 X129.
G2 X127.463 Y219.35 I0. J1.538
G3 X124.537 I-1.463 J0.
X126. Y217.887 I1.463 J0.
G2 X127.537 Y216.35 I0. J-1.537
G1 Y201.35
G2 X126. Y199.813 I-1.537 J0.
G1 X8.
G2 X6.463 Y201.35 I0. J1.538
G1 Y251.35
G2 X8. Y252.887 I1.537 J0.
G1 X21.757
G2 X22.845 Y252.437 I0. J-1.537
G3 X24.913 I1.034 J1.034
Y254.505 I-1.034 J1.034
G2 X24.462 Y255.593 I1.087 J1.087
G1 Y297.107
G2 X24.913 Y298.195 I1.538 J0.
G3 X22.845 Y300.263 I-1.034 J1.034
G2 X21.757 Y299.813 I-1.087 J1.087
G1 X8.
G2 X6.463 Y301.35 I0. J1.538
G1 Y501.35
G2 X8. Y502.888 I1.537 J0.
G1 X21.757
G2 X22.845 Y502.437 I0. J-1.538
G3 X24.913 Y504.505 I1.034 J1.034
G2 X24.462 Y505.593 I1.087 J1.087
G1 Y547.107
G2 X24.913 Y548.195 I1.538 J0.
G3 Y550.263 I-1.034 J1.034
X22.845 I-1.034 J-1.034
G2 X21.757 Y549.813 I-1.087 J1.087
G1 X8.
G2 X6.463 Y551.35 I0. J1.537
G1 Y601.35
G2 X8. Y602.888 I1.537 J0.
G1 X156.
G2 X157.538 Y601.35 I0. J-1.538
G1 Y393.487
X952.699
Y601.35
G2 X954.237 Y602.888 I1.537 J0.
G1 X1102.237
G2 X1103.774 Y601.35 I0. J-1.538
G1 Y551.35
G2 X1102.237 Y549.813 I-1.537 J0.
G1 X1088.479
G2 X1087.392 Y550.263 I0. J1.537
G3 X1085.324 I-1.034 J-1.034
Y548.195 I1.034 J-1.034
G2 X1085.774 Y547.107 I-1.087 J-1.087
G1 Y505.593
G2 X1085.324 Y504.505 I-1.537 J0.
G3 Y502.437 I1.034 J-1.034
X1087.392 I1.034 J1.034
G2 X1088.479 Y502.888 I1.087 J-1.087
G1 X1102.237
G2 X1103.774 Y501.35 I0. J-1.538
G1 Y301.35
G2 X1102.237 Y299.813 I-1.537 J0.
G1 X1088.479
G2 X1087.392 Y300.263 I0. J1.538
G3 X1085.324 I-1.034 J-1.034
Y298.195 I1.034 J-1.034
G2 X1085.774 Y297.107 I-1.087 J-1.087
G1 Y255.593
G2 X1085.324 Y254.505 I-1.537 J0.
G3 Y252.437 I1.034 J-1.034
X1087.392 I1.034 J1.034
G2 X1088.479 Y252.887 I1.087 J-1.087
G1 X1102.237
G2 X1103.774 Y251.35 I0. J-1.537
G1 Y201.35
G2 X1102.237 Y199.813 I-1.537 J0.
G1 X984.237
G2 X982.699 Y201.35 I0. J1.538
G1 Y216.35
G2 X984.237 Y217.887 I1.537 J0.
G3 Y220.813 I0. J1.463
X982.774 Y219.35 I0. J-1.463
G2 X981.237 Y217.813 I-1.537 J0.
G1 X937.237
G2 X935.699 Y219.35 I0. J1.538
G3 X932.774 I-1.463 J0.
X934.237 Y217.887 I1.463 J0.
G2 X935.774 Y216.35 I0. J-1.537
G1 Y201.35
G2 X934.237 Y199.813 I-1.537 J0.
G1 X580.118
G2 X578.581 Y201.35 I0. J1.538
G1 Y216.35
G2 X580.117 Y217.887 I1.538 J0.
G3 X580.116 Y220.813 I-0.001 J1.463
X578.654 Y219.35 I0.001 J-1.463
G2 X577.117 Y217.813 I-1.537 J0.
G1 X533.117
G2 X531.579 Y219.35 I0. J1.538
G3 X531.272 Y219.658 I-0.307 J0.
G1 X530.964
G18 G3 X530.656 Z-2.693 I0. K0.307
G1 X539.811 Y199.81
G19 G2 Y199.503 Z-3. J-0.307 K0.
G1 Y199.195
G17 G3 X540.118 Y198.887 I0.308 J0.
G2 X541.656 Y197.35 I0. J-1.537
G1 Y183.593
G2 X541.205 Y182.505 I-1.537 J0.
G3 Y180.437 I1.034 J-1.034
X543.274 I1.034 J1.034
G2 X544.361 Y180.887 I1.087 J-1.087
G1 X565.876
G2 X566.963 Y180.437 I0. J-1.537
G3 X569.031 I1.034 J1.034
Y182.505 I-1.034 J1.034
G2 X568.581 Y183.593 I1.087 J1.087
G1 Y197.35
G2 X570.118 Y198.887 I1.538 J0.
G1 X770.118
G2 X771.656 Y197.35 I0. J-1.537
G1 Y183.594
G2 X771.205 Y182.506 I-1.537 J0.
G3 X771.203 Y180.438 I1.033 J-1.035
X773.272 Y180.437 I1.035 J1.034
G2 X774.359 Y180.887 I1.087 J-1.087
G1 X795.874
G2 X796.961 Y180.437 I0. J-1.537
G3 X799.03 Y182.505 I1.034 J1.034
G2 X798.581 Y183.591 I1.088 J1.086
G1 Y197.35
G2 X800.118 Y198.887 I1.538 J0.
G1 X972.237
G2 X973.774 Y197.35 I0. J-1.537
G1 Y183.593
G2 X973.324 Y182.505 I-1.537 J0.
G3 X975.392 Y180.437 I1.034 J-1.034
G2 X976.479 Y180.887 I1.087 J-1.087
G1 X997.994
G2 X999.081 Y180.437 I0. J-1.537
G3 X1001.149 Y182.505 I1.034 J1.034
G2 X1000.699 Y183.593 I1.087 J1.087
G1 Y197.35
G2 X1002.237 Y198.887 I1.537 J0.
G1 X1084.237
G2 X1085.774 Y197.35 I0. J-1.537
G1 Y121.918
G2 X1085.324 Y120.83 I-1.537 J0.
G3 Y118.762 I1.034 J-1.034
X1087.392 I1.034 J1.034
G2 X1088.479 Y119.213 I1.087 J-1.087
G1 X1102.237
G2 X1103.774 Y117.675 I0. J-1.537
G1 Y87.675
G2 X1102.237 Y86.137 I-1.537 J0.
G1 X1088.479
G2 X1087.392 Y86.588 I0. J1.538
G3 X1085.324 I-1.034 J-1.034
Y84.52 I1.034 J-1.034
G2 X1085.774 Y83.432 I-1.087 J-1.087
G1 Y8.
G2 X1084.237 Y6.463 I-1.537 J0.
G1 X26.
G2 X24.462 Y8. I0. J1.537
G1 Y83.432
G2 X24.913 Y84.52 I1.538 J0.
G3 X22.845 Y86.588 I-1.034 J1.034
G2 X21.757 Y86.137 I-1.087 J1.087
G1 X8.
G2 X6.463 Y87.675 I0. J1.538
G1 Y117.675
G2 X8. Y119.213 I1.537 J0.
G1 X21.757
G2 X22.845 Y118.762 I0. J-1.537
G3 X24.913 I1.034 J1.034
Y120.83 I-1.034 J1.034
G2 X24.462 Y121.918 I1.087 J1.087
G1 Y197.35
G2 X26. Y198.887 I1.538 J0.
G1 X108.
G2 X109.537 Y197.35 I0. J-1.537
G1 Y183.593
G2 X109.087 Y182.505 I-1.537 J0.
G3 Y180.437 I1.034 J-1.034
X111.155 I1.034 J1.034
G2 X112.243 Y180.887 I1.087 J-1.087
G1 X133.757
G2 X134.845 Y180.437 I0. J-1.537
G3 X136.913 Y182.505 I1.034 J1.034
G2 X136.462 Y183.593 I1.087 J1.087
G1 Y197.35
G2 X138. Y198.887 I1.538 J0.
G1 X310.118
G2 X311.656 Y197.35 I0. J-1.537
G1 Y183.591
G2 X311.206 Y182.505 I-1.538 J0.
G3 X313.275 Y180.437 I1.035 J-1.033
G2 X314.363 Y180.887 I1.087 J-1.087
G1 X335.877
G2 X336.965 Y180.437 I0. J-1.537
G3 X339.033 Y180.438 I1.034 J1.034
X339.032 Y182.506 I-1.035 J1.034
G2 X338.581 Y183.594 I1.086 J1.088
G1 Y197.35
G2 X340.118 Y198.887 I1.538 J0.
G1 X540.118
G3 X540.426 Y199.195 I0. J0.308
G1 Y199.503
G19 G3 Y199.81 Z-2.693 J0. K0.307
G1 X539.811
Z-5.693 F833.
G2 Y199.503 Z-6. J-0.307 K0. F2500.
G1 Y199.195
G17 G3 X540.118 Y198.887 I0.308 J0.
G2 X541.656 Y197.35 I0. J-1.537
G1 Y183.593
G2 X541.205 Y182.505 I-1.537 J0.
G3 Y180.437 I1.034 J-1.034
X543.274 I1.034 J1.034
G2 X544.361 Y180.887 I1.087 J-1.087
G1 X565.876
G2 X566.963 Y180.437 I0. J-1.537
G3 X569.031 I1.034 J1.034
Y182.505 I-1.034 J1.034
G2 X568.581 Y183.593 I1.087 J1.087
G1 Y197.35
G2 X570.118 Y198.887 I1.538 J0.
G1 X770.118
G2 X771.656 Y197.35 I0. J-1.537
G1 Y183.594
G2 X771.205 Y182.506 I-1.537 J0.
G3 X771.203 Y180.438 I1.033 J-1.035
X773.272 Y180.437 I1.035 J1.034
G2 X774.359 Y180.887 I1.087 J-1.087
G1 X795.874
G2 X796.961 Y180.437 I0. J-1.537
G3 X799.03 Y182.505 I1.034 J1.034
G2 X798.581 Y183.591 I1.088 J1.086
G1 Y197.35
G2 X800.118 Y198.887 I1.538 J0.
G1 X972.237
G2 X973.774 Y197.35 I0. J-1.537
G1 Y183.593
G2 X973.324 Y182.505 I-1.537 J0.
G3 X975.392 Y180.437 I1.034 J-1.034
G2 X976.479 Y180.887 I1.087 J-1.087
G1 X997.994
G2 X999.081 Y180.437 I0. J-1.537
G3 X1001.149 Y182.505 I1.034 J1.034
G2 X1000.699 Y183.593 I1.087 J1.087
G1 Y197.35
G2 X1002.237 Y198.887 I1.537 J0.
G1 X1084.237
G2 X1085.774 Y197.35 I0. J-1.537
G1 Y121.918
G2 X1085.324 Y120.83 I-1.537 J0.
G3 Y118.762 I1.034 J-1.034
X1087.392 I1.034 J1.034
G2 X1088.479 Y119.213 I1.087 J-1.087
G1 X1102.237
G2 X1103.774 Y117.675 I0. J-1.537
G1 Y87.675
G2 X1102.237 Y86.137 I-1.537 J0.
G1 X1088.479
G2 X1087.392 Y86.588 I0. J1.538
G3 X1085.324 I-1.034 J-1.034
Y84.52 I1.034 J-1.034
G2 X1085.774 Y83.432 I-1.087 J-1.087
G1 Y8.
G2 X1084.237 Y6.463 I-1.537 J0.
G1 X26.
G2 X24.462 Y8. I0. J1.537
G1 Y83.432
G2 X24.913 Y84.52 I1.538 J0.
G3 X22.845 Y86.588 I-1.034 J1.034
G2 X21.757 Y86.137 I-1.087 J1.087
G1 X8.
G2 X6.463 Y87.675 I0. J1.538
G1 Y117.675
G2 X8. Y119.213 I1.537 J0.
G1 X21.757
G2 X22.845 Y118.762 I0. J-1.537
G3 X24.913 I1.034 J1.034
Y120.83 I-1.034 J1.034
G2 X24.462 Y121.918 I1.087 J1.087
G1 Y197.35
G2 X26. Y198.887 I1.538 J0.
G1 X108.
G2 X109.537 Y197.35 I0. J-1.537
G1 Y183.593
G2 X109.087 Y182.505 I-1.537 J0.
G3 Y180.437 I1.034 J-1.034
X111.155 I1.034 J1.034
G2 X112.243 Y180.887 I1.087 J-1.087
G1 X133.757
G2 X134.845 Y180.437 I0. J-1.537
G3 X136.913 Y182.505 I1.034 J1.034
G2 X136.462 Y183.593 I1.087 J1.087
G1 Y197.35
G2 X138. Y198.887 I1.538 J0.
G1 X310.118
G2 X311.656 Y197.35 I0. J-1.537
G1 Y183.591
G2 X311.206 Y182.505 I-1.538 J0.
G3 X313.275 Y180.437 I1.035 J-1.033
G2 X314.363 Y180.887 I1.087 J-1.087
G1 X335.877
G2 X336.965 Y180.437 I0. J-1.537
G3 X339.033 Y180.438 I1.034 J1.034
X339.032 Y182.506 I-1.035 J1.034
G2 X338.581 Y183.594 I1.086 J1.088
G1 Y197.35
G2 X340.118 Y198.887 I1.538 J0.
G1 X540.118
G3 X540.426 Y199.195 I0. J0.308
G1 Y199.503
G19 G3 Y199.81 Z-5.693 J0. K0.307
G1 X541.45 Y216.89
G3 Y217.197 Z-6. J0.307 K0.
G1 Y217.505
G17 G3 X541.142 Y217.813 I-0.307 J0.
G1 X533.117
G2 X531.579 Y219.35 I0. J1.538
G3 X528.654 I-1.463 J0.
X530.117 Y217.887 I1.463 J0.
G2 X531.656 Y216.35 I0.001 J-1.537
G1 Y201.35
G2 X530.118 Y199.813 I-1.537 J0.
G1 X176.
G2 X174.462 Y201.35 I0. J1.538
G1 Y216.35
G2 X176. Y217.887 I1.538 J0.
G3 Y220.813 I0. J1.463
X174.538 Y219.35 I0. J-1.462
G2 X173. Y217.813 I-1.538 J0.
G1 X129.
G2 X127.463 Y219.35 I0. J1.538
G3 X124.537 I-1.463 J0.
X126. Y217.887 I1.463 J0.
G2 X127.537 Y216.35 I0. J-1.537
G1 Y201.35
G2 X126. Y199.813 I-1.537 J0.
G1 X8.
G2 X6.463 Y201.35 I0. J1.538
G1 Y251.35
G2 X8. Y252.887 I1.537 J0.
G1 X21.757
G2 X22.845 Y252.437 I0. J-1.537
G3 X24.913 I1.034 J1.034
Y254.505 I-1.034 J1.034
G2 X24.462 Y255.593 I1.087 J1.087
G1 Y297.107
G2 X24.913 Y298.195 I1.538 J0.
G3 X22.845 Y300.263 I-1.034 J1.034
G2 X21.757 Y299.813 I-1.087 J1.087
G1 X8.
G2 X6.463 Y301.35 I0. J1.538
G1 Y501.35
G2 X8. Y502.888 I1.537 J0.
G1 X21.757
G2 X22.845 Y502.437 I0. J-1.538
G3 X24.913 Y504.505 I1.034 J1.034
G2 X24.462 Y505.593 I1.087 J1.087
G1 Y547.107
G2 X24.913 Y548.195 I1.538 J0.
G3 Y550.263 I-1.034 J1.034
X22.845 I-1.034 J-1.034
G2 X21.757 Y549.813 I-1.087 J1.087
G1 X8.
G2 X6.463 Y551.35 I0. J1.537
G1 Y601.35
G2 X8. Y602.888 I1.537 J0.
G1 X156.
G2 X157.538 Y601.35 I0. J-1.538
G1 Y393.487
X952.699
Y601.35
G2 X954.237 Y602.888 I1.537 J0.
G1 X1102.237
G2 X1103.774 Y601.35 I0. J-1.538
G1 Y551.35
G2 X1102.237 Y549.813 I-1.537 J0.
G1 X1088.479
G2 X1087.392 Y550.263 I0. J1.537
G3 X1085.324 I-1.034 J-1.034
Y548.195 I1.034 J-1.034
G2 X1085.774 Y547.107 I-1.087 J-1.087
G1 Y505.593
G2 X1085.324 Y504.505 I-1.537 J0.
G3 Y502.437 I1.034 J-1.034
X1087.392 I1.034 J1.034
G2 X1088.479 Y502.888 I1.087 J-1.087
G1 X1102.237
G2 X1103.774 Y501.35 I0. J-1.538
G1 Y301.35
G2 X1102.237 Y299.813 I-1.537 J0.
G1 X1088.479
G2 X1087.392 Y300.263 I0. J1.538
G3 X1085.324 I-1.034 J-1.034
Y298.195 I1.034 J-1.034
G2 X1085.774 Y297.107 I-1.087 J-1.087
G1 Y255.593
G2 X1085.324 Y254.505 I-1.537 J0.
G3 Y252.437 I1.034 J-1.034
X1087.392 I1.034 J1.034
G2 X1088.479 Y252.887 I1.087 J-1.087
G1 X1102.237
G2 X1103.774 Y251.35 I0. J-1.537
G1 Y201.35
G2 X1102.237 Y199.813 I-1.537 J0.
G1 X984.237
G2 X982.699 Y201.35 I0. J1.538
G1 Y216.35
G2 X984.237 Y217.887 I1.537 J0.
G3 Y220.813 I0. J1.463
X982.774 Y219.35 I0. J-1.463
G2 X981.237 Y217.813 I-1.537 J0.
G1 X937.237
G2 X935.699 Y219.35 I0. J1.538
G3 X932.774 I-1.463 J0.
X934.237 Y217.887 I1.463 J0.
G2 X935.774 Y216.35 I0. J-1.537
G1 Y201.35
G2 X934.237 Y199.813 I-1.537 J0.
G1 X580.118
G2 X578.581 Y201.35 I0. J1.538
G1 Y216.35
G2 X580.117 Y217.887 I1.538 J0.
G3 X580.116 Y220.813 I-0.001 J1.463
X578.654 Y219.35 I0.001 J-1.463
G2 X577.117 Y217.813 I-1.537 J0.
G1 X541.142
G3 X540.835 Y217.505 I0. J-0.307
G1 Y217.197
G19 G2 Y216.89 Z-5.693 J0. K0.307
G1 X541.45
Z-8.693 F833.
G3 Y217.197 Z-9. J0.307 K0. F2500.
G1 Y217.505
G17 G3 X541.142 Y217.813 I-0.307 J0.
G1 X533.117
G2 X531.579 Y219.35 I0. J1.538
G3 X528.654 I-1.463 J0.
X530.117 Y217.887 I1.463 J0.
G2 X531.656 Y216.35 I0.001 J-1.537
G1 Y201.35
G2 X530.118 Y199.813 I-1.537 J0.
G1 X176.
G2 X174.462 Y201.35 I0. J1.538
G1 Y216.35
G2 X176. Y217.887 I1.538 J0.
G3 Y220.813 I0. J1.463
X174.538 Y219.35 I0. J-1.462
G2 X173. Y217.813 I-1.538 J0.
G1 X129.
G2 X127.463 Y219.35 I0. J1.538
G3 X124.537 I-1.463 J0.
X126. Y217.887 I1.463 J0.
G2 X127.537 Y216.35 I0. J-1.537
G1 Y201.35
G2 X126. Y199.813 I-1.537 J0.
G1 X8.
G2 X6.463 Y201.35 I0. J1.538
G1 Y251.35
G2 X8. Y252.887 I1.537 J0.
G1 X21.757
G2 X22.845 Y252.437 I0. J-1.537
G3 X24.913 I1.034 J1.034
Y254.505 I-1.034 J1.034
G2 X24.462 Y255.593 I1.087 J1.087
G1 Y297.107
G2 X24.913 Y298.195 I1.538 J0.
G3 X22.845 Y300.263 I-1.034 J1.034
G2 X21.757 Y299.813 I-1.087 J1.087
G1 X8.
G2 X6.463 Y301.35 I0. J1.538
G1 Y501.35
G2 X8. Y502.888 I1.537 J0.
G1 X21.757
G2 X22.845 Y502.437 I0. J-1.538
G3 X24.913 Y504.505 I1.034 J1.034
G2 X24.462 Y505.593 I1.087 J1.087
G1 Y547.107
G2 X24.913 Y548.195 I1.538 J0.
G3 Y550.263 I-1.034 J1.034
X22.845 I-1.034 J-1.034
G2 X21.757 Y549.813 I-1.087 J1.087
G1 X8.
G2 X6.463 Y551.35 I0. J1.537
G1 Y601.35
G2 X8. Y602.888 I1.537 J0.
G1 X156.
G2 X157.538 Y601.35 I0. J-1.538
G1 Y393.487
X952.699
Y601.35
G2 X954.237 Y602.888 I1.537 J0.
G1 X1102.237
G2 X1103.774 Y601.35 I0. J-1.538
G1 Y551.35
G2 X1102.237 Y549.813 I-1.537 J0.
G1 X1088.479
G2 X1087.392 Y550.263 I0. J1.537
G3 X1085.324 I-1.034 J-1.034
Y548.195 I1.034 J-1.034
G2 X1085.774 Y547.107 I-1.087 J-1.087
G1 Y505.593
G2 X1085.324 Y504.505 I-1.537 J0.
G3 Y502.437 I1.034 J-1.034
X1087.392 I1.034 J1.034
G2 X1088.479 Y502.888 I1.087 J-1.087
G1 X1102.237
G2 X1103.774 Y501.35 I0. J-1.538
G1 Y301.35
G2 X1102.237 Y299.813 I-1.537 J0.
G1 X1088.479
G2 X1087.392 Y300.263 I0. J1.538
G3 X1085.324 I-1.034 J-1.034
Y298.195 I1.034 J-1.034
G2 X1085.774 Y297.107 I-1.087 J-1.087
G1 Y255.593
G2 X1085.324 Y254.505 I-1.537 J0.
G3 Y252.437 I1.034 J-1.034
X1087.392 I1.034 J1.034
G2 X1088.479 Y252.887 I1.087 J-1.087
G1 X1102.237
G2 X1103.774 Y251.35 I0. J-1.537
G1 Y201.35
G2 X1102.237 Y199.813 I-1.537 J0.
G1 X984.237
G2 X982.699 Y201.35 I0. J1.538
G1 Y216.35
G2 X984.237 Y217.887 I1.537 J0.
G3 Y220.813 I0. J1.463
X982.774 Y219.35 I0. J-1.463
G2 X981.237 Y217.813 I-1.537 J0.
G1 X937.237
G2 X935.699 Y219.35 I0. J1.538
G3 X932.774 I-1.463 J0.
X934.237 Y217.887 I1.463 J0.
G2 X935.774 Y216.35 I0. J-1.537
G1 Y201.35
G2 X934.237 Y199.813 I-1.537 J0.
G1 X580.118
G2 X578.581 Y201.35 I0. J1.538
G1 Y216.35
G2 X580.117 Y217.887 I1.538 J0.
G3 X580.116 Y220.813 I-0.001 J1.463
X578.654 Y219.35 I0.001 J-1.463
G2 X577.117 Y217.813 I-1.537 J0.
G1 X541.142
G3 X540.835 Y217.505 I0. J-0.307
G1 Y217.197
G19 G2 Y216.89 Z-8.693 J0. K0.307
G1 X539.811 Y199.81
G2 Y199.503 Z-9. J-0.307 K0.
G1 Y199.195
G17 G3 X540.118 Y198.887 I0.308 J0.
G2 X541.656 Y197.35 I0. J-1.537
G1 Y183.593
G2 X541.205 Y182.505 I-1.537 J0.
G3 Y180.437 I1.034 J-1.034
X543.274 I1.034 J1.034
G2 X544.361 Y180.887 I1.087 J-1.087
G1 X565.876
G2 X566.963 Y180.437 I0. J-1.537
G3 X569.031 I1.034 J1.034
Y182.505 I-1.034 J1.034
G2 X568.581 Y183.593 I1.087 J1.087
G1 Y197.35
G2 X570.118 Y198.887 I1.538 J0.
G1 X770.118
G2 X771.656 Y197.35 I0. J-1.537
G1 Y183.594
G2 X771.205 Y182.506 I-1.537 J0.
G3 X771.203 Y180.438 I1.033 J-1.035
X773.272 Y180.437 I1.035 J1.034
G2 X774.359 Y180.887 I1.087 J-1.087
G1 X795.874
G2 X796.961 Y180.437 I0. J-1.537
G3 X799.03 Y182.505 I1.034 J1.034
G2 X798.581 Y183.591 I1.088 J1.086
G1 Y197.35
G2 X800.118 Y198.887 I1.538 J0.
G1 X972.237
G2 X973.774 Y197.35 I0. J-1.537
G1 Y183.593
G2 X973.324 Y182.505 I-1.537 J0.
G3 X975.392 Y180.437 I1.034 J-1.034
G2 X976.479 Y180.887 I1.087 J-1.087
G1 X997.994
G2 X999.081 Y180.437 I0. J-1.537
G3 X1001.149 Y182.505 I1.034 J1.034
G2 X1000.699 Y183.593 I1.087 J1.087
G1 Y197.35
G2 X1002.237 Y198.887 I1.537 J0.
G1 X1084.237
G2 X1085.774 Y197.35 I0. J-1.537
G1 Y121.918
G2 X1085.324 Y120.83 I-1.537 J0.
G3 Y118.762 I1.034 J-1.034
X1087.392 I1.034 J1.034
G2 X1088.479 Y119.213 I1.087 J-1.087
G1 X1102.237
G2 X1103.774 Y117.675 I0. J-1.537
G1 Y87.675
G2 X1102.237 Y86.137 I-1.537 J0.
G1 X1088.479
G2 X1087.392 Y86.588 I0. J1.538
G3 X1085.324 I-1.034 J-1.034
Y84.52 I1.034 J-1.034
G2 X1085.774 Y83.432 I-1.087 J-1.087
G1 Y8.
G2 X1084.237 Y6.463 I-1.537 J0.
G1 X26.
G2 X24.462 Y8. I0. J1.537
G1 Y83.432
G2 X24.913 Y84.52 I1.538 J0.
G3 X22.845 Y86.588 I-1.034 J1.034
G2 X21.757 Y86.137 I-1.087 J1.087
G1 X8.
G2 X6.463 Y87.675 I0. J1.538
G1 Y117.675
G2 X8. Y119.213 I1.537 J0.
G1 X21.757
G2 X22.845 Y118.762 I0. J-1.537
G3 X24.913 I1.034 J1.034
Y120.83 I-1.034 J1.034
G2 X24.462 Y121.918 I1.087 J1.087
G1 Y197.35
G2 X26. Y198.887 I1.538 J0.
G1 X108.
G2 X109.537 Y197.35 I0. J-1.537
G1 Y183.593
G2 X109.087 Y182.505 I-1.537 J0.
G3 Y180.437 I1.034 J-1.034
X111.155 I1.034 J1.034
G2 X112.243 Y180.887 I1.087 J-1.087
G1 X133.757
G2 X134.845 Y180.437 I0. J-1.537
G3 X136.913 Y182.505 I1.034 J1.034
G2 X136.462 Y183.593 I1.087 J1.087
G1 Y197.35
G2 X138. Y198.887 I1.538 J0.
G1 X310.118
G2 X311.656 Y197.35 I0. J-1.537
G1 Y183.591
G2 X311.206 Y182.505 I-1.538 J0.
G3 X313.275 Y180.437 I1.035 J-1.033
G2 X314.363 Y180.887 I1.087 J-1.087
G1 X335.877
G2 X336.965 Y180.437 I0. J-1.537
G3 X339.033 Y180.438 I1.034 J1.034
X339.032 Y182.506 I-1.035 J1.034
G2 X338.581 Y183.594 I1.086 J1.088
G1 Y197.35
G2 X340.118 Y198.887 I1.538 J0.
G1 X540.118
G3 X540.426 Y199.195 I0. J0.308
G1 Y199.503
G19 G3 Y199.81 Z-8.693 J0. K0.307
G1 X539.811
Z-11.693 F833.
G2 Y199.503 Z-12. J-0.307 K0. F2500.
G1 Y199.195
G17 G3 X540.118 Y198.887 I0.308 J0.
G2 X541.656 Y197.35 I0. J-1.537
G1 Y183.593
G2 X541.205 Y182.505 I-1.537 J0.
G3 Y180.437 I1.034 J-1.034
X543.274 I1.034 J1.034
G2 X544.361 Y180.887 I1.087 J-1.087
G1 X565.876
G2 X566.963 Y180.437 I0. J-1.537
G3 X569.031 I1.034 J1.034
Y182.505 I-1.034 J1.034
G2 X568.581 Y183.593 I1.087 J1.087
G1 Y197.35
G2 X570.118 Y198.887 I1.538 J0.
G1 X770.118
G2 X771.656 Y197.35 I0. J-1.537
G1 Y183.594
G2 X771.205 Y182.506 I-1.537 J0.
G3 X771.203 Y180.438 I1.033 J-1.035
X773.272 Y180.437 I1.035 J1.034
G2 X774.359 Y180.887 I1.087 J-1.087
G1 X795.874
G2 X796.961 Y180.437 I0. J-1.537
G3 X799.03 Y182.505 I1.034 J1.034
G2 X798.581 Y183.591 I1.088 J1.086
G1 Y197.35
G2 X800.118 Y198.887 I1.538 J0.
G1 X972.237
G2 X973.774 Y197.35 I0. J-1.537
G1 Y183.593
G2 X973.324 Y182.505 I-1.537 J0.
G3 X975.392 Y180.437 I1.034 J-1.034
G2 X976.479 Y180.887 I1.087 J-1.087
G1 X997.994
G2 X999.081 Y180.437 I0. J-1.537
G3 X1001.149 Y182.505 I1.034 J1.034
G2 X1000.699 Y183.593 I1.087 J1.087
G1 Y197.35
G2 X1002.237 Y198.887 I1.537 J0.
G1 X1084.237
G2 X1085.774 Y197.35 I0. J-1.537
G1 Y121.918
G2 X1085.324 Y120.83 I-1.537 J0.
G3 Y118.762 I1.034 J-1.034
X1087.392 I1.034 J1.034
G2 X1088.479 Y119.213 I1.087 J-1.087
G1 X1102.237
G2 X1103.774 Y117.675 I0. J-1.537
G1 Y87.675
G2 X1102.237 Y86.137 I-1.537 J0.
G1 X1088.479
G2 X1087.392 Y86.588 I0. J1.538
G3 X1085.324 I-1.034 J-1.034
Y84.52 I1.034 J-1.034
G2 X1085.774 Y83.432 I-1.087 J-1.087
G1 Y8.
G2 X1084.237 Y6.463 I-1.537 J0.
G1 X26.
G2 X24.462 Y8. I0. J1.537
G1 Y83.432
G2 X24.913 Y84.52 I1.538 J0.
G3 X22.845 Y86.588 I-1.034 J1.034
G2 X21.757 Y86.137 I-1.087 J1.087
G1 X8.
G2 X6.463 Y87.675 I0. J1.538
G1 Y117.675
G2 X8. Y119.213 I1.537 J0.
G1 X21.757
G2 X22.845 Y118.762 I0. J-1.537
G3 X24.913 I1.034 J1.034
Y120.83 I-1.034 J1.034
G2 X24.462 Y121.918 I1.087 J1.087
G1 Y197.35
G2 X26. Y198.887 I1.538 J0.
G1 X108.
G2 X109.537 Y197.35 I0. J-1.537
G1 Y183.593
G2 X109.087 Y182.505 I-1.537 J0.
G3 Y180.437 I1.034 J-1.034
X111.155 I1.034 J1.034
G2 X112.243 Y180.887 I1.087 J-1.087
G1 X133.757
G2 X134.845 Y180.437 I0. J-1.537
G3 X136.913 Y182.505 I1.034 J1.034
G2 X136.462 Y183.593 I1.087 J1.087
G1 Y197.35
G2 X138. Y198.887 I1.538 J0.
G1 X310.118
G2 X311.656 Y197.35 I0. J-1.537
G1 Y183.591
G2 X311.206 Y182.505 I-1.538 J0.
G3 X313.275 Y180.437 I1.035 J-1.033
G2 X314.363 Y180.887 I1.087 J-1.087
G1 X335.877
G2 X336.965 Y180.437 I0. J-1.537
G3 X339.033 Y180.438 I1.034 J1.034
X339.032 Y182.506 I-1.035 J1.034
G2 X338.581 Y183.594 I1.086 J1.088
G1 Y197.35
G2 X340.118 Y198.887 I1.538 J0.
G1 X540.118
G3 X540.426 Y199.195 I0. J0.308
G1 Y199.503
G19 G3 Y199.81 Z-11.693 J0. K0.307
G1 X541.45 Y216.89
G3 Y217.197 Z-12. J0.307 K0.
G1 Y217.505
G17 G3 X541.142 Y217.813 I-0.307 J0.
G1 X533.117
G2 X531.579 Y219.35 I0. J1.538
G3 X528.654 I-1.463 J0.
X530.117 Y217.887 I1.463 J0.
G2 X531.656 Y216.35 I0.001 J-1.537
G1 Y201.35
G2 X530.118 Y199.813 I-1.537 J0.
G1 X176.
G2 X174.462 Y201.35 I0. J1.538
G1 Y216.35
G2 X176. Y217.887 I1.538 J0.
G3 Y220.813 I0. J1.463
X174.538 Y219.35 I0. J-1.462
G2 X173. Y217.813 I-1.538 J0.
G1 X129.
G2 X127.463 Y219.35 I0. J1.538
G3 X124.537 I-1.463 J0.
X126. Y217.887 I1.463 J0.
G2 X127.537 Y216.35 I0. J-1.537
G1 Y201.35
G2 X126. Y199.813 I-1.537 J0.
G1 X8.
G2 X6.463 Y201.35 I0. J1.538
G1 Y251.35
G2 X8. Y252.887 I1.537 J0.
G1 X21.757
G2 X22.845 Y252.437 I0. J-1.537
G3 X24.913 I1.034 J1.034
Y254.505 I-1.034 J1.034
G2 X24.462 Y255.593 I1.087 J1.087
G1 Y297.107
G2 X24.913 Y298.195 I1.538 J0.
G3 X22.845 Y300.263 I-1.034 J1.034
G2 X21.757 Y299.813 I-1.087 J1.087
G1 X8.
G2 X6.463 Y301.35 I0. J1.538
G1 Y501.35
G2 X8. Y502.888 I1.537 J0.
G1 X21.757
G2 X22.845 Y502.437 I0. J-1.538
G3 X24.913 Y504.505 I1.034 J1.034
G2 X24.462 Y505.593 I1.087 J1.087
G1 Y547.107
G2 X24.913 Y548.195 I1.538 J0.
G3 Y550.263 I-1.034 J1.034
X22.845 I-1.034 J-1.034
G2 X21.757 Y549.813 I-1.087 J1.087
G1 X8.
G2 X6.463 Y551.35 I0. J1.537
G1 Y601.35
G2 X8. Y602.888 I1.537 J0.
G1 X156.
G2 X157.538 Y601.35 I0. J-1.538
G1 Y393.487
X952.699
Y601.35
G2 X954.237 Y602.888 I1.537 J0.
G1 X1102.237
G2 X1103.774 Y601.35 I0. J-1.538
G1 Y551.35
G2 X1102.237 Y549.813 I-1.537 J0.
G1 X1088.479
G2 X1087.392 Y550.263 I0. J1.537
G3 X1085.324 I-1.034 J-1.034
Y548.195 I1.034 J-1.034
G2 X1085.774 Y547.107 I-1.087 J-1.087
G1 Y505.593
G2 X1085.324 Y504.505 I-1.537 J0.
G3 Y502.437 I1.034 J-1.034
X1087.392 I1.034 J1.034
G2 X1088.479 Y502.888 I1.087 J-1.087
G1 X1102.237
G2 X1103.774 Y501.35 I0. J-1.538
G1 Y301.35
G2 X1102.237 Y299.813 I-1.537 J0.
G1 X1088.479
G2 X1087.392 Y300.263 I0. J1.538
G3 X1085.324 I-1.034 J-1.034
Y298.195 I1.034 J-1.034
G2 X1085.774 Y297.107 I-1.087 J-1.087
G1 Y255.593
G2 X1085.324 Y254.505 I-1.537 J0.
G3 Y252.437 I1.034 J-1.034
X1087.392 I1.034 J1.034
G2 X1088.479 Y252.887 I1.087 J-1.087
G1 X1102.237
G2 X1103.774 Y251.35 I0. J-1.537
G1 Y201.35
G2 X1102.237 Y199.813 I-1.537 J0.
G1 X984.237
G2 X982.699 Y201.35 I0. J1.538
G1 Y216.35
G2 X984.237 Y217.887 I1.537 J0.
G3 Y220.813 I0. J1.463
X982.774 Y219.35 I0. J-1.463
G2 X981.237 Y217.813 I-1.537 J0.
G1 X937.237
G2 X935.699 Y219.35 I0. J1.538
G3 X932.774 I-1.463 J0.
X934.237 Y217.887 I1.463 J0.
G2 X935.774 Y216.35 I0. J-1.537
G1 Y201.35
G2 X934.237 Y199.813 I-1.537 J0.
G1 X580.118
G2 X578.581 Y201.35 I0. J1.538
G1 Y216.35
G2 X580.117 Y217.887 I1.538 J0.
G3 X580.116 Y220.813 I-0.001 J1.463
X578.654 Y219.35 I0.001 J-1.463
G2 X577.117 Y217.813 I-1.537 J0.
G1 X541.142
G3 X540.835 Y217.505 I0. J-0.307
G1 Y217.197
G19 G2 Y216.89 Z-11.693 J0. K0.307
G1 X541.45
Z-14.693 F833.
G3 Y217.197 Z-15. J0.307 K0. F2500.
G1 Y217.505
G17 G3 X541.142 Y217.813 I-0.307 J0.
G1 X533.117
G2 X531.579 Y219.35 I0. J1.538
G3 X528.654 I-1.463 J0.
X530.117 Y217.887 I1.463 J0.
G2 X531.656 Y216.35 I0.001 J-1.537
G1 Y201.35
G2 X530.118 Y199.813 I-1.537 J0.
G1 X176.
G2 X174.462 Y201.35 I0. J1.538
G1 Y216.35
G2 X176. Y217.887 I1.538 J0.
G3 Y220.813 I0. J1.463
X174.538 Y219.35 I0. J-1.462
G2 X173. Y217.813 I-1.538 J0.
G1 X129.
G2 X127.463 Y219.35 I0. J1.538
G3 X124.537 I-1.463 J0.
X126. Y217.887 I1.463 J0.
G2 X127.537 Y216.35 I0. J-1.537
G1 Y201.35
G2 X126. Y199.813 I-1.537 J0.
G1 X8.
G2 X6.463 Y201.35 I0. J1.538
G1 Y251.35
G2 X8. Y252.887 I1.537 J0.
G1 X21.757
G2 X22.845 Y252.437 I0. J-1.537
G3 X24.913 I1.034 J1.034
Y254.505 I-1.034 J1.034
G2 X24.462 Y255.593 I1.087 J1.087
G1 Y297.107
G2 X24.913 Y298.195 I1.538 J0.
G3 X22.845 Y300.263 I-1.034 J1.034
G2 X21.757 Y299.813 I-1.087 J1.087
G1 X8.
G2 X6.463 Y301.35 I0. J1.538
G1 Y501.35
G2 X8. Y502.888 I1.537 J0.
G1 X21.757
G2 X22.845 Y502.437 I0. J-1.538
G3 X24.913 Y504.505 I1.034 J1.034
G2 X24.462 Y505.593 I1.087 J1.087
G1 Y547.107
G2 X24.913 Y548.195 I1.538 J0.
G3 Y550.263 I-1.034 J1.034
X22.845 I-1.034 J-1.034
G2 X21.757 Y549.813 I-1.087 J1.087
G1 X8.
G2 X6.463 Y551.35 I0. J1.537
G1 Y601.35
G2 X8. Y602.888 I1.537 J0.
G1 X156.
G2 X157.538 Y601.35 I0. J-1.538
G1 Y393.487
X952.699
Y601.35
G2 X954.237 Y602.888 I1.537 J0.
G1 X1102.237
G2 X1103.774 Y601.35 I0. J-1.538
G1 Y551.35
G2 X1102.237 Y549.813 I-1.537 J0.
G1 X1088.479
G2 X1087.392 Y550.263 I0. J1.537
G3 X1085.324 I-1.034 J-1.034
Y548.195 I1.034 J-1.034
G2 X1085.774 Y547.107 I-1.087 J-1.087
G1 Y505.593
G2 X1085.324 Y504.505 I-1.537 J0.
G3 Y502.437 I1.034 J-1.034
X1087.392 I1.034 J1.034
G2 X1088.479 Y502.888 I1.087 J-1.087
G1 X1102.237
G2 X1103.774 Y501.35 I0. J-1.538
G1 Y301.35
G2 X1102.237 Y299.813 I-1.537 J0.
G1 X1088.479
G2 X1087.392 Y300.263 I0. J1.538
G3 X1085.324 I-1.034 J-1.034
Y298.195 I1.034 J-1.034
G2 X1085.774 Y297.107 I-1.087 J-1.087
G1 Y255.593
G2 X1085.324 Y254.505 I-1.537 J0.
G3 Y252.437 I1.034 J-1.034
X1087.392 I1.034 J1.034
G2 X1088.479 Y252.887 I1.087 J-1.087
G1 X1102.237
G2 X1103.774 Y251.35 I0. J-1.537
G1 Y201.35
G2 X1102.237 Y199.813 I-1.537 J0.
G1 X984.237
G2 X982.699 Y201.35 I0. J1.538
G1 Y216.35
G2 X984.237 Y217.887 I1.537 J0.
G3 Y220.813 I0. J1.463
X982.774 Y219.35 I0. J-1.463
G2 X981.237 Y217.813 I-1.537 J0.
G1 X937.237
G2 X935.699 Y219.35 I0. J1.538
G3 X932.774 I-1.463 J0.
X934.237 Y217.887 I1.463 J0.
G2 X935.774 Y216.35 I0. J-1.537
G1 Y201.35
G2 X934.237 Y199.813 I-1.537 J0.
G1 X580.118
G2 X578.581 Y201.35 I0. J1.538
G1 Y216.35
G2 X580.117 Y217.887 I1.538 J0.
G3 X580.116 Y220.813 I-0.001 J1.463
X578.654 Y219.35 I0.001 J-1.463
G2 X577.117 Y217.813 I-1.537 J0.
G1 X541.142
G3 X540.835 Y217.505 I0. J-0.307
G1 Y217.197
G19 G2 Y216.89 Z-14.693 J0. K0.307
G1 X539.811 Y199.81
G2 Y199.503 Z-15. J-0.307 K0.
G1 Y199.195
G17 G3 X540.118 Y198.887 I0.308 J0.
G2 X541.656 Y197.35 I0. J-1.537
G1 Y183.593
G2 X541.205 Y182.505 I-1.537 J0.
G3 Y180.437 I1.034 J-1.034
X543.274 I1.034 J1.034
G2 X544.361 Y180.887 I1.087 J-1.087
G1 X565.876
G2 X566.963 Y180.437 I0. J-1.537
G3 X569.031 I1.034 J1.034
Y182.505 I-1.034 J1.034
G2 X568.581 Y183.593 I1.087 J1.087
G1 Y197.35
G2 X570.118 Y198.887 I1.538 J0.
G1 X770.118
G2 X771.656 Y197.35 I0. J-1.537
G1 Y183.594
G2 X771.205 Y182.506 I-1.537 J0.
G3 X771.203 Y180.438 I1.033 J-1.035
X773.272 Y180.437 I1.035 J1.034
G2 X774.359 Y180.887 I1.087 J-1.087
G1 X795.874
G2 X796.961 Y180.437 I0. J-1.537
G3 X799.03 Y182.505 I1.034 J1.034
G2 X798.581 Y183.591 I1.088 J1.086
G1 Y197.35
G2 X800.118 Y198.887 I1.538 J0.
G1 X972.237
G2 X973.774 Y197.35 I0. J-1.537
G1 Y183.593
G2 X973.324 Y182.505 I-1.537 J0.
G3 X975.392 Y180.437 I1.034 J-1.034
G2 X976.479 Y180.887 I1.087 J-1.087
G1 X997.994
G2 X999.081 Y180.437 I0. J-1.537
G3 X1001.149 Y182.505 I1.034 J1.034
G2 X1000.699 Y183.593 I1.087 J1.087
G1 Y197.35
G2 X1002.237 Y198.887 I1.537 J0.
G1 X1084.237
G2 X1085.774 Y197.35 I0. J-1.537
G1 Y121.918
G2 X1085.324 Y120.83 I-1.537 J0.
G3 Y118.762 I1.034 J-1.034
X1087.392 I1.034 J1.034
G2 X1088.479 Y119.213 I1.087 J-1.087
G1 X1102.237
G2 X1103.774 Y117.675 I0. J-1.537
G1 Y87.675
G2 X1102.237 Y86.137 I-1.537 J0.
G1 X1088.479
G2 X1087.392 Y86.588 I0. J1.538
G3 X1085.324 I-1.034 J-1.034
Y84.52 I1.034 J-1.034
G2 X1085.774 Y83.432 I-1.087 J-1.087
G1 Y8.
G2 X1084.237 Y6.463 I-1.537 J0.
G1 X26.
G2 X24.462 Y8. I0. J1.537
G1 Y83.432
G2 X24.913 Y84.52 I1.538 J0.
G3 X22.845 Y86.588 I-1.034 J1.034
G2 X21.757 Y86.137 I-1.087 J1.087
G1 X8.
G2 X6.463 Y87.675 I0. J1.538
G1 Y117.675
G2 X8. Y119.213 I1.537 J0.
G1 X21.757
G2 X22.845 Y118.762 I0. J-1.537
G3 X24.913 I1.034 J1.034
Y120.83 I-1.034 J1.034
G2 X24.462 Y121.918 I1.087 J1.087
G1 Y197.35
G2 X26. Y198.887 I1.538 J0.
G1 X108.
G2 X109.537 Y197.35 I0. J-1.537
G1 Y183.593
G2 X109.087 Y182.505 I-1.537 J0.
G3 Y180.437 I1.034 J-1.034
X111.155 I1.034 J1.034
G2 X112.243 Y180.887 I1.087 J-1.087
G1 X133.757
G2 X134.845 Y180.437 I0. J-1.537
G3 X136.913 Y182.505 I1.034 J1.034
G2 X136.462 Y183.593 I1.087 J1.087
G1 Y197.35
G2 X138. Y198.887 I1.538 J0.
G1 X310.118
G2 X311.656 Y197.35 I0. J-1.537
G1 Y183.591
G2 X311.206 Y182.505 I-1.538 J0.
G3 X313.275 Y180.437 I1.035 J-1.033
G2 X314.363 Y180.887 I1.087 J-1.087
G1 X335.877
G2 X336.965 Y180.437 I0. J-1.537
G3 X339.033 Y180.438 I1.034 J1.034
X339.032 Y182.506 I-1.035 J1.034
G2 X338.581 Y183.594 I1.086 J1.088
G1 Y197.35
G2 X340.118 Y198.887 I1.538 J0.
G1 X540.118
G3 X540.426 Y199.195 I0. J0.308
G1 Y199.503
G19 G3 Y199.81 Z-14.693 J0. K0.307
G1 X539.811
Z-17.693 F833.
G2 Y199.503 Z-18. J-0.307 K0. F2500.
G1 Y199.195
G17 G3 X540.118 Y198.887 I0.308 J0.
G2 X541.656 Y197.35 I0. J-1.537
G1 Y183.593
G2 X541.205 Y182.505 I-1.537 J0.
G3 Y180.437 I1.034 J-1.034
X543.274 I1.034 J1.034
G2 X544.361 Y180.887 I1.087 J-1.087
G1 X565.876
G2 X566.963 Y180.437 I0. J-1.537
G3 X569.031 I1.034 J1.034
Y182.505 I-1.034 J1.034
G2 X568.581 Y183.593 I1.087 J1.087
G1 Y197.35
G2 X570.118 Y198.887 I1.538 J0.
G1 X770.118
G2 X771.656 Y197.35 I0. J-1.537
G1 Y183.594
G2 X771.205 Y182.506 I-1.537 J0.
G3 X771.203 Y180.438 I1.033 J-1.035
X773.272 Y180.437 I1.035 J1.034
G2 X774.359 Y180.887 I1.087 J-1.087
G1 X795.874
G2 X796.961 Y180.437 I0. J-1.537
G3 X799.03 Y182.505 I1.034 J1.034
G2 X798.581 Y183.591 I1.088 J1.086
G1 Y197.35
G2 X800.118 Y198.887 I1.538 J0.
G1 X972.237
G2 X973.774 Y197.35 I0. J-1.537
G1 Y183.593
G2 X973.324 Y182.505 I-1.537 J0.
G3 X975.392 Y180.437 I1.034 J-1.034
G2 X976.479 Y180.887 I1.087 J-1.087
G1 X997.994
G2 X999.081 Y180.437 I0. J-1.537
G3 X1001.149 Y182.505 I1.034 J1.034
G2 X1000.699 Y183.593 I1.087 J1.087
G1 Y197.35
G2 X1002.237 Y198.887 I1.537 J0.
G1 X1084.237
G2 X1085.774 Y197.35 I0. J-1.537
G1 Y121.918
G2 X1085.324 Y120.83 I-1.537 J0.
G3 Y118.762 I1.034 J-1.034
X1087.392 I1.034 J1.034
G2 X1088.479 Y119.213 I1.087 J-1.087
G1 X1102.237
G2 X1103.774 Y117.675 I0. J-1.537
G1 Y87.675
G2 X1102.237 Y86.137 I-1.537 J0.
G1 X1088.479
G2 X1087.392 Y86.588 I0. J1.538
G3 X1085.324 I-1.034 J-1.034
Y84.52 I1.034 J-1.034
G2 X1085.774 Y83.432 I-1.087 J-1.087
G1 Y8.
G2 X1084.237 Y6.463 I-1.537 J0.
G1 X26.
G2 X24.462 Y8. I0. J1.537
G1 Y83.432
G2 X24.913 Y84.52 I1.538 J0.
G3 X22.845 Y86.588 I-1.034 J1.034
G2 X21.757 Y86.137 I-1.087 J1.087
G1 X8.
G2 X6.463 Y87.675 I0. J1.538
G1 Y117.675
G2 X8. Y119.213 I1.537 J0.
G1 X21.757
G2 X22.845 Y118.762 I0. J-1.537
G3 X24.913 I1.034 J1.034
Y120.83 I-1.034 J1.034
G2 X24.462 Y121.918 I1.087 J1.087
G1 Y197.35
G2 X26. Y198.887 I1.538 J0.
G1 X108.
G2 X109.537 Y197.35 I0. J-1.537
G1 Y183.593
G2 X109.087 Y182.505 I-1.537 J0.
G3 Y180.437 I1.034 J-1.034
X111.155 I1.034 J1.034
G2 X112.243 Y180.887 I1.087 J-1.087
G1 X133.757
G2 X134.845 Y180.437 I0. J-1.537
G3 X136.913 Y182.505 I1.034 J1.034
G2 X136.462 Y183.593 I1.087 J1.087
G1 Y197.35
G2 X138. Y198.887 I1.538 J0.
G1 X310.118
G2 X311.656 Y197.35 I0. J-1.537
G1 Y183.591
G2 X311.206 Y182.505 I-1.538 J0.
G3 X313.275 Y180.437 I1.035 J-1.033
G2 X314.363 Y180.887 I1.087 J-1.087
G1 X335.877
G2 X336.965 Y180.437 I0. J-1.537
G3 X339.033 Y180.438 I1.034 J1.034
X339.032 Y182.506 I-1.035 J1.034
G2 X338.581 Y183.594 I1.086 J1.088
G1 Y197.35
G2 X340.118 Y198.887 I1.538 J0.
G1 X540.118
G3 X540.426 Y199.195 I0. J0.308
G1 Y199.503
G19 G3 Y199.81 Z-17.693 J0. K0.308
G1 X541.45 Y216.89
G3 Y217.197 Z-18. J0.307 K0.
G1 Y217.505
G17 G3 X541.142 Y217.813 I-0.307 J0.
G1 X533.117
G2 X531.579 Y219.35 I0. J1.538
G3 X528.654 I-1.463 J0.
X530.117 Y217.887 I1.463 J0.
G2 X531.656 Y216.35 I0.001 J-1.537
G1 Y201.35
G2 X530.118 Y199.813 I-1.537 J0.
G1 X176.
G2 X174.462 Y201.35 I0. J1.538
G1 Y216.35
G2 X176. Y217.887 I1.538 J0.
G3 Y220.813 I0. J1.463
X174.538 Y219.35 I0. J-1.462
G2 X173. Y217.813 I-1.538 J0.
G1 X129.
G2 X127.463 Y219.35 I0. J1.538
G3 X124.537 I-1.463 J0.
X126. Y217.887 I1.463 J0.
G2 X127.537 Y216.35 I0. J-1.537
G1 Y201.35
G2 X126. Y199.813 I-1.537 J0.
G1 X8.
G2 X6.463 Y201.35 I0. J1.538
G1 Y251.35
G2 X8. Y252.887 I1.537 J0.
G1 X21.757
G2 X22.845 Y252.437 I0. J-1.537
G3 X24.913 I1.034 J1.034
Y254.505 I-1.034 J1.034
G2 X24.462 Y255.593 I1.087 J1.087
G1 Y297.107
G2 X24.913 Y298.195 I1.538 J0.
G3 X22.845 Y300.263 I-1.034 J1.034
G2 X21.757 Y299.813 I-1.087 J1.087
G1 X8.
G2 X6.463 Y301.35 I0. J1.538
G1 Y501.35
G2 X8. Y502.888 I1.537 J0.
G1 X21.757
G2 X22.845 Y502.437 I0. J-1.538
G3 X24.913 Y504.505 I1.034 J1.034
G2 X24.462 Y505.593 I1.087 J1.087
G1 Y547.107
G2 X24.913 Y548.195 I1.538 J0.
G3 Y550.263 I-1.034 J1.034
X22.845 I-1.034 J-1.034
G2 X21.757 Y549.813 I-1.087 J1.087
G1 X8.
G2 X6.463 Y551.35 I0. J1.537
G1 Y601.35
G2 X8. Y602.888 I1.537 J0.
G1 X156.
G2 X157.538 Y601.35 I0. J-1.538
G1 Y393.487
X952.699
Y601.35
G2 X954.237 Y602.888 I1.537 J0.
G1 X1102.237
G2 X1103.774 Y601.35 I0. J-1.538
G1 Y551.35
G2 X1102.237 Y549.813 I-1.537 J0.
G1 X1088.479
G2 X1087.392 Y550.263 I0. J1.537
G3 X1085.324 I-1.034 J-1.034
Y548.195 I1.034 J-1.034
G2 X1085.774 Y547.107 I-1.087 J-1.087
G1 Y505.593
G2 X1085.324 Y504.505 I-1.537 J0.
G3 Y502.437 I1.034 J-1.034
X1087.392 I1.034 J1.034
G2 X1088.479 Y502.888 I1.087 J-1.087
G1 X1102.237
G2 X1103.774 Y501.35 I0. J-1.538
G1 Y301.35
G2 X1102.237 Y299.813 I-1.537 J0.
G1 X1088.479
G2 X1087.392 Y300.263 I0. J1.538
G3 X1085.324 I-1.034 J-1.034
Y298.195 I1.034 J-1.034
G2 X1085.774 Y297.107 I-1.087 J-1.087
G1 Y255.593
G2 X1085.324 Y254.505 I-1.537 J0.
G3 Y252.437 I1.034 J-1.034
X1087.392 I1.034 J1.034
G2 X1088.479 Y252.887 I1.087 J-1.087
G1 X1102.237
G2 X1103.774 Y251.35 I0. J-1.537
G1 Y201.35
G2 X1102.237 Y199.813 I-1.537 J0.
G1 X984.237
G2 X982.699 Y201.35 I0. J1.538
G1 Y216.35
G2 X984.237 Y217.887 I1.537 J0.
G3 Y220.813 I0. J1.463
X982.774 Y219.35 I0. J-1.463
G2 X981.237 Y217.813 I-1.537 J0.
G1 X937.237
G2 X935.699 Y219.35 I0. J1.538
G3 X932.774 I-1.463 J0.
X934.237 Y217.887 I1.463 J0.
G2 X935.774 Y216.35 I0. J-1.537
G1 Y201.35
G2 X934.237 Y199.813 I-1.537 J0.
G1 X580.118
G2 X578.581 Y201.35 I0. J1.538
G1 Y216.35
G2 X580.117 Y217.887 I1.538 J0.
G3 X580.116 Y220.813 I-0.001 J1.463
X578.654 Y219.35 I0.001 J-1.463
G2 X577.117 Y217.813 I-1.537 J0.
G1 X541.142
G3 X540.835 Y217.505 I0. J-0.307
G1 Y217.197
G19 G2 Y216.89 Z-17.693 J0. K0.308
G0 Z15.
G17

M30
